app/src/main/assets/luts/Blue.CUBE
#Created by: Leica Camera AG | Wetzar | Germany
#Unique Leica Look ID: 4
#Based Filmstyle Mode: Standard
TITLE "Leica Blue"
#LUT size
LUT_3D_SIZE 9
#data domain
DOMAIN_MIN 0.0 0.0 0.0
DOMAIN_MAX 1.0 1.0 1.0
#LUT data points
0.019318 0.019714 0.020935
0.065308 0.082397 0.102295
0.138123 0.159424 0.184448
0.214600 0.238647 0.266815
0.292816 0.319214 0.349548
0.372498 0.401733 0.433716
0.453613 0.485596 0.519043
0.535919 0.570709 0.606049
0.618805 0.655914 0.693909
0.058838 0.073914 0.093384
0.098541 0.118896 0.141602
0.170166 0.192352 0.218903
0.244659 0.269775 0.298706
0.321899 0.349426 0.380341
0.401123 0.431396 0.463867
0.482117 0.514801 0.548950
0.564240 0.599670 0.635803
0.646393 0.684479 0.723572
0.121826 0.142609 0.166992
0.163452 0.185455 0.211853
0.208008 0.231445 0.259460
0.280579 0.306854 0.336761
0.356293 0.384979 0.416534
0.434235 0.465485 0.498718
0.514160 0.548004 0.582855
0.595459 0.631927 0.668945
0.676727 0.715820 0.756500
0.189636 0.212982 0.240112
0.231201 0.255707 0.284241
0.274750 0.300964 0.330719
0.321259 0.348785 0.379608
0.395386 0.425262 0.457703
0.471893 0.504395 0.538239
0.550446 0.585571 0.621216
0.630219 0.667755 0.706116
0.710144 0.750305 0.792847
0.259857 0.285736 0.315033
0.301392 0.328369 0.358856
0.344696 0.373108 0.404449
0.390198 0.420074 0.452332
0.437683 0.469147 0.502289
0.512787 0.546661 0.581451
0.589813 0.626099 0.663055
0.667847 0.706573 0.746613
0.746429 0.787903 0.833099
0.331635 0.359833 0.390808
0.373383 0.402557 0.434540
0.416382 0.447144 0.480011
0.461212 0.493256 0.526947
0.507599 0.541351 0.576019
0.556122 0.591370 0.627167
0.631500 0.669128 0.707550
0.707794 0.747925 0.790405
0.785370 0.827911 0.875885
0.403961 0.434326 0.466797
0.445953 0.477509 0.510925
0.488983 0.521912 0.556122
0.533417 0.567932 0.603119
0.579315 0.615295 0.651733
0.626404 0.663788 0.701996
0.674774 0.713684 0.754089
0.749908 0.791443 0.836639
0.825714 0.869659 0.920715
0.477020 0.509583 0.543671
0.519012 0.553131 0.588074
0.562225 0.597687 0.633636
0.606079 0.642944 0.680450
0.651306 0.689362 0.728668
0.697479 0.737183 0.778900
0.744690 0.786102 0.830994
0.793152 0.835968 0.884460
0.867004 0.911987 0.966217
0.550568 0.585693 0.621338
0.592804 0.629242 0.666229
0.635406 0.673096 0.711792
0.678925 0.718140 0.758820
0.723419 0.764160 0.807709
0.768951 0.811188 0.857849
0.815430 0.858978 0.909241
0.862030 0.907104 0.960785
0.914337 0.953278 1.000000
0.023285 0.028870 0.037598
0.070557 0.088135 0.108673
0.143585 0.165283 0.190582
0.220337 0.244568 0.272858
0.298584 0.325348 0.355682
0.378387 0.407806 0.439819
0.459564 0.491669 0.525269
0.541962 0.576843 0.612366
0.624786 0.662079 0.700226
0.073608 0.090240 0.111603
0.104492 0.124481 0.147675
0.175781 0.198303 0.225128
0.250305 0.275574 0.304810
0.327728 0.355499 0.386414
0.407196 0.437439 0.470093
0.488037 0.520996 0.555237
0.570129 0.605896 0.642090
0.652374 0.690674 0.729980
0.137787 0.159149 0.184204
0.169189 0.191376 0.217773
0.213379 0.237518 0.265564
0.286072 0.312744 0.342682
0.361969 0.391113 0.422668
0.440216 0.471619 0.504944
0.520172 0.554260 0.589172
0.601410 0.638092 0.675354
0.682709 0.721954 0.762909
0.205994 0.229523 0.257385
0.236755 0.261780 0.290344
0.280670 0.306946 0.336823
0.327179 0.354736 0.385803
0.401276 0.431335 0.463837
0.477692 0.510406 0.544495
0.556396 0.591766 0.627533
0.636047 0.673676 0.712402
0.716003 0.756500 0.799347
0.276337 0.302460 0.332245
0.307373 0.334381 0.365021
0.350739 0.379150 0.410675
0.396149 0.425995 0.458527
0.443848 0.475220 0.508484
0.518707 0.552856 0.587738
0.595825 0.632294 0.669373
0.673798 0.712524 0.753052
0.752350 0.794128 0.839630
0.348267 0.376801 0.408234
0.379272 0.408661 0.440704
0.422516 0.453186 0.486145
0.467224 0.499390 0.533173
0.513641 0.547485 0.582275
0.562164 0.597595 0.633575
0.637512 0.675323 0.713928
0.713715 0.754150 0.796936
0.791168 0.834045 0.882446
0.420654 0.451630 0.484436
0.451935 0.483612 0.517181
0.494781 0.528168 0.562469
0.539337 0.574097 0.609467
0.585297 0.621521 0.658112
0.632355 0.669952 0.708374
0.680664 0.719696 0.760498
0.755859 0.797455 0.843262
0.831635 0.875732 0.927185
0.493744 0.526886 0.561371
0.525024 0.559387 0.594360
0.568085 0.603638 0.639893
0.612152 0.649078 0.686829
0.657135 0.695526 0.735077
0.703369 0.743225 0.785370
0.750641 0.792358 0.837555
0.798859 0.842072 0.891083
0.872772 0.917938 0.972534
0.567444 0.603058 0.639252
0.598663 0.635223 0.672546
0.641388 0.679260 0.718201
0.684845 0.724274 0.765289
0.729370 0.770355 0.814270
0.775024 0.817352 0.864441
0.821228 0.865082 0.915741
0.867889 0.912994 0.967133
0.920959 0.958374 1.000000
0.038300 0.048370 0.062561
0.090668 0.110413 0.132446
0.149475 0.170898 0.196625
0.226135 0.250488 0.278900
0.304230 0.331360 0.361816
0.384064 0.413940 0.446014
0.465607 0.497803 0.531494
0.547974 0.583069 0.618652
0.630646 0.668274 0.706635
0.093231 0.112854 0.135193
0.125397 0.146759 0.171112
0.181061 0.204346 0.231171
0.256134 0.281525 0.310944
0.333588 0.361450 0.392639
0.412903 0.443573 0.476227
0.493744 0.526917 0.561462
0.575958 0.611877 0.648407
0.658173 0.696625 0.736420
0.153381 0.175842 0.201447
0.184998 0.208038 0.234924
0.219238 0.243500 0.271698
0.292206 0.318634 0.348938
0.367798 0.396973 0.428833
0.446106 0.477661 0.511108
0.526215 0.560425 0.595520
0.607483 0.644257 0.681671
0.688690 0.727966 0.769409
0.222015 0.246185 0.274658
0.253021 0.278473 0.307648
0.286377 0.312775 0.342957
0.332733 0.360840 0.391876
0.407227 0.437469 0.470123
0.483673 0.516479 0.550659
0.562500 0.597961 0.633942
0.641998 0.679871 0.718842
0.721954 0.762665 0.805908
0.292847 0.319244 0.349579
0.323822 0.351288 0.382446
0.356567 0.385223 0.416779
0.401886 0.432159 0.464661
0.449402 0.481323 0.514557
0.524719 0.559082 0.594025
0.601868 0.638519 0.675720
0.679596 0.718689 0.759491
0.758423 0.800293 0.846252
0.364899 0.393738 0.425659
0.395813 0.425690 0.458160
0.428040 0.459320 0.492340
0.473053 0.505554 0.539429
0.519745 0.553680 0.588654
0.567963 0.603546 0.639801
0.643311 0.681274 0.720245
0.719788 0.760345 0.803497
0.797119 0.840210 0.889038
0.437408 0.468872 0.501984
0.468567 0.500854 0.534637
0.500580 0.534149 0.568695
0.545227 0.580048 0.615845
0.591095 0.627441 0.664337
0.638306 0.676208 0.714783
0.686432 0.725830 0.766937
0.761627 0.803650 0.849762
0.837433 0.881561 0.933624
0.510681 0.544464 0.579224
0.541901 0.576782 0.612305
0.574066 0.609863 0.646210
0.618134 0.655243 0.693176
0.663116 0.701721 0.741547
0.709106 0.749420 0.791931
0.756683 0.798523 0.844177
0.804840 0.848206 0.897583
0.878357 0.923828 0.978790
0.584534 0.620636 0.657288
0.615570 0.652710 0.690399
0.647278 0.685455 0.724548
0.690918 0.730438 0.771790
0.735413 0.776550 0.820801
0.780945 0.823578 0.871002
0.827057 0.871124 0.922211
0.873596 0.918762 0.973450
0.927979 0.963440 1.000000
0.055939 0.070618 0.089417
0.111511 0.132721 0.155853
0.170715 0.193512 0.220093
0.231567 0.256500 0.285095
0.309967 0.337402 0.367859
0.389923 0.419800 0.452087
0.471283 0.503723 0.537689
0.553802 0.589020 0.624939
0.636688 0.674316 0.713013
0.114532 0.134827 0.158691
0.147339 0.168915 0.194580
0.202972 0.226746 0.254578
0.261780 0.287567 0.316956
0.339233 0.367584 0.398712
0.418732 0.449402 0.482361
0.499756 0.533142 0.567719
0.581940 0.618073 0.654755
0.664124 0.702789 0.742859
0.175232 0.198273 0.224823
0.206909 0.230438 0.258453
0.241272 0.266144 0.295044
0.297913 0.324707 0.355011
0.373749 0.402924 0.434937
0.452118 0.483795 0.517395
0.532135 0.566681 0.601776
0.613190 0.650208 0.687958
0.694397 0.734131 0.775818
0.238159 0.263184 0.291992
0.269501 0.295288 0.324951
0.302856 0.329742 0.360260
0.338562 0.366730 0.397980
0.412903 0.443573 0.476227
0.489716 0.522644 0.556946
0.568207 0.603912 0.640106
0.647888 0.686066 0.725220
0.727997 0.768890 0.812469
0.309021 0.336243 0.366882
0.339996 0.368561 0.399567
0.373077 0.402252 0.434174
0.407837 0.438263 0.470825
0.455383 0.487244 0.520752
0.530579 0.564972 0.600342
0.607849 0.644592 0.682098
0.685516 0.724915 0.765961
0.764374 0.806488 0.852844
0.381378 0.410767 0.443085
0.412476 0.442932 0.475647
0.444946 0.476471 0.509705
0.478760 0.511566 0.545563
0.525635 0.559845 0.594910
0.573914 0.609711 0.646057
0.649261 0.687408 0.726624
0.725769 0.766327 0.809998
0.803070 0.846375 0.895630
0.454041 0.485992 0.519470
0.485291 0.518036 0.552277
0.517639 0.551666 0.586548
0.551270 0.586304 0.622192
0.597107 0.633667 0.670807
0.644318 0.682312 0.721161
0.692474 0.732056 0.773499
0.767639 0.809784 0.856384
0.843109 0.887634 0.940063
0.527496 0.561798 0.596954
0.558777 0.594116 0.630157
0.590851 0.627197 0.664124
0.624084 0.661407 0.699554
0.669098 0.707886 0.747955
0.715179 0.755585 0.798492
0.762604 0.804504 0.850677
0.810822 0.854340 0.904266
0.884216 0.929718 0.985138
0.601288 0.637970 0.675171
0.632477 0.669952 0.708435
0.664093 0.702759 0.742828
0.696808 0.736664 0.778320
0.741425 0.782684 0.827362
0.786926 0.829681 0.877625
0.833008 0.877197 0.928680
0.879150 0.924683 0.979675
0.935089 0.968414 1.000000
0.075134 0.092926 0.113861
0.133209 0.154755 0.179352
0.192627 0.215881 0.243317
0.253754 0.279175 0.308350
0.315765 0.343262 0.373962
0.395813 0.425903 0.458313
0.477325 0.509857 0.543976
0.559875 0.595184 0.631256
0.642426 0.680389 0.719330
0.135773 0.157166 0.181976
0.168976 0.191284 0.217834
0.224945 0.249329 0.277679
0.283905 0.310394 0.340363
0.345215 0.373352 0.404816
0.424744 0.455536 0.488556
0.505615 0.539307 0.573944
0.587952 0.624298 0.661133
0.670166 0.708893 0.749237
0.197174 0.220612 0.248016
0.228821 0.253113 0.281830
0.263397 0.288788 0.318420
0.320068 0.347656 0.378540
0.379517 0.409119 0.441132
0.457977 0.489990 0.523590
0.537903 0.572632 0.608032
0.619171 0.656403 0.694366
0.700348 0.740387 0.782379
0.260101 0.285980 0.315369
0.291656 0.318115 0.348389
0.325073 0.352722 0.383759
0.360901 0.389893 0.421539
0.418762 0.449432 0.482391
0.495605 0.528809 0.563202
0.574280 0.610077 0.646484
0.653870 0.692261 0.731628
0.734009 0.775024 0.819092
0.325409 0.353363 0.384308
0.356689 0.385559 0.417023
0.389587 0.419281 0.451660
0.424530 0.455353 0.488373
0.461212 0.493439 0.526978
0.536682 0.571136 0.606598
0.613464 0.650635 0.688385
0.691467 0.731079 0.772430
0.770325 0.812500 0.859406
0.397766 0.428162 0.460388
0.429169 0.460205 0.493225
0.461487 0.493683 0.527283
0.495789 0.528961 0.563354
0.531464 0.565948 0.601227
0.579926 0.615906 0.652405
0.655151 0.693604 0.733063
0.731567 0.772491 0.816498
0.809021 0.852509 0.902161
0.470734 0.503174 0.537140
0.502167 0.535614 0.570099
0.534393 0.569092 0.604401
0.568024 0.603729 0.639923
0.603149 0.639771 0.677155
0.650055 0.688324 0.727570
0.698364 0.738251 0.779938
0.773621 0.815979 0.862976
0.848969 0.893677 0.946503
0.544250 0.579163 0.614685
0.575592 0.611511 0.648041
0.607880 0.644745 0.682159
0.640808 0.678711 0.717621
0.675049 0.714050 0.754395
0.721161 0.761780 0.804993
0.768494 0.810638 0.857269
0.816772 0.860474 0.910767
0.889893 0.935638 0.991364
0.618134 0.655243 0.693176
0.649170 0.687317 0.726532
0.681061 0.720093 0.760925
0.713593 0.754028 0.796783
0.747223 0.788666 0.833893
0.792786 0.835693 0.884094
0.838837 0.883240 0.935150
0.884949 0.930573 0.985992
0.942230 0.973114 1.000000
0.094940 0.115479 0.137756
0.155121 0.176880 0.202789
0.214355 0.238495 0.266785
0.276001 0.301849 0.331787
0.338013 0.366180 0.397400
0.401703 0.431976 0.464417
0.483124 0.516113 0.550171
0.565796 0.601440 0.637543
0.648376 0.686554 0.725769
0.157196 0.179474 0.205383
0.190521 0.213806 0.240967
0.247040 0.272034 0.301178
0.306122 0.333221 0.363892
0.367462 0.396423 0.428314
0.430542 0.461700 0.494751
0.511719 0.545502 0.580322
0.593964 0.630371 0.667389
0.676086 0.715149 0.755737
0.219238 0.243073 0.271423
0.250641 0.275848 0.305084
0.285278 0.311676 0.341705
0.342377 0.370636 0.401978
0.401978 0.432220 0.464722
0.463745 0.495911 0.529724
0.543915 0.578827 0.614349
0.625153 0.662567 0.700714
0.706360 0.746521 0.788849
0.282166 0.308716 0.338593
0.313751 0.341064 0.371826
0.347168 0.375793 0.407257
0.383301 0.412994 0.445068
0.441315 0.472656 0.506073
0.501312 0.534821 0.569336
0.580292 0.616272 0.652802
0.659912 0.698364 0.738037
0.739868 0.781067 0.825623
0.348053 0.376312 0.407806
0.379150 0.408569 0.440613
0.411957 0.442505 0.475311
0.447083 0.478607 0.512085
0.483887 0.516693 0.550903
0.542572 0.577393 0.612885
0.619598 0.656799 0.694794
0.697418 0.737244 0.778931
0.776154 0.818634 0.865967
0.414673 0.445190 0.477875
0.445770 0.477325 0.510773
0.478180 0.510864 0.544952
0.512451 0.546356 0.581116
0.548462 0.583527 0.619141
0.585876 0.622192 0.658752
0.661224 0.699768 0.739502
0.737488 0.778717 0.823120
0.814880 0.858368 0.908600
0.487640 0.520630 0.554840
0.518860 0.552979 0.587860
0.551270 0.586426 0.622284
0.585175 0.621277 0.657928
0.619934 0.657135 0.695129
0.656006 0.694427 0.733917
0.704376 0.744385 0.786469
0.779572 0.822113 0.869507
0.854858 0.899658 0.952881
0.561157 0.596527 0.632599
0.592773 0.629028 0.665955
0.624634 0.662079 0.700195
0.657593 0.696045 0.735809
0.691772 0.731384 0.772766
0.727142 0.767975 0.811523
0.774414 0.816864 0.863861
0.822540 0.866333 0.917206
0.895569 0.941284 0.997498
0.634857 0.672546 0.711243
0.666138 0.704620 0.744781
0.697845 0.737549 0.779297
0.730438 0.771362 0.815277
0.764221 0.806244 0.852631
0.798615 0.841766 0.890686
0.844666 0.889130 0.941620
0.890656 0.936462 0.992218
0.948914 0.976898 1.000000
0.116486 0.137451 0.161133
0.176788 0.199219 0.226105
0.236420 0.261078 0.289795
0.298004 0.324799 0.355103
0.360382 0.389160 0.420929
0.424316 0.455139 0.488098
0.489105 0.522217 0.556396
0.571960 0.607544 0.643921
0.654480 0.692719 0.732208
0.178955 0.201813 0.228638
0.212524 0.236237 0.264435
0.269043 0.294800 0.324432
0.328369 0.356140 0.387146
0.389709 0.419617 0.451904
0.452972 0.484985 0.518433
0.517670 0.551697 0.586639
0.600037 0.636627 0.673798
0.682068 0.721313 0.762207
0.240906 0.265808 0.294769
0.272614 0.298676 0.328552
0.307465 0.334503 0.365204
0.364777 0.393616 0.425568
0.424438 0.455444 0.488342
0.486298 0.519226 0.553619
0.550018 0.585022 0.620697
0.631165 0.668762 0.707092
0.712372 0.752716 0.795410
0.304749 0.331543 0.362152
0.335968 0.364014 0.395264
0.369507 0.398865 0.430786
0.405792 0.436096 0.468719
0.463806 0.496002 0.529877
0.524139 0.558563 0.593567
0.586304 0.622498 0.659149
0.665649 0.704285 0.744446
0.745758 0.787201 0.832184
0.370300 0.399384 0.431274
0.401611 0.431671 0.464233
0.434479 0.465729 0.498962
0.469452 0.501953 0.535858
0.506592 0.540222 0.574921
0.565460 0.600983 0.637115
0.625580 0.662964 0.701111
0.703430 0.743286 0.785492
0.782135 0.824768 0.872559
0.437134 0.468414 0.501526
0.468323 0.500641 0.534424
0.500824 0.534363 0.568878
0.535248 0.569916 0.605255
0.571442 0.607025 0.643372
0.608765 0.645599 0.683044
0.667114 0.705963 0.745911
0.743561 0.784912 0.829742
0.820648 0.864441 0.915100
0.504395 0.537964 0.572601
0.535675 0.570343 0.605743
0.568176 0.603760 0.640045
0.601959 0.638611 0.675873
0.636902 0.674591 0.713165
0.672821 0.711731 0.752197
0.710327 0.750366 0.792908
0.785553 0.828094 0.876099
0.860718 0.905609 0.959229
0.578247 0.614166 0.650635
0.609436 0.646393 0.683868
0.641357 0.679352 0.718201
0.674500 0.713531 0.753845
0.708527 0.748718 0.791168
0.743958 0.785309 0.830200
0.780334 0.822998 0.870453
0.828308 0.872406 0.923706
0.903534 0.946655 1.000000
0.651764 0.690094 0.729401
0.682892 0.722107 0.763062
0.714539 0.754974 0.797791
0.747345 0.788696 0.833954
0.780945 0.823608 0.871063
0.815430 0.858978 0.909241
0.850372 0.895142 0.947998
0.896362 0.942261 0.998444
0.952911 0.977631 1.000000
0.138184 0.159485 0.184509
0.198395 0.221832 0.249481
0.258514 0.283722 0.313232
0.320129 0.347717 0.378571
0.382874 0.412354 0.444550
0.446716 0.478424 0.511810
0.511902 0.545685 0.580536
0.577881 0.613800 0.650208
0.660400 0.698853 0.738586
0.201019 0.224335 0.252075
0.234192 0.259033 0.287781
0.291168 0.317627 0.347870
0.350739 0.379150 0.410675
0.412323 0.442780 0.475525
0.475647 0.508240 0.542206
0.540588 0.575195 0.610748
0.605713 0.642578 0.680084
0.687836 0.727234 0.768585
0.262909 0.288605 0.317993
0.294861 0.321503 0.351868
0.329681 0.357483 0.388733
0.387146 0.416718 0.449127
0.447021 0.478699 0.512085
0.508942 0.542938 0.577484
0.572754 0.608582 0.644897
0.637085 0.674896 0.713470
0.718292 0.758698 0.801910
0.326935 0.354462 0.385468
0.358154 0.387054 0.418793
0.392212 0.421936 0.454163
0.428253 0.459320 0.492401
0.486420 0.519348 0.553711
0.547119 0.582062 0.617645
0.609131 0.645966 0.683380
0.671570 0.710510 0.750885
0.751740 0.793457 0.838745
0.392578 0.422577 0.454865
0.424042 0.454895 0.487885
0.457001 0.489227 0.522705
0.492218 0.525269 0.559784
0.529327 0.563751 0.598969
0.588226 0.624512 0.661316
0.648193 0.686371 0.725525
0.709290 0.749390 0.791992
0.788086 0.830933 0.879120
0.459717 0.491638 0.525299
0.490936 0.523987 0.558319
0.523590 0.557770 0.592987
0.558167 0.593384 0.629456
0.594147 0.630524 0.667603
0.631439 0.669067 0.707428
0.689972 0.729401 0.770721
0.749481 0.791138 0.836304
0.826538 0.870544 0.921631
0.527191 0.561493 0.596588
0.558563 0.593903 0.629944
0.590942 0.627319 0.664276
0.624634 0.662079 0.700195
0.659607 0.698059 0.737732
0.695679 0.735229 0.776978
0.733185 0.773956 0.818115
0.791260 0.834229 0.882599
0.866425 0.911407 0.965607
0.595032 0.631500 0.668518
0.626282 0.663666 0.701874
0.658325 0.696625 0.736450
0.691315 0.730835 0.772217
0.725464 0.766144 0.809753
0.760773 0.802704 0.848816
0.797150 0.840240 0.889038
0.834198 0.878448 0.930237
0.912201 0.951721 1.000000
0.668518 0.707336 0.747375
0.699554 0.739502 0.781433
0.731354 0.772369 0.816376
0.764191 0.806305 0.852661
0.797668 0.840851 0.889679
0.832031 0.876251 0.927673
0.866943 0.911896 0.966064
0.904785 0.947357 1.000000
0.956940 0.978455 1.000000
0.159729 0.181854 0.207916
0.220245 0.244476 0.272797
0.280487 0.306793 0.336700
0.342499 0.370728 0.401978
0.405060 0.435638 0.468201
0.469391 0.501678 0.535583
0.534668 0.569214 0.604645
0.600616 0.637329 0.674500
0.666290 0.704865 0.744965
0.222656 0.247131 0.275269
0.256317 0.281647 0.311066
0.313232 0.340546 0.371277
0.372986 0.402191 0.434204
0.434723 0.466125 0.499298
0.498260 0.531738 0.566254
0.563324 0.598816 0.634949
0.628632 0.665985 0.704437
0.693817 0.733429 0.775116
0.284943 0.311401 0.341461
0.317108 0.344513 0.375275
0.351898 0.380524 0.412079
0.409485 0.439880 0.472534
0.469604 0.501953 0.535950
0.532043 0.566437 0.601593
0.595581 0.632080 0.669220
0.659790 0.698364 0.738007
0.724121 0.764862 0.808441
0.349030 0.377502 0.408966
0.380554 0.410156 0.442200
0.414581 0.445129 0.477814
0.450897 0.482605 0.515991
0.509155 0.542999 0.577606
0.569946 0.605713 0.641937
0.631805 0.669403 0.707825
0.694305 0.733917 0.775696
0.757782 0.799622 0.845428
0.415131 0.445648 0.478333
0.446472 0.478180 0.511536
0.479614 0.512543 0.546417
0.514862 0.548798 0.583557
0.552155 0.587280 0.623169
0.611023 0.647980 0.685699
0.670990 0.709808 0.750153
0.732025 0.772949 0.817047
0.794067 0.837097 0.885681
0.482178 0.515045 0.549164
0.513641 0.547485 0.582275
0.546448 0.581482 0.617157
0.580994 0.617004 0.653717
0.616882 0.654053 0.691925
0.654114 0.692505 0.731903
0.712494 0.752960 0.795624
0.772247 0.814606 0.861481
0.832489 0.876617 0.928162
0.550018 0.585022 0.620697
0.581360 0.617493 0.654175
0.613739 0.650848 0.688568
0.647308 0.685516 0.724670
0.682281 0.721558 0.762482
0.718384 0.758759 0.801941
0.755829 0.797516 0.843262
0.813965 0.857574 0.907745
0.872070 0.917358 0.971893
0.617828 0.654999 0.692932
0.648926 0.687103 0.726379
0.681091 0.720123 0.760956
0.713959 0.754395 0.797150
0.748260 0.789673 0.834930
0.783447 0.826141 0.873993
0.819702 0.863525 0.914093
0.856567 0.901367 0.954742
0.918945 0.956909 1.000000
0.685333 0.724670 0.765778
0.716309 0.756836 0.799866
0.748322 0.789734 0.834991
0.780945 0.823608 0.871063
0.814545 0.858032 0.908234
0.848511 0.893127 0.945953
0.883118 0.928680 0.984009
0.925873 0.961914 1.000000
0.960876 0.979309 1.000000
