app/src/main/assets/luts/Blue.CUBE
#Created by: Leica Camera AG | Wetzar | Germany
#Unique Leica Look ID: 4
#Based Filmstyle Mode: Standard
TITLE "Leica Blue"
#LUT size
LUT_3D_SIZE 5
#data domain
DOMAIN_MIN 0.0 0.0 0.0
DOMAIN_MAX 1.0 1.0 1.0
#LUT data points
0.019318 0.019714 0.020935
0.138123 0.159424 0.184448
0.292816 0.319214 0.349548
0.453613 0.485596 0.519043
0.618805 0.655914 0.693909
0.121826 0.142609 0.166992
0.208008 0.231445 0.259460
0.356293 0.384979 0.416534
0.514160 0.548004 0.582855
0.676727 0.715820 0.756500
0.259857 0.285736 0.315033
0.344696 0.373108 0.404449
0.437683 0.469147 0.502289
0.589813 0.626099 0.663055
0.746429 0.787903 0.833099
0.403961 0.434326 0.466797
0.488983 0.521912 0.556122
0.579315 0.615295 0.651733
0.674774 0.713684 0.754089
0.825714 0.869659 0.920715
0.550568 0.585693 0.621338
0.635406 0.673096 0.711792
0.723419 0.764160 0.807709
0.815430 0.858978 0.909241
0.914337 0.953278 1.000000
0.038300 0.048370 0.062561
0.149475 0.170898 0.196625
0.304230 0.331360 0.361816
0.465607 0.497803 0.531494
0.630646 0.668274 0.706635
0.153381 0.175842 0.201447
0.219238 0.243500 0.271698
0.367798 0.396973 0.428833
0.526215 0.560425 0.595520
0.688690 0.727966 0.769409
0.292847 0.319244 0.349579
0.356567 0.385223 0.416779
0.449402 0.481323 0.514557
0.601868 0.638519 0.675720
0.758423 0.800293 0.846252
0.437408 0.468872 0.501984
0.500580 0.534149 0.568695
0.591095 0.627441 0.664337
0.686432 0.725830 0.766937
0.837433 0.881561 0.933624
0.584534 0.620636 0.657288
0.647278 0.685455 0.724548
0.735413 0.776550 0.820801
0.827057 0.871124 0.922211
0.927979 0.963440 1.000000
0.075134 0.092926 0.113861
0.192627 0.215881 0.243317
0.315765 0.343262 0.373962
0.477325 0.509857 0.543976
0.642426 0.680389 0.719330
0.197174 0.220612 0.248016
0.263397 0.288788 0.318420
0.379517 0.409119 0.441132
0.537903 0.572632 0.608032
0.700348 0.740387 0.782379
0.325409 0.353363 0.384308
0.389587 0.419281 0.451660
0.461212 0.493439 0.526978
0.613464 0.650635 0.688385
0.770325 0.812500 0.859406
0.470734 0.503174 0.537140
0.534393 0.569092 0.604401
0.603149 0.639771 0.677155
0.698364 0.738251 0.779938
0.848969 0.893677 0.946503
0.618134 0.655243 0.693176
0.681061 0.720093 0.760925
0.747223 0.788666 0.833893
0.838837 0.883240 0.935150
0.942230 0.973114 1.000000
0.116486 0.137451 0.161133
0.236420 0.261078 0.289795
0.360382 0.389160 0.420929
0.489105 0.522217 0.556396
0.654480 0.692719 0.732208
0.240906 0.265808 0.294769
0.307465 0.334503 0.365204
0.424438 0.455444 0.488342
0.550018 0.585022 0.620697
0.712372 0.752716 0.795410
0.370300 0.399384 0.431274
0.434479 0.465729 0.498962
0.506592 0.540222 0.574921
0.625580 0.662964 0.701111
0.782135 0.824768 0.872559
0.504395 0.537964 0.572601
0.568176 0.603760 0.640045
0.636902 0.674591 0.713165
0.710327 0.750366 0.792908
0.860718 0.905609 0.959229
0.651764 0.690094 0.729401
0.714539 0.754974 0.797791
0.780945 0.823608 0.871063
0.850372 0.895142 0.947998
0.952911 0.977631 1.000000
0.159729 0.181854 0.207916
0.280487 0.306793 0.336700
0.405060 0.435638 0.468201
0.534668 0.569214 0.604645
0.666290 0.704865 0.744965
0.284943 0.311401 0.341461
0.351898 0.380524 0.412079
0.469604 0.501953 0.535950
0.595581 0.632080 0.669220
0.724121 0.764862 0.808441
0.415131 0.445648 0.478333
0.479614 0.512543 0.546417
0.552155 0.587280 0.623169
0.670990 0.709808 0.750153
0.794067 0.837097 0.885681
0.550018 0.585022 0.620697
0.613739 0.650848 0.688568
0.682281 0.721558 0.762482
0.755829 0.797516 0.843262
0.872070 0.917358 0.971893
0.685333 0.724670 0.765778
0.748322 0.789734 0.834991
0.814545 0.858032 0.908234
0.883118 0.928680 0.984009
0.960876 0.979309 1.000000
