app/src/main/assets/luts/Blue.CUBE
#Created by: Leica Camera AG | Wetzar | Germany
#Unique Leica Look ID: 4
#Based Filmstyle Mode: Standard
TITLE "Leica Blue"
#LUT size
LUT_3D_SIZE 17
#data domain
DOMAIN_MIN 0.0 0.0 0.0
DOMAIN_MAX 1.0 1.0 1.0
#LUT data points
0.019318 0.019714 0.020935
0.036102 0.045868 0.059265
0.065308 0.082397 0.102295
0.100311 0.120483 0.143158
0.138123 0.159424 0.184448
0.175964 0.198975 0.225586
0.214600 0.238647 0.266815
0.253387 0.278809 0.307922
0.292816 0.319214 0.349548
0.332458 0.360352 0.391510
0.372498 0.401733 0.433716
0.412811 0.443665 0.476288
0.453613 0.485596 0.519043
0.494690 0.527954 0.562347
0.535919 0.570709 0.606049
0.577576 0.613373 0.649902
0.618805 0.655914 0.693909
0.031372 0.040741 0.052887
0.048981 0.062714 0.079590
0.080383 0.099640 0.121246
0.116577 0.136780 0.160767
0.153259 0.175110 0.200928
0.191010 0.213867 0.241394
0.228821 0.253510 0.282074
0.267578 0.293427 0.322998
0.306763 0.333801 0.364410
0.346222 0.374847 0.406189
0.386353 0.416107 0.448212
0.426727 0.457642 0.490662
0.467468 0.499786 0.533508
0.508484 0.542053 0.576843
0.549805 0.584808 0.620483
0.590942 0.627319 0.664276
0.632263 0.669952 0.708313
0.058838 0.073914 0.093384
0.077820 0.095886 0.117523
0.098541 0.118896 0.141602
0.134094 0.154877 0.179810
0.170166 0.192352 0.218903
0.207092 0.230560 0.258423
0.244659 0.269775 0.298706
0.282837 0.309387 0.339386
0.321899 0.349426 0.380341
0.361267 0.390228 0.421906
0.401123 0.431396 0.463867
0.441315 0.472839 0.506134
0.482117 0.514801 0.548950
0.522858 0.557037 0.592163
0.564240 0.599670 0.635803
0.605194 0.642059 0.679535
0.646393 0.684479 0.723572
0.088745 0.108734 0.130798
0.109802 0.129547 0.153320
0.130707 0.151764 0.176575
0.152802 0.174744 0.200653
0.188385 0.211334 0.238647
0.224670 0.249054 0.277313
0.261780 0.287567 0.316956
0.299927 0.326630 0.357025
0.338318 0.366486 0.397766
0.377563 0.407043 0.439026
0.417145 0.447845 0.480652
0.457214 0.489258 0.522858
0.497589 0.530884 0.565277
0.538239 0.572937 0.608368
0.579468 0.615356 0.651855
0.620239 0.657532 0.695465
0.661163 0.699829 0.739532
0.121826 0.142609 0.166992
0.142090 0.163879 0.189026
0.163452 0.185455 0.211853
0.185089 0.208191 0.235229
0.208008 0.231445 0.259460
0.243805 0.268585 0.297760
0.280579 0.306854 0.336761
0.318146 0.345551 0.376465
0.356293 0.384979 0.416534
0.395050 0.424927 0.457336
0.434235 0.465485 0.498718
0.474060 0.506653 0.540466
0.514160 0.548004 0.582855
0.554840 0.590118 0.625854
0.595459 0.631927 0.668945
0.636139 0.673767 0.712433
0.676727 0.715820 0.756500
0.155670 0.177338 0.203186
0.175659 0.198700 0.225342
0.196869 0.220306 0.247589
0.218414 0.242737 0.270905
0.240906 0.265808 0.294769
0.263977 0.289673 0.319244
0.300293 0.327301 0.357727
0.337494 0.365479 0.396820
0.375153 0.404572 0.436707
0.413788 0.444366 0.477051
0.452606 0.484467 0.518005
0.491882 0.525055 0.559357
0.531860 0.566437 0.601532
0.572021 0.607880 0.644104
0.612274 0.649323 0.687073
0.652740 0.691040 0.730408
0.692993 0.732635 0.774170
0.189636 0.212982 0.240112
0.210175 0.234039 0.262115
0.231201 0.255707 0.284241
0.252808 0.277924 0.307220
0.274750 0.300964 0.330719
0.297760 0.324554 0.354919
0.321259 0.348785 0.379608
0.358032 0.386658 0.418427
0.395386 0.425262 0.457703
0.433228 0.464478 0.497589
0.471893 0.504395 0.538239
0.510956 0.544769 0.579529
0.550446 0.585571 0.621216
0.590210 0.626465 0.663391
0.630219 0.667755 0.706116
0.670013 0.708954 0.749207
0.710144 0.750305 0.792847
0.224823 0.248840 0.277344
0.245148 0.270233 0.299255
0.266235 0.291840 0.321564
0.287445 0.314026 0.344025
0.309448 0.336884 0.367310
0.332245 0.360138 0.391235
0.355499 0.384186 0.415680
0.379242 0.408630 0.440674
0.416168 0.446930 0.479736
0.453888 0.485657 0.519226
0.491882 0.525055 0.559357
0.530640 0.565033 0.600342
0.569855 0.605652 0.641876
0.609283 0.646088 0.683563
0.648560 0.686737 0.725922
0.688202 0.727570 0.768890
0.728027 0.768921 0.812500
0.259857 0.285736 0.315033
0.280396 0.307007 0.336792
0.301392 0.328369 0.358856
0.322937 0.350433 0.381409
0.344696 0.373108 0.404449
0.367249 0.396240 0.428131
0.390198 0.420074 0.452332
0.413818 0.444397 0.477081
0.437683 0.469147 0.502289
0.475067 0.507507 0.541534
0.512787 0.546661 0.581451
0.551117 0.586243 0.622009
0.589813 0.626099 0.663055
0.628845 0.666199 0.704651
0.667847 0.706573 0.746613
0.706970 0.747131 0.789520
0.746429 0.787903 0.833099
0.295685 0.322601 0.352875
0.316284 0.343750 0.374512
0.337372 0.365326 0.396637
0.358612 0.387482 0.419189
0.380371 0.409973 0.442047
0.402924 0.432922 0.465485
0.425476 0.456451 0.489441
0.448639 0.480438 0.513794
0.472534 0.505035 0.538849
0.496796 0.529938 0.564362
0.534241 0.568787 0.604156
0.572296 0.608002 0.644379
0.610443 0.647400 0.685089
0.648926 0.686981 0.726257
0.687408 0.726837 0.768219
0.726562 0.767395 0.810913
0.765656 0.807739 0.854248
0.331635 0.359833 0.390808
0.352448 0.380890 0.412659
0.373383 0.402557 0.434540
0.394775 0.424652 0.457031
0.416382 0.447144 0.480011
0.438629 0.470032 0.503082
0.461212 0.493256 0.526947
0.484192 0.517120 0.551270
0.507599 0.541351 0.576019
0.531677 0.566254 0.601440
0.556122 0.591370 0.627167
0.593811 0.630096 0.667206
0.631500 0.669128 0.707550
0.669586 0.708374 0.748718
0.707794 0.747925 0.790405
0.746338 0.787903 0.833038
0.785370 0.827911 0.875885
0.367889 0.396851 0.428772
0.388458 0.418396 0.450623
0.409485 0.440063 0.472595
0.430908 0.462036 0.495117
0.452728 0.484375 0.517975
0.474579 0.507233 0.541168
0.497131 0.530426 0.564789
0.520081 0.554169 0.589081
0.543304 0.578278 0.613770
0.567078 0.602692 0.638916
0.591095 0.627350 0.664368
0.615509 0.652649 0.690308
0.652985 0.691254 0.730621
0.690643 0.730164 0.771515
0.728668 0.769531 0.813416
0.766907 0.809052 0.855621
0.805237 0.848663 0.898193
0.403961 0.434326 0.466797
0.424835 0.455872 0.488861
0.445953 0.477509 0.510925
0.467163 0.499664 0.533295
0.488983 0.521912 0.556122
0.510956 0.544769 0.579529
0.533417 0.567932 0.603119
0.556213 0.591431 0.627258
0.579315 0.615295 0.651733
0.602783 0.639435 0.676727
0.626404 0.663788 0.701996
0.650269 0.688538 0.727814
0.674774 0.713684 0.754089
0.712158 0.752411 0.795135
0.749908 0.791443 0.836639
0.787811 0.830627 0.878784
0.825714 0.869659 0.920715
0.440399 0.471954 0.505219
0.461426 0.493439 0.527100
0.482391 0.515228 0.549347
0.503876 0.537262 0.571930
0.525482 0.559692 0.594757
0.547577 0.582520 0.618164
0.569977 0.605499 0.641815
0.592499 0.628876 0.665649
0.615387 0.652405 0.690094
0.638428 0.676331 0.714905
0.661835 0.700378 0.740173
0.685455 0.724854 0.765900
0.709442 0.749634 0.792175
0.733917 0.774963 0.819031
0.771393 0.813690 0.860535
0.808960 0.852448 0.902069
0.846313 0.890869 0.943481
0.477020 0.509583 0.543671
0.497986 0.531250 0.565735
0.519012 0.553131 0.588074
0.540558 0.575317 0.610809
0.562225 0.597687 0.633636
0.584076 0.620117 0.656891
0.606079 0.642944 0.680450
0.628571 0.666046 0.704437
0.651306 0.689362 0.728668
0.674255 0.713196 0.753601
0.697479 0.737183 0.778900
0.720886 0.761505 0.804718
0.744690 0.786102 0.830994
0.768707 0.810944 0.857605
0.793152 0.835968 0.884460
0.830231 0.874207 0.925690
0.867004 0.911987 0.966217
0.513641 0.547516 0.582367
0.534760 0.569275 0.604675
0.555969 0.591217 0.627014
0.577362 0.613312 0.649750
0.598846 0.635376 0.672699
0.620575 0.657745 0.695770
0.642578 0.680420 0.719421
0.664764 0.703400 0.743500
0.687164 0.726715 0.767975
0.710052 0.750244 0.792847
0.733215 0.774078 0.818207
0.756561 0.798401 0.844086
0.780121 0.822693 0.870148
0.803741 0.847137 0.896393
0.827545 0.871643 0.922760
0.851593 0.896149 0.949310
0.887787 0.933350 0.989105
0.550568 0.585693 0.621338
0.571594 0.607452 0.643677
0.592804 0.629242 0.666229
0.614105 0.650970 0.688782
0.635406 0.673096 0.711792
0.657013 0.695435 0.734985
0.678925 0.718140 0.758820
0.701019 0.740967 0.783051
0.723419 0.764160 0.807709
0.746124 0.787598 0.832764
0.768951 0.811188 0.857849
0.792236 0.835083 0.883484
0.815430 0.858978 0.909241
0.838745 0.883148 0.935059
0.862030 0.907104 0.960785
0.885254 0.930878 0.986298
0.914337 0.953278 1.000000
0.019592 0.020660 0.027954
0.038666 0.048737 0.062927
0.067902 0.085327 0.105682
0.103210 0.123322 0.146484
0.141113 0.162231 0.187408
0.178864 0.201782 0.228607
0.217346 0.241669 0.269714
0.256073 0.281799 0.311096
0.295532 0.322418 0.352631
0.335358 0.363403 0.394653
0.375366 0.404755 0.436890
0.415863 0.446594 0.479340
0.456573 0.488464 0.522064
0.497681 0.530945 0.565338
0.539001 0.573639 0.609070
0.580353 0.616455 0.652863
0.621857 0.659088 0.696991
0.038635 0.048706 0.062897
0.051636 0.065643 0.083069
0.083344 0.102417 0.124115
0.118927 0.139832 0.163818
0.156281 0.177948 0.203857
0.193481 0.217163 0.244476
0.231934 0.256439 0.285126
0.270538 0.296295 0.326019
0.309692 0.336853 0.367432
0.349304 0.377747 0.409180
0.389282 0.418976 0.451324
0.429810 0.460785 0.493835
0.470337 0.502808 0.536743
0.511475 0.545258 0.580078
0.552673 0.587799 0.623718
0.594147 0.630524 0.667603
0.635193 0.672913 0.711639
0.066101 0.082123 0.102661
0.079895 0.099060 0.120483
0.101593 0.121765 0.144714
0.136505 0.157959 0.183044
0.172882 0.195435 0.221924
0.209808 0.233673 0.261688
0.247650 0.272583 0.301636
0.286041 0.312103 0.342346
0.324799 0.352509 0.383545
0.364319 0.393188 0.425018
0.403931 0.434296 0.466766
0.444489 0.476013 0.509216
0.484924 0.517853 0.552032
0.525909 0.560242 0.595215
0.567078 0.602692 0.638916
0.608429 0.645172 0.682678
0.649200 0.687469 0.726685
0.097076 0.116547 0.139343
0.112244 0.132629 0.156158
0.133240 0.154785 0.179382
0.155426 0.177734 0.203400
0.191101 0.214386 0.241608
0.227600 0.251923 0.280548
0.264771 0.290436 0.320007
0.302612 0.329803 0.360138
0.341309 0.369598 0.400909
0.380371 0.409943 0.441956
0.420105 0.450897 0.483734
0.460144 0.492218 0.525818
0.500336 0.533905 0.568451
0.541443 0.576172 0.611694
0.582245 0.618378 0.655090
0.623352 0.660675 0.698730
0.664093 0.702759 0.742828
0.130005 0.150970 0.175507
0.144653 0.166962 0.192047
0.166138 0.188538 0.214813
0.187775 0.211243 0.238342
0.210815 0.234589 0.262604
0.246796 0.271790 0.300812
0.283356 0.309845 0.339783
0.320953 0.348480 0.379333
0.359100 0.387939 0.419678
0.397949 0.428101 0.460388
0.437256 0.468689 0.501740
0.476990 0.509552 0.543640
0.517273 0.551300 0.586151
0.557709 0.593079 0.629059
0.598358 0.634888 0.672150
0.639069 0.676941 0.715576
0.679596 0.718811 0.759552
0.163666 0.185608 0.211975
0.178619 0.201477 0.228210
0.199432 0.223297 0.250763
0.221344 0.245544 0.273956
0.243805 0.268585 0.297760
0.266785 0.292755 0.322388
0.303192 0.330353 0.360718
0.340332 0.368652 0.399902
0.378296 0.407684 0.439606
0.416595 0.447327 0.480194
0.455536 0.487427 0.520966
0.494934 0.528290 0.562592
0.534882 0.569397 0.604767
0.574951 0.610870 0.647369
0.615479 0.652496 0.690186
0.655701 0.693939 0.733521
0.696045 0.735596 0.777374
0.197784 0.221283 0.248871
0.212891 0.237030 0.265015
0.233887 0.258698 0.287354
0.255524 0.280884 0.310303
0.277802 0.303894 0.333771
0.300690 0.327393 0.357971
0.324066 0.351807 0.382843
0.360687 0.389923 0.421509
0.398254 0.428406 0.460724
0.436218 0.467712 0.500763
0.474915 0.507385 0.541412
0.513855 0.547729 0.582611
0.553345 0.588440 0.624390
0.593262 0.629700 0.666687
0.633118 0.670776 0.709198
0.672913 0.711914 0.752319
0.713135 0.753479 0.796234
0.232849 0.257355 0.286133
0.247894 0.273224 0.302216
0.269012 0.294830 0.324554
0.290497 0.317047 0.347351
0.312683 0.339722 0.370514
0.335144 0.363190 0.394379
0.358368 0.387024 0.418823
0.382050 0.411591 0.443787
0.419037 0.449860 0.482666
0.456787 0.488617 0.522217
0.494934 0.528290 0.562592
0.533661 0.568237 0.603607
0.572906 0.608582 0.644928
0.612091 0.649048 0.686798
0.651581 0.689911 0.729218
0.691193 0.730682 0.772064
0.730988 0.771820 0.815887
0.268250 0.294067 0.323669
0.283630 0.309814 0.339935
0.304474 0.331573 0.362000
0.325867 0.353516 0.384613
0.347900 0.376190 0.407684
0.370300 0.399384 0.431274
0.393311 0.423065 0.455505
0.416779 0.447296 0.480225
0.440674 0.472046 0.505371
0.477997 0.510498 0.544617
0.515625 0.549622 0.584656
0.554047 0.589386 0.625183
0.592926 0.629364 0.666321
0.631744 0.669342 0.707733
0.670654 0.709595 0.749908
0.709869 0.750061 0.792694
0.749481 0.791138 0.836304
0.303894 0.331055 0.361542
0.319458 0.346802 0.377716
0.339996 0.368561 0.399567
0.361603 0.390564 0.422211
0.383453 0.413116 0.445190
0.405579 0.436127 0.468689
0.428589 0.459625 0.492584
0.451782 0.483643 0.517090
0.475464 0.508057 0.542053
0.499664 0.532928 0.567596
0.537201 0.571777 0.607208
0.575073 0.611023 0.647552
0.613373 0.650391 0.688141
0.651886 0.690216 0.729553
0.690552 0.730103 0.771454
0.729370 0.770355 0.814270
0.768555 0.810730 0.857391
0.339966 0.368256 0.399384
0.355408 0.384094 0.415619
0.376190 0.405731 0.437714
0.397552 0.427734 0.460083
0.419373 0.449982 0.482910
0.441376 0.472931 0.506256
0.464081 0.496246 0.530090
0.487152 0.520172 0.554443
0.510773 0.544586 0.579315
0.534668 0.569214 0.604645
0.558990 0.594330 0.630371
0.596558 0.633148 0.670258
0.634460 0.672150 0.710785
0.672394 0.711334 0.751740
0.710815 0.751007 0.793732
0.749512 0.791077 0.836273
0.788239 0.831146 0.879303
0.376068 0.405609 0.437592
0.391449 0.421448 0.453583
0.412476 0.443146 0.475800
0.433899 0.464966 0.498260
0.455475 0.487396 0.520996
0.477509 0.510223 0.544250
0.500000 0.533417 0.567993
0.523010 0.557068 0.592285
0.546173 0.581238 0.616974
0.570129 0.605896 0.642090
0.594177 0.630585 0.667633
0.618408 0.655670 0.693573
0.655884 0.694214 0.733704
0.693512 0.733154 0.774841
0.731567 0.772491 0.816498
0.769958 0.812134 0.858978
0.808289 0.851654 0.901398
0.412384 0.443054 0.475708
0.427826 0.458923 0.492035
0.448822 0.480469 0.513977
0.470215 0.502502 0.536499
0.491821 0.524994 0.559235
0.513855 0.547729 0.582611
0.536194 0.570984 0.606354
0.559113 0.594452 0.630493
0.582184 0.618286 0.655029
0.605591 0.642456 0.679932
0.629578 0.667023 0.705383
0.653381 0.691681 0.731079
0.677643 0.716675 0.757385
0.714996 0.755402 0.798248
0.752808 0.794464 0.840057
0.790619 0.833618 0.881927
0.828583 0.872620 0.923981
0.448822 0.480469 0.513977
0.464233 0.496552 0.530304
0.485291 0.518188 0.552338
0.506653 0.540283 0.574951
0.528442 0.562744 0.597961
0.550446 0.585449 0.621185
0.572815 0.608521 0.644897
0.595398 0.631866 0.668915
0.618225 0.655457 0.693298
0.641357 0.679230 0.718140
0.664703 0.703339 0.743408
0.688477 0.727875 0.769226
0.712585 0.752930 0.795624
0.736847 0.777985 0.822357
0.774292 0.816742 0.863708
0.811768 0.855408 0.905396
0.849152 0.893768 0.946594
0.485321 0.518250 0.552429
0.500885 0.534241 0.568817
0.521912 0.556152 0.591248
0.543518 0.578308 0.613861
0.565125 0.600677 0.636902
0.587067 0.623291 0.660126
0.609192 0.646179 0.683624
0.631592 0.669189 0.707611
0.654297 0.692566 0.732025
0.677094 0.716248 0.756866
0.700348 0.740173 0.782227
0.723785 0.764526 0.808075
0.747772 0.789093 0.834381
0.771851 0.814148 0.861023
0.796082 0.839111 0.887878
0.833099 0.877289 0.928833
0.869843 0.915039 0.969452
0.522095 0.556183 0.591370
0.537689 0.572266 0.607727
0.558868 0.594208 0.630219
0.580292 0.616272 0.652802
0.601959 0.638519 0.675781
0.623657 0.661011 0.699097
0.645691 0.683655 0.722656
0.667816 0.706665 0.746674
0.690338 0.729858 0.771179
0.713104 0.753418 0.796173
0.736176 0.777252 0.821655
0.759430 0.801422 0.847443
0.783020 0.825684 0.873505
0.806885 0.850159 0.899750
0.830597 0.874603 0.926117
0.854492 0.899231 0.952423
0.890594 0.936340 0.992126
0.558990 0.594330 0.630371
0.574554 0.610321 0.646698
0.595703 0.632172 0.669281
0.617004 0.654175 0.692017
0.638489 0.676270 0.714905
0.660156 0.698639 0.738403
0.682037 0.721313 0.762238
0.704163 0.744171 0.786255
0.726562 0.767395 0.810913
0.749268 0.790802 0.835968
0.772125 0.814423 0.861328
0.795197 0.838196 0.886902
0.818359 0.862091 0.912598
0.841583 0.886017 0.938354
0.864807 0.909943 0.964020
0.888184 0.933746 0.989532
0.917664 0.955902 1.000000
0.023285 0.028870 0.037598
0.047363 0.059723 0.076691
0.070557 0.088135 0.108673
0.106110 0.126068 0.149475
0.143585 0.165283 0.190582
0.181549 0.204865 0.231750
0.220337 0.244568 0.272858
0.259216 0.284729 0.314026
0.298584 0.325348 0.355682
0.338257 0.366180 0.397552
0.378387 0.407806 0.439819
0.418823 0.449463 0.482361
0.459564 0.491669 0.525269
0.500458 0.533997 0.568573
0.541962 0.576843 0.612366
0.583344 0.619415 0.656189
0.624786 0.662079 0.700226
0.047302 0.059662 0.076630
0.061188 0.076538 0.096344
0.086243 0.105286 0.127319
0.121765 0.142548 0.166931
0.158844 0.181030 0.207062
0.196442 0.219940 0.247284
0.234619 0.259399 0.288086
0.273438 0.299408 0.329193
0.312500 0.339874 0.370575
0.352234 0.380646 0.412415
0.392395 0.422150 0.454407
0.432556 0.463837 0.496887
0.473511 0.505920 0.539734
0.514435 0.548248 0.583099
0.555786 0.591003 0.626740
0.596985 0.633545 0.670624
0.638367 0.676117 0.714752
0.073608 0.090240 0.111603
0.087341 0.107452 0.129456
0.104492 0.124481 0.147675
0.139130 0.161011 0.185852
0.175781 0.198303 0.225128
0.212524 0.236694 0.264709
0.250305 0.275574 0.304810
0.288696 0.315308 0.345520
0.327728 0.355499 0.386414
0.366943 0.396149 0.427948
0.407196 0.437439 0.470093
0.447296 0.478973 0.512390
0.488037 0.520996 0.555237
0.528839 0.563293 0.598511
0.570129 0.605896 0.642090
0.611237 0.648163 0.685883
0.652374 0.690674 0.729980
0.104156 0.125061 0.148010
0.119934 0.140839 0.165070
0.136108 0.157532 0.182465
0.158386 0.180664 0.206757
0.194122 0.217316 0.244873
0.230408 0.255005 0.283630
0.267578 0.293457 0.323120
0.305634 0.332703 0.363281
0.344116 0.372559 0.403870
0.383362 0.413055 0.445129
0.423096 0.453949 0.486908
0.463013 0.495209 0.528992
0.503571 0.537109 0.571564
0.544250 0.579163 0.614685
0.585449 0.621521 0.658173
0.626251 0.663635 0.701874
0.667114 0.705963 0.745911
0.137787 0.159149 0.184204
0.153015 0.174927 0.200775
0.169189 0.191376 0.217773
0.190765 0.214081 0.241333
0.213379 0.237518 0.265564
0.249420 0.274719 0.303955
0.286072 0.312744 0.342682
0.323730 0.351471 0.382538
0.361969 0.391113 0.422668
0.400970 0.431061 0.463593
0.440216 0.471619 0.504944
0.480042 0.512756 0.546722
0.520172 0.554260 0.589172
0.560608 0.596039 0.632080
0.601410 0.638092 0.675354
0.641937 0.679932 0.718872
0.682709 0.721954 0.762909
0.171692 0.193817 0.220459
0.186768 0.209839 0.237061
0.202545 0.226166 0.253693
0.224396 0.248444 0.277008
0.246796 0.271790 0.300812
0.269806 0.295593 0.325287
0.306183 0.333282 0.363953
0.343323 0.371582 0.402985
0.381226 0.410583 0.442871
0.419434 0.450226 0.483093
0.458618 0.490601 0.524261
0.497986 0.531250 0.565735
0.537689 0.572418 0.607849
0.578125 0.614044 0.650513
0.618286 0.655518 0.693420
0.658691 0.696991 0.736755
0.698944 0.738831 0.780792
0.205994 0.229523 0.257385
0.221130 0.245361 0.273804
0.236755 0.261780 0.290344
0.258514 0.283722 0.313232
0.280670 0.306946 0.336823
0.303406 0.330597 0.361053
0.327179 0.354736 0.385803
0.363861 0.392761 0.424622
0.401276 0.431335 0.463837
0.439209 0.470581 0.503784
0.477692 0.510406 0.544495
0.516785 0.550873 0.585785
0.556396 0.591766 0.627533
0.596191 0.632660 0.669769
0.636047 0.673676 0.712402
0.676025 0.715088 0.755707
0.716003 0.756500 0.799347
0.240936 0.265778 0.294617
0.255920 0.281616 0.310852
0.271912 0.297668 0.327637
0.293243 0.319916 0.350098
0.315399 0.342651 0.373474
0.337891 0.366058 0.397308
0.361206 0.390137 0.421753
0.385132 0.414734 0.446869
0.422211 0.452911 0.485901
0.459808 0.491730 0.525391
0.497986 0.531250 0.565735
0.536591 0.571228 0.606659
0.575745 0.611542 0.648132
0.615143 0.652283 0.689911
0.654510 0.692871 0.732300
0.694000 0.733734 0.775421
0.734009 0.775024 0.819092
0.276337 0.302460 0.332245
0.291779 0.318237 0.348480
0.307373 0.334381 0.365021
0.328735 0.356506 0.387543
0.350739 0.379150 0.410675
0.373169 0.402344 0.434265
0.396149 0.425995 0.458527
0.419495 0.450287 0.483154
0.443848 0.475220 0.508484
0.480988 0.513733 0.547852
0.518707 0.552856 0.587738
0.557190 0.592438 0.628448
0.595825 0.632294 0.669373
0.634735 0.672302 0.711029
0.673798 0.712524 0.753052
0.712982 0.753296 0.796051
0.752350 0.794128 0.839630
0.312408 0.339478 0.370300
0.327576 0.355347 0.386261
0.343231 0.371460 0.402771
0.364441 0.393555 0.425354
0.386322 0.416077 0.448181
0.408783 0.438995 0.471710
0.431427 0.462555 0.495636
0.454712 0.486481 0.520081
0.478302 0.510956 0.545013
0.502625 0.536194 0.570587
0.540253 0.575012 0.610474
0.578247 0.614166 0.650635
0.616394 0.653595 0.691467
0.654877 0.693207 0.732635
0.693420 0.733063 0.774719
0.732330 0.773315 0.817383
0.771606 0.813995 0.860779
0.348267 0.376801 0.408234
0.363586 0.392670 0.424347
0.379272 0.408661 0.440704
0.400513 0.430786 0.463165
0.422516 0.453186 0.486145
0.444550 0.476105 0.509369
0.467224 0.499390 0.533173
0.490295 0.523193 0.557495
0.513641 0.547485 0.582275
0.537567 0.572296 0.607697
0.562164 0.597595 0.633575
0.599731 0.636353 0.673553
0.637512 0.675323 0.713928
0.675476 0.714569 0.755157
0.713715 0.754150 0.796936
0.752350 0.794128 0.839630
0.791168 0.834045 0.882446
0.384552 0.414185 0.446289
0.399933 0.430023 0.462463
0.415558 0.446075 0.478790
0.436859 0.468170 0.501312
0.458466 0.490601 0.524170
0.480591 0.513367 0.547455
0.503113 0.536530 0.571075
0.526031 0.560364 0.595398
0.549377 0.584412 0.620117
0.573029 0.608856 0.645203
0.597046 0.633606 0.670685
0.621521 0.658539 0.696625
0.658905 0.697205 0.737061
0.696686 0.736420 0.778046
0.734650 0.775726 0.819916
0.772949 0.815216 0.862213
0.811157 0.854797 0.904755
0.420654 0.451630 0.484436
0.436249 0.467590 0.500732
0.451935 0.483612 0.517181
0.473175 0.505798 0.539581
0.494781 0.528168 0.562469
0.516815 0.550903 0.585815
0.539337 0.574097 0.609467
0.562225 0.597687 0.633636
0.585297 0.621521 0.658112
0.608765 0.645599 0.683044
0.632355 0.669952 0.708374
0.656250 0.694672 0.734192
0.680664 0.719696 0.760498
0.718109 0.758423 0.801636
0.755859 0.797455 0.843262
0.793732 0.836700 0.885345
0.831635 0.875732 0.927185
0.457214 0.489258 0.522858
0.472778 0.505249 0.539124
0.488434 0.521393 0.555603
0.509827 0.543488 0.578156
0.531311 0.565674 0.601044
0.553345 0.588440 0.624390
0.575684 0.611481 0.648071
0.598328 0.634827 0.671967
0.621246 0.658386 0.696381
0.644440 0.682434 0.721344
0.667847 0.706573 0.746613
0.691437 0.731049 0.772400
0.715454 0.755859 0.798737
0.739746 0.781006 0.825531
0.777313 0.819672 0.867096
0.814850 0.858337 0.908569
0.852081 0.896637 0.949890
0.493744 0.526886 0.561371
0.509247 0.543060 0.577698
0.525024 0.559387 0.594360
0.546387 0.581299 0.617126
0.568085 0.603638 0.639893
0.589996 0.626251 0.663208
0.612152 0.649078 0.686829
0.634521 0.672211 0.710815
0.657135 0.695526 0.735077
0.679901 0.719238 0.760010
0.703369 0.743225 0.785370
0.726898 0.767700 0.811249
0.750641 0.792358 0.837555
0.774719 0.817169 0.864227
0.798859 0.842072 0.891083
0.835999 0.880219 0.932159
0.872772 0.917938 0.972534
0.530396 0.564941 0.600250
0.546021 0.580963 0.616760
0.561951 0.597412 0.633331
0.583130 0.619324 0.656006
0.604736 0.641510 0.679016
0.626587 0.663971 0.702148
0.648499 0.686676 0.725861
0.670746 0.709595 0.749939
0.693207 0.732758 0.774475
0.716034 0.756409 0.799286
0.739044 0.780273 0.824829
0.762451 0.804352 0.850525
0.786041 0.828674 0.876648
0.809692 0.853271 0.902954
0.833496 0.877686 0.929291
0.857269 0.902161 0.955597
0.893341 0.939178 0.995300
0.567444 0.603058 0.639252
0.582977 0.619049 0.655762
0.598663 0.635223 0.672546
0.619934 0.657135 0.695129
0.641388 0.679260 0.718201
0.662994 0.701630 0.741455
0.684845 0.724274 0.765289
0.707062 0.747192 0.789581
0.729370 0.770355 0.814270
0.752106 0.793793 0.839355
0.775024 0.817352 0.864441
0.797974 0.841156 0.890045
0.821228 0.865082 0.915741
0.844574 0.888947 0.941467
0.867889 0.912994 0.967133
0.890961 0.936768 0.992584
0.920959 0.958374 1.000000
0.028687 0.037781 0.049133
0.056305 0.070984 0.089722
0.080872 0.098969 0.120941
0.108582 0.129242 0.152649
0.146454 0.168091 0.193695
0.184601 0.207672 0.234650
0.223114 0.247620 0.275940
0.262207 0.287628 0.317200
0.301239 0.328217 0.358704
0.341339 0.369385 0.400757
0.381226 0.410828 0.443024
0.421906 0.452637 0.485626
0.462463 0.494659 0.528381
