app/src/main/assets/luts/Classic.CUBE
#Created by: Leica Camera AG | Wetzar | Germany
#Unique Leica Look ID: 2
#Based Filmstyle Mode: Standard
TITLE "Leica Classic"
#LUT size
LUT_3D_SIZE 5
#data domain
DOMAIN_MIN 0.0 0.0 0.0
DOMAIN_MAX 1.0 1.0 1.0
# 
LUT_3D_SIZE 5
0.0046390 0.0072026 0.0144662
0.1552219 0.0072026 0.0144662
0.5331746 0.0072026 0.0144662
0.7733016 0.0072026 0.0144662
0.8881768 0.0072026 0.0144662
0.0689739 0.2494659 0.0786791
0.2124153 0.2382348 0.0622597
0.5600317 0.1956296 0.0144662
0.7809315 0.1071843 0.0144662
0.8911066 0.0072026 0.0144662
0.2794360 0.6931575 0.2848074
0.3878411 0.6898004 0.2727828
0.6401758 0.6774095 0.2259049
0.8057132 0.6521394 0.1252518
0.9011170 0.6089849 0.0144662
0.5417201 0.9096625 0.5188305
0.6006836 0.9088690 0.5122993
0.7310016 0.9059391 0.4872124
0.8414210 0.9002625 0.4356955
0.9162547 0.8909235 0.3396814
0.7210523 0.9855338 0.6810718
0.7449185 0.9853507 0.6785082
0.8102912 0.9846182 0.6686810
0.8799976 0.9832753 0.6486602
0.9336507 0.9811390 0.6119148
0.0506012 0.0241714 0.2352439
0.1968504 0.0101325 0.2217543
0.5525850 0.0072026 0.1691387
0.7787951 0.0072026 0.0613441
0.8903131 0.0072026 0.0144662
0.1142648 0.2622841 0.2841360
0.2505036 0.2516633 0.2724165
0.5778551 0.2102789 0.2251724
0.7861198 0.1237869 0.1243972
0.8931820 0.0072026 0.0144662
0.3134957 0.6970640 0.4289813
0.4172008 0.6938290 0.4203748
0.6526888 0.6816212 0.3867424
0.8099860 0.6569004 0.3175853
0.9028871 0.6145395 0.1881829
0.5607032 0.9105780 0.5953733
0.6158823 0.9098456 0.5909174
0.7381432 0.9069767 0.5730941
0.8445950 0.9013001 0.5362266
0.9176585 0.8920833 0.4679851
0.7284991 0.9857779 0.7141549
0.7514497 0.9855948 0.7121406
0.8144418 0.9848624 0.7041445
0.8822560 0.9835195 0.6883355
0.9346884 0.9813831 0.6612952
0.2102789 0.0867363 0.6268083
0.3294879 0.0730025 0.6230849
0.6146005 0.0213026 0.6086797
0.7973509 0.0072026 0.5779161
0.8976378 0.0072026 0.5214552
0.2631386 0.3080632 0.6406031
0.3739242 0.2979918 0.6371238
0.6341940 0.2601477 0.6240005
0.8036990 0.1816517 0.5963499
0.9002625 0.0443753 0.5448941
0.4267228 0.7111030 0.6824147
0.5107123 0.7080510 0.6797900
0.6915095 0.6963926 0.6700848
0.8246353 0.6733809 0.6503082
0.9089910 0.6337667 0.6139291
0.6208875 0.9139352 0.7392419
0.6635537 0.9132027 0.7374107
0.7618873 0.9104560 0.7305133
0.8556430 0.9050235 0.7169627
0.9225417 0.8962949 0.6945614
0.7535860 0.9866325 0.8001587
0.7734237 0.9864494 0.7988769
0.8285418 0.9857169 0.7941159
0.8901911 0.9844351 0.7848990
0.9384118 0.9823598 0.7699445
0.4342916 0.1952634 0.8152353
0.5167552 0.1827504 0.8141366
0.6940121 0.1354453 0.8098639
0.8256730 0.0415064 0.8016236
0.9094183 0.0072026 0.7882561
0.4710371 0.3854605 0.8195691
0.5454434 0.3765489 0.8185314
0.7065251 0.3422450 0.8144418
0.8307392 0.2754685 0.8064457
0.9116157 0.1568699 0.7935665
0.5781603 0.7345419 0.8342794
0.6297992 0.7318562 0.8333028
0.7449185 0.7215406 0.8297015
0.8477080 0.7010926 0.8227431
0.9190014 0.6663615 0.8113899
0.6979796 0.9197339 0.8570469
0.7253250 0.9190624 0.8562534
0.7980834 0.9164988 0.8533236
0.8735274 0.9114936 0.8477080
0.9306598 0.9034365 0.8388574
0.7915522 0.9880974 0.8839651
0.8069340 0.9879143 0.8834157
0.8508820 0.9872429 0.8812183
0.9032534 0.9860221 0.8770677
0.9446988 0.9840078 0.8704145
0.6343161 0.3272905 0.9121650
0.6740524 0.3174632 0.9117988
0.7676250 0.2808399 0.9103949
0.8583898 0.2057621 0.9077703
0.9237624 0.0721480 0.9036196
0.6522005 0.4858695 0.9135689
0.6879082 0.4783617 0.9132027
0.7756211 0.4501618 0.9118599
0.8622352 0.3932125 0.9093573
0.9254715 0.2973814 0.9052677
0.7042666 0.7657938 0.9184521
0.7305133 0.7634133 0.9181469
0.8012574 0.7545016 0.9169261
0.8751755 0.7369224 0.9146066
0.9314533 0.7078679 0.9109443
0.7701886 0.9276689 0.9260819
0.7880730 0.9270585 0.9258378
0.8381859 0.9247391 0.9248611
0.8957456 0.9203443 0.9229689
0.9410364 0.9131417 0.9199780
0.8335470 0.9902338 0.9350546
0.8445950 0.9900507 0.9348715
0.8776781 0.9894403 0.9341390
0.9189404 0.9882805 0.9327352
0.9532442 0.9863883 0.9304767
