app/src/main/assets/luts/Classic.CUBE
#Created by: Leica Camera AG | Wetzar | Germany
#Unique Leica Look ID: 2
#Based Filmstyle Mode: Standard
TITLE "Leica Classic"
#LUT size
LUT_3D_SIZE 9
#data domain
DOMAIN_MIN 0.0 0.0 0.0
DOMAIN_MAX 1.0 1.0 1.0
# 
LUT_3D_SIZE 9
0.0046390 0.0072026 0.0144662
0.0366844 0.0072026 0.0144662
0.1552219 0.0072026 0.0144662
0.3365684 0.0072026 0.0144662
0.5331746 0.0072026 0.0144662
0.6796069 0.0072026 0.0144662
0.7733016 0.0072026 0.0144662
0.8398340 0.0072026 0.0144662
0.8881768 0.0072026 0.0144662
0.0181896 0.0623817 0.0278337
0.0506012 0.0595129 0.0241104
0.1676128 0.0484649 0.0144662
0.3462736 0.0274675 0.0144662
0.5390344 0.0072026 0.0144662
0.6825978 0.0072026 0.0144662
0.7749496 0.0072026 0.0144662
0.8408106 0.0072026 0.0144662
0.8888482 0.0072026 0.0144662
0.0689739 0.2494659 0.0786791
0.1007752 0.2469023 0.0750168
0.2124153 0.2382348 0.0622597
0.3806385 0.2217543 0.0379662
0.5600317 0.1956296 0.0144662
0.6930355 0.1579686 0.0144662
0.7809315 0.1071843 0.0144662
0.8443509 0.0422999 0.0144662
0.8911066 0.0072026 0.0144662
0.1598608 0.4936825 0.1691387
0.1890985 0.4922175 0.1657816
0.2880425 0.4865409 0.1539401
0.4397851 0.4755539 0.1309894
0.5955564 0.4586462 0.0958921
0.7110419 0.4347189 0.0471220
0.7914301 0.4028566 0.0144662
0.8506379 0.3608008 0.0144662
0.8952573 0.3080632 0.0144662
0.2794360 0.6931575 0.2848074
0.3033632 0.6924861 0.2824879
0.3878411 0.6898004 0.2727828
0.5155344 0.6849783 0.2547763
0.6401758 0.6774095 0.2259049
0.7344198 0.6666667 0.1836660
0.8057132 0.6521394 0.1252518
0.8594885 0.6331563 0.0498688
0.9011170 0.6089849 0.0144662
0.4125008 0.8259171 0.4060306
0.4322774 0.8255509 0.4040164
0.4993591 0.8241470 0.3968138
0.5939083 0.8215223 0.3827138
0.6868095 0.8175548 0.3611060
0.7617042 0.8119392 0.3302814
0.8228041 0.8046145 0.2874321
0.8704145 0.7951535 0.2289568
0.9081975 0.7833730 0.1487518
0.5417201 0.9096625 0.5188305
0.5551486 0.9094793 0.5173656
0.6006836 0.9088690 0.5122993
0.6659952 0.9077703 0.5024110
0.7310016 0.9059391 0.4872124
0.7907587 0.9034975 0.4654825
0.8414210 0.9002625 0.4356955
0.8829274 0.8961118 0.3946774
0.9162547 0.8909235 0.3396814
0.6454251 0.9571507 0.6119148
0.6540927 0.9570897 0.6111213
0.6826589 0.9567845 0.6078252
0.7248367 0.9561741 0.6017213
0.7725691 0.9553195 0.5919551
0.8193859 0.9540377 0.5776720
0.8607093 0.9524507 0.5580785
0.8964781 0.9504364 0.5317707
0.9248611 0.9479949 0.4959409
0.7210523 0.9855338 0.6810718
0.7263017 0.9854727 0.6805225
0.7449185 0.9853507 0.6785082
0.7746444 0.9850455 0.6746017
0.8102912 0.9846182 0.6686810
0.8463041 0.9840689 0.6603186
0.8799976 0.9832753 0.6486602
0.9099676 0.9822987 0.6327290
0.9336507 0.9811390 0.6119148
0.0143441 0.0105597 0.0636636
0.0468168 0.0076299 0.0604285
0.1641336 0.0072026 0.0476103
0.3436489 0.0072026 0.0231948
0.5373863 0.0072026 0.0144662
0.6816822 0.0072026 0.0144662
0.7744613 0.0072026 0.0144662
0.8405054 0.0072026 0.0144662
0.8886651 0.0072026 0.0144662
0.0278337 0.0660441 0.0773363
0.0601843 0.0632363 0.0736739
0.1763413 0.0517610 0.0609168
0.3529268 0.0311909 0.0365623
0.5431240 0.0072026 0.0144662
0.6846121 0.0072026 0.0144662
0.7761094 0.0072026 0.0144662
0.8414820 0.0072026 0.0144662
0.8892755 0.0072026 0.0144662
0.0785570 0.2519685 0.1270219
0.1101752 0.2497711 0.1234817
0.2205945 0.2411646 0.1110908
0.3869865 0.2248062 0.0872856
0.5638772 0.1988036 0.0512727
0.6949277 0.1613868 0.0144662
0.7820302 0.1107856 0.0144662
0.8450223 0.0460233 0.0144662
0.8915339 0.0072026 0.0144662
0.1687115 0.4955747 0.2129036
0.1975829 0.4939266 0.2097906
0.2952451 0.4882500 0.1986816
0.4454007 0.4775072 0.1770738
0.5989135 0.4606604 0.1435635
0.7127510 0.4368553 0.0963194
0.7924678 0.4048709 0.0338155
0.8512482 0.3631813 0.0144662
0.8956846 0.3106269 0.0144662
0.2867607 0.6940121 0.3191113
0.3107489 0.6932796 0.3169749
0.3940670 0.6907160 0.3079412
0.5202344 0.6858329 0.2913996
0.6428615 0.6782641 0.2649087
0.7359458 0.6676433 0.2259049
0.8066288 0.6531771 0.1716413
0.8600378 0.6342550 0.0990051
0.9014832 0.6101447 0.0144662
0.4184826 0.8263444 0.4322163
0.4380150 0.8259781 0.4303852
0.5041812 0.8245743 0.4237319
0.5973265 0.8220106 0.4107917
0.6887627 0.8180431 0.3904657
0.7629860 0.8124275 0.3614112
0.8235366 0.8051029 0.3215528
0.8709028 0.7957029 0.2676555
0.9085638 0.7839224 0.1938595
0.5458097 0.9098456 0.5372032
0.5590551 0.9097235 0.5358603
0.6041018 0.9091131 0.5312214
0.6682537 0.9079534 0.5221266
0.7325276 0.9061832 0.5079045
0.7917964 0.9037417 0.4873955
0.8420924 0.9005066 0.4596228
0.8833547 0.8963560 0.4218397
0.9165598 0.8911677 0.3702619
0.6480498 0.9572728 0.6235732
0.6566563 0.9572117 0.6228408
0.6847342 0.9568455 0.6197888
0.7263627 0.9562962 0.6141732
0.7737289 0.9553806 0.6052005
0.8202405 0.9541598 0.5919551
0.8613197 0.9525728 0.5736434
0.8969053 0.9505585 0.5491058
0.9251053 0.9480559 0.5161448
0.7226393 0.9855948 0.6887627
0.7278276 0.9855338 0.6882134
0.7462614 0.9854117 0.6862601
0.7758042 0.9851065 0.6824757
0.8111457 0.9846792 0.6767381
0.8469755 0.9840689 0.6687420
0.8804859 0.9833364 0.6579381
0.9102728 0.9823598 0.6431667
0.9338949 0.9812000 0.6235732
0.0506012 0.0241714 0.2352439
0.0826466 0.0213026 0.2326802
0.1968504 0.0101325 0.2217543
0.3683086 0.0072026 0.2014893
0.5525850 0.0072026 0.1691387
0.6893121 0.0072026 0.1226271
0.7787951 0.0072026 0.0613441
0.8430690 0.0072026 0.0144662
0.8903131 0.0072026 0.0144662
0.0643960 0.0794726 0.2462308
0.0962583 0.0762376 0.2433010
0.2085088 0.0652506 0.2330465
0.3775865 0.0447415 0.2129036
0.5582006 0.0134286 0.1812244
0.6919978 0.0072026 0.1357505
0.7803821 0.0072026 0.0745895
0.8439846 0.0072026 0.0144662
0.8909235 0.0072026 0.0144662
0.1142648 0.2622841 0.2841360
0.1450284 0.2601477 0.2818165
0.2505036 0.2516633 0.2724165
0.4103644 0.2356711 0.2540438
0.5778551 0.2102789 0.2251724
0.7020692 0.1735946 0.1828725
0.7861198 0.1237869 0.1243972
0.8474638 0.0595129 0.0489532
0.8931820 0.0072026 0.0144662
0.2012452 0.5024110 0.3474944
0.2286517 0.5007630 0.3454801
0.3219801 0.4951474 0.3373619
0.4662150 0.4845877 0.3215528
0.6111823 0.4680461 0.2968931
0.7190991 0.4446072 0.2610633
0.7962522 0.4131112 0.2105231
0.8535677 0.3720320 0.1414271
0.8972105 0.3200269 0.0526766
0.3134957 0.6970640 0.4289813
0.3365684 0.6963926 0.4270891
0.4172008 0.6938290 0.4203748
0.5364707 0.6890679 0.4073125
0.6526888 0.6816212 0.3867424
0.7414393 0.6711225 0.3574437
0.8099860 0.6569004 0.3175853
0.8621742 0.6382225 0.2631997
0.9028871 0.6145395 0.1881829
0.4405176 0.8279924 0.5150461
0.4591345 0.8276262 0.5137643
0.5216383 0.8262833 0.5084539
0.6096564 0.8237197 0.4986266
0.6960874 0.8197522 0.4832448
0.7676250 0.8142587 0.4612708
0.8265275 0.8069340 0.4308735
0.8728560 0.7976561 0.3891229
0.9097845 0.7860587 0.3338216
0.5607032 0.9105780 0.5953733
0.5732772 0.9104560 0.5945187
0.6158823 0.9098456 0.5909174
0.6766160 0.9086858 0.5838979
0.7381432 0.9069767 0.5730941
0.7956418 0.9045352 0.5576512
0.8445950 0.9013001 0.5362266
0.8851248 0.8972716 0.5069890
0.9176585 0.8920833 0.4679851
0.6577550 0.9576390 0.6612952
0.6657511 0.9575780 0.6606238
0.6921809 0.9572728 0.6583654
0.7321003 0.9566624 0.6539095
0.7780626 0.9558079 0.6468901
0.8232314 0.9545871 0.6367576
0.8634560 0.9530001 0.6230849
0.8983703 0.9509858 0.6045901
0.9260209 0.9485442 0.5791979
0.7284991 0.9857779 0.7141549
0.7335653 0.9857169 0.7137887
0.7514497 0.9855948 0.7121406
0.7800769 0.9852896 0.7089666
0.8144418 0.9848624 0.7041445
0.8493560 0.9843130 0.6974303
0.8822560 0.9835195 0.6883355
0.9114936 0.9825429 0.6763718
0.9346884 0.9813831 0.6612952
0.1174998 0.0492584 0.4511994
0.1482024 0.0463896 0.4496124
0.2531893 0.0352805 0.4434475
0.4125008 0.0146493 0.4313007
0.5791369 0.0072026 0.4123176
0.7027406 0.0072026 0.3846060
0.7864860 0.0072026 0.3466398
0.8476470 0.0072026 0.2959165
0.8933040 0.0072026 0.2270646
0.1303180 0.1040103 0.4576695
0.1606543 0.1012025 0.4559604
0.2638100 0.0903986 0.4498566
0.4208021 0.0697064 0.4380150
0.5841421 0.0385766 0.4193982
0.7053043 0.0072026 0.3923579
0.7880120 0.0072026 0.3551853
0.8485625 0.0072026 0.3054386
0.8939144 0.0072026 0.2378685
0.1775011 0.2811451 0.4806202
0.2059452 0.2787646 0.4790331
0.3024477 0.2705854 0.4733565
0.4510163 0.2551425 0.4623695
0.6022096 0.2307270 0.4452176
0.7144601 0.1956296 0.4203748
0.7934444 0.1473479 0.3853995
0.8518586 0.0843557 0.3388268
0.8960508 0.0072026 0.2768113
0.2572178 0.5146188 0.5196850
0.2823048 0.5132760 0.5182811
0.3688580 0.5076604 0.5132149
0.5018617 0.4974669 0.5033877
0.6319966 0.4814137 0.4881890
0.7300250 0.4586462 0.4665202
0.8029665 0.4280046 0.4366111
0.8577794 0.3880242 0.3957761
0.8999573 0.3369957 0.3411463
0.3612281 0.7028627 0.5685772
0.3828359 0.7021303 0.5675395
0.4572423 0.6995666 0.5633889
0.5644876 0.6948666 0.5556980
0.6696576 0.6876030 0.5434902
0.7512055 0.6774095 0.5256058
0.8160898 0.6636758 0.5008851
0.8660807 0.6454862 0.4678020
0.9053897 0.6224135 0.4237319
0.4785448 0.8310444 0.6207654
0.4955136 0.8306781 0.6199109
0.5510590 0.8293353 0.6169200
0.6306537 0.8268327 0.6110602
0.7090277 0.8229262 0.6018434
0.7759263 0.8175548 0.5884148
0.8318379 0.8104132 0.5696759
0.8763963 0.8012574 0.5447720
0.9121040 0.7898431 0.5110175
0.5864616 0.9119209 0.6691693
0.5980590 0.9117988 0.6685589
0.6363914 0.9111884 0.6664225
0.6908381 0.9100897 0.6622108
0.7481536 0.9083806 0.6557407
0.8024171 0.9059391 0.6463407
0.8491729 0.9028261 0.6333394
0.8882988 0.8987975 0.6160044
0.9196728 0.8937923 0.5925655
0.6739913 0.9583104 0.7128731
0.6810718 0.9582494 0.7124458
0.7053653 0.9579442 0.7107367
0.7424159 0.9573949 0.7076238
0.7858146 0.9564793 0.7028017
0.8286639 0.9553195 0.6960264
0.8673015 0.9537325 0.6868095
0.9011170 0.9517182 0.6747238
0.9277910 0.9493377 0.6594641
0.7389977 0.9860831 0.7538912
0.7438198 0.9860831 0.7534640
0.7605445 0.9859000 0.7521821
0.7877068 0.9856559 0.7496185
0.8203015 0.9852286 0.7457731
0.8537508 0.9846182 0.7404016
0.8854911 0.9838857 0.7333211
0.9137521 0.9829091 0.7242874
0.9362144 0.9817494 0.7128731
0.2102789 0.0867363 0.6268083
0.2372581 0.0839285 0.6259537
0.3294879 0.0730025 0.6230849
0.4719526 0.0521882 0.6175304
0.6146005 0.0213026 0.6086797
0.7208082 0.0072026 0.5958616
0.7973509 0.0072026 0.5779161
0.8542391 0.0072026 0.5538668
0.8976378 0.0072026 0.5214552
0.2216322 0.1400842 0.6297381
0.2481231 0.1373985 0.6290057
0.3392541 0.1265336 0.6261368
0.4792773 0.1068180 0.6206434
0.6188122 0.0762376 0.6120369
0.7230056 0.0340597 0.5995849
0.7986938 0.0072026 0.5818837
0.8550937 0.0072026 0.5582006
0.8981871 0.0072026 0.5266435
0.2631386 0.3080632 0.6406031
0.2876763 0.3057438 0.6399316
0.3739242 0.2979918 0.6371238
0.5054019 0.2832204 0.6319966
0.6341940 0.2601477 0.6240005
0.7311237 0.2271257 0.6124641
0.8036990 0.1816517 0.5963499
0.8582067 0.1210401 0.5741928
0.9002625 0.0443753 0.5448941
0.3333333 0.5323811 0.6589147
0.3557956 0.5310383 0.6583654
0.4338033 0.5257279 0.6559238
0.5482512 0.5160227 0.6514680
0.6598914 0.5007630 0.6443264
0.7455289 0.4790331 0.6340109
0.8124886 0.4496734 0.6200330
0.8637612 0.4113410 0.6011719
0.9039248 0.3621437 0.5752915
0.4267228 0.7111030 0.6824147
0.4458890 0.7104315 0.6818043
0.5107123 0.7080510 0.6797900
0.6019655 0.7034731 0.6759446
0.6915095 0.6963926 0.6700848
0.7646951 0.6865043 0.6617836
0.8246353 0.6733809 0.6503082
0.8716352 0.6561680 0.6346213
0.9089910 0.6337667 0.6139291
0.5289019 0.8355002 0.7096991
0.5429409 0.8351340 0.7092718
0.5902460 0.8337911 0.7075017
0.6586706 0.8313496 0.7043277
0.7263627 0.8276262 0.6993835
0.7875847 0.8223769 0.6923640
0.8393457 0.8154184 0.6829640
0.8814625 0.8065678 0.6707563
0.9153391 0.7954587 0.6549472
0.6208875 0.9139352 0.7392419
0.6306537 0.9137521 0.7388757
0.6635537 0.9132027 0.7374107
0.7104315 0.9121040 0.7347250
0.7618873 0.9104560 0.7305133
0.8120002 0.9081365 0.7247146
0.8556430 0.9050235 0.7169627
0.8928768 0.9011170 0.7070134
0.9225417 0.8962949 0.6945614
0.6952329 0.9593481 0.7699445
0.7015809 0.9592871 0.7695782
0.7231887 0.9589819 0.7683574
0.7566990 0.9584325 0.7660380
0.7966795 0.9575780 0.7625587
0.8364158 0.9563572 0.7576756
0.8727950 0.9548312 0.7513276
0.9049625 0.9528780 0.7430873
0.9302936 0.9504975 0.7328939
0.7535860 0.9866325 0.8001587
0.7579198 0.9865714 0.7999145
0.7734237 0.9864494 0.7988769
0.7983886 0.9861442 0.7969847
0.8285418 0.9857169 0.7941159
0.8599158 0.9851676 0.7900873
0.8901911 0.9844351 0.7848990
0.9169261 0.9834585 0.7781847
0.9384118 0.9823598 0.7699445
0.3183788 0.1362388 0.7355185
0.3412684 0.1334920 0.7350913
0.4210462 0.1229933 0.7336263
0.5394006 0.1027895 0.7308185
0.6544589 0.0721480 0.7265458
0.7424159 0.0299701 0.7205640
0.8105963 0.0072026 0.7125679
0.8625404 0.0072026 0.7024965
0.9031313 0.0072026 0.6896173
0.3279619 0.1863517 0.7369835
0.3506073 0.1838491 0.7366172
0.4292254 0.1739608 0.7351523
0.5450772 0.1553440 0.7324055
0.6579381 0.1261063 0.7281939
0.7444302 0.0851492 0.7222120
0.8118171 0.0316181 0.7143380
0.8633950 0.0072026 0.7043277
0.9036196 0.0072026 0.6916316
0.3632424 0.3427944 0.7426601
0.3847891 0.3408411 0.7422328
0.4588903 0.3333944 0.7408289
0.5656473 0.3191723 0.7381432
0.6703290 0.2973814 0.7340536
0.7516328 0.2669230 0.7283159
0.8163950 0.2251114 0.7208082
0.8662638 0.1688335 0.7110419
0.9055118 0.0947934 0.6988342
0.4241592 0.5548434 0.7527315
0.4434475 0.5536227 0.7523653
0.5086980 0.5488616 0.7510224
0.6005005 0.5397668 0.7484588
0.6906549 0.5255448 0.7445523
0.7641458 0.5052188 0.7391809
0.8243301 0.4776903 0.7321003
0.8713911 0.4415553 0.7230056
0.9088690 0.3949826 0.7114692
0.5031435 0.7217237 0.7668315
0.5187084 0.7211133 0.7665263
0.5698590 0.7188549 0.7652445
0.6441433 0.7145212 0.7629250
0.7173900 0.7079290 0.7593237
0.7814808 0.6984679 0.7543795
0.8353781 0.6859550 0.7478484
0.8787768 0.6697186 0.7394861
0.9136300 0.6485381 0.7291094
0.5844473 0.8412379 0.7842276
0.5961057 0.8409327 0.7838613
0.6346823 0.8397119 0.7827626
0.6897394 0.8373924 0.7806873
0.7472990 0.8337301 0.7774522
0.8018678 0.8287249 0.7730574
0.8488067 0.8220717 0.7671977
0.8879937 0.8135262 0.7597510
0.9194897 0.8028444 0.7504120
0.6595251 0.9164988 0.8038210
0.6674602 0.9163767 0.8035769
0.6937069 0.9158274 0.8026003
0.7332601 0.9147287 0.8007691
0.7789172 0.9131417 0.7979613
0.8238418 0.9109443 0.7940548
0.8638833 0.9079534 0.7889886
0.8986755 0.9041690 0.7824574
0.9262650 0.8994690 0.7744003
0.7205640 0.9606910 0.8245132
0.7258133 0.9606299 0.8243301
0.7444912 0.9603247 0.8235366
0.7742782 0.9597754 0.8219496
0.8099860 0.9589819 0.8195691
0.8461210 0.9578221 0.8162730
0.8798755 0.9562962 0.8119392
0.9098456 0.9544040 0.8063847
0.9335897 0.9520845 0.7995483
0.7714704 0.9873039 0.8450223
0.7753769 0.9872429 0.8448392
0.7891717 0.9870598 0.8441677
0.8115730 0.9868156 0.8428859
0.8389184 0.9863883 0.8409327
0.8678508 0.9858390 0.8382470
0.8962339 0.9851065 0.8347067
0.9209546 0.9841909 0.8301898
0.9412806 0.9830922 0.8245132
0.4342916 0.1952634 0.8152353
0.4532137 0.1924556 0.8150522
0.5167552 0.1827504 0.8141366
0.6061771 0.1643777 0.8124886
0.6940121 0.1354453 0.8098639
0.7663432 0.0947934 0.8062626
0.8256730 0.0415064 0.8016236
0.8723067 0.0072026 0.7956418
0.9094183 0.0072026 0.7882561
0.4422267 0.2404932 0.8162119
0.4607825 0.2382348 0.8159678
0.5231643 0.2294452 0.8150522
0.6106330 0.2122932 0.8134041
0.6966368 0.1856192 0.8108405
0.7679912 0.1477751 0.8073003
0.8267717 0.0964414 0.8026003
0.8730391 0.0311909 0.7967405
0.9099066 0.0072026 0.7893548
0.4710371 0.3854605 0.8195691
0.4883721 0.3836294 0.8193859
0.5454434 0.3765489 0.8185314
0.6265641 0.3629372 0.8168834
0.7065251 0.3422450 0.8144418
0.7742782 0.3134957 0.8109626
0.8307392 0.2754685 0.8064457
0.8756638 0.2244400 0.8006470
0.9116157 0.1568699 0.7935665
0.5192578 0.5812733 0.8256730
0.5339071 0.5801746 0.8254898
0.5825551 0.5758408 0.8246963
0.6532381 0.5674785 0.8231093
0.7229445 0.5544772 0.8207898
0.7852652 0.5361045 0.8174937
0.8378197 0.5108954 0.8132210
0.8804248 0.4775072 0.8077275
0.9147287 0.4339864 0.8009522
0.5781603 0.7345419 0.8342794
0.5901239 0.7339926 0.8340353
0.6297992 0.7318562 0.8333028
0.6862601 0.7277666 0.8318989
0.7449185 0.7215406 0.8297015
0.8002197 0.7128121 0.8267106
0.8477080 0.7010926 0.8227431
0.8872612 0.6857718 0.8176769
0.9190014 0.6663615 0.8113899
0.6410303 0.8483184 0.8448392
0.6498810 0.8480132 0.8446560
0.6792407 0.8468534 0.8439236
0.7222120 0.8445950 0.8427028
0.7706159 0.8411768 0.8407496
0.8180431 0.8364158 0.8380638
0.8597937 0.8301288 0.8344626
0.8958066 0.8220106 0.8299457
0.9244339 0.8117561 0.8243301
0.6979796 0.9197339 0.8570469
0.7042666 0.9195508 0.8568638
0.7253250 0.9190624 0.8562534
0.7585302 0.9180248 0.8550937
0.7980834 0.9164988 0.8533236
0.8373924 0.9143624 0.8508820
0.8735274 0.9114936 0.8477080
0.9055118 0.9079534 0.8437405
0.9306598 0.9034365 0.8388574
0.7476042 0.9624000 0.8704145
0.7521211 0.9622780 0.8702313
0.7681133 0.9620338 0.8696820
0.7939938 0.9614845 0.8687054
0.8251236 0.9606910 0.8671184
0.8573521 0.9595923 0.8649820
0.8882378 0.9581273 0.8622352
0.9155832 0.9562962 0.8586950
0.9374962 0.9540377 0.8543002
0.7915522 0.9880974 0.8839651
0.7949704 0.9880364 0.8838430
0.8069340 0.9879143 0.8834157
0.8265275 0.9876701 0.8825612
0.8508820 0.9872429 0.8812183
0.8771287 0.9866935 0.8794482
0.9032534 0.9860221 0.8770677
0.9257767 0.9851065 0.8740768
0.9446988 0.9840078 0.8704145
0.5440396 0.2595373 0.8728560
0.5573460 0.2573399 0.8727339
0.6025148 0.2484893 0.8721846
0.6672771 0.2323750 0.8712080
0.7318562 0.2067997 0.8696820
0.7913691 0.1699322 0.8676067
0.8417872 0.1198804 0.8648599
0.8831716 0.0554233 0.8614417
0.9164378 0.0072026 0.8572301
0.5496551 0.2997009 0.8734054
0.5627175 0.2976866 0.8732222
0.6070317 0.2897516 0.8727339
0.6704511 0.2745529 0.8717573
0.7339315 0.2513581 0.8702313
0.7928340 0.2177257 0.8681560
0.8427638 0.1713972 0.8654703
0.8838430 0.1099921 0.8620521
0.9168650 0.0328389 0.8578404
0.5698590 0.4337423 0.8754196
0.5821278 0.4320942 0.8752365
0.6233901 0.4255631 0.8747482
0.6816822 0.4131112 0.8737716
0.7416835 0.3939449 0.8723677
0.7980834 0.3672099 0.8703534
0.8462431 0.3314411 0.8676677
0.8862235 0.2856009 0.8643106
0.9183910 0.2257828 0.8602210
0.6043460 0.6094732 0.8790209
0.6149667 0.6085577 0.8788378
0.6503082 0.6048953 0.8784105
0.7008484 0.5976927 0.8774339
0.7551120 0.5865837 0.8760911
0.8072392 0.5701032 0.8741378
0.8524080 0.5475798 0.8716352
0.8905573 0.5176097 0.8684612
0.9211378 0.4781176 0.8644937
0.6471342 0.7494354 0.8841482
0.6557407 0.7488860 0.8839651
0.6840017 0.7468718 0.8835378
0.7258133 0.7430263 0.8826833
0.7733016 0.7371055 0.8814015
0.8199353 0.7290484 0.8795703
0.8611365 0.7182445 0.8772508
0.8967222 0.7042056 0.8742599
0.9249832 0.6861381 0.8705976
0.6919978 0.8563755 0.8905573
0.6982848 0.8561314 0.8904352
0.7203809 0.8550327 0.8900079
0.7544406 0.8528963 0.8892755
0.7949704 0.8497833 0.8880547
0.8351950 0.8452664 0.8864066
0.8718794 0.8394067 0.8842703
0.9043521 0.8317768 0.8815235
0.9299274 0.8221937 0.8781664
0.7349692 0.9234572 0.8979430
0.7399133 0.9233352 0.8978209
0.7570653 0.9227858 0.8974547
0.7847769 0.9218702 0.8967833
0.8181041 0.9204053 0.8956846
0.8520418 0.9183300 0.8942196
0.8842092 0.9156443 0.8923274
0.9128975 0.9122261 0.8898859
0.9356040 0.9080144 0.8868950
0.7756211 0.9643533 0.9058780
0.7794055 0.9642312 0.9058170
0.7928340 0.9639871 0.9055118
0.8146249 0.9634987 0.9049014
0.8413599 0.9627052 0.9039858
0.8697430 0.9616676 0.9027040
0.8976378 0.9602637 0.9009949
0.9219313 0.9584936 0.8989196
0.9419520 0.9563572 0.8962949
0.8125496 0.9890740 0.9141183
0.8154184 0.9890740 0.9140573
0.8256730 0.9888909 0.9137521
0.8425197 0.9886468 0.9132637
0.8639443 0.9882805 0.9124702
0.8875664 0.9877312 0.9113715
0.9108832 0.9870598 0.9099066
0.9311481 0.9862052 0.9081365
0.9487273 0.9851676 0.9058780
0.6343161 0.3272905 0.9121650
0.6434719 0.3250320 0.9121040
0.6740524 0.3174632 0.9117988
0.7183056 0.3031801 0.9112495
0.7676250 0.2808399 0.9103949
0.8160288 0.2491607 0.9092962
0.8583898 0.2057621 0.9077703
0.8947690 0.1473479 0.9059391
0.9237624 0.0721480 0.9036196
0.6381615 0.3640359 0.9124702
0.6471342 0.3621437 0.9124092
0.6771654 0.3548190 0.9121040
0.7205640 0.3408411 0.9115547
0.7693341 0.3197217 0.9107612
0.8171885 0.2903620 0.9096014
0.8591833 0.2503815 0.9081365
0.8953794 0.1970335 0.9062443
0.9241287 0.1257401 0.9039858
0.6522005 0.4858695 0.9135689
0.6605017 0.4844046 0.9135079
0.6879082 0.4783617 0.9132027
0.7287432 0.4673747 0.9126534
0.7756211 0.4501618 0.9118599
0.8214613 0.4258072 0.9107612
0.8622352 0.3932125 0.9093573
0.8975157 0.3507294 0.9075261
0.9254715 0.2973814 0.9052677
0.6752731 0.6385888 0.9155832
0.6823537 0.6377342 0.9155222
0.7064640 0.6344992 0.9152170
0.7432705 0.6282732 0.9147287
0.7864250 0.6186901 0.9139352
0.8291522 0.6050174 0.9128975
0.8676067 0.5861564 0.9114936
0.9013612 0.5598486 0.9097235
0.9279741 0.5253617 0.9075871
0.7042666 0.7657938 0.9184521
0.7102484 0.7653055 0.9183910
0.7305133 0.7634133 0.9181469
0.7627419 0.7599341 0.9176585
0.8012574 0.7545016 0.9169261
0.8397119 0.7469328 0.9159495
0.8751755 0.7369224 0.9146066
0.9066715 0.7241043 0.9129586
0.9314533 0.7078679 0.9109443
0.7365562 0.8653482 0.9219923
0.7414393 0.8651041 0.9219313
0.7584081 0.8640664 0.9217482
0.7859366 0.8621742 0.9212598
0.8189587 0.8591833 0.9206495
0.8527132 0.8550327 0.9197339
0.8846976 0.8496612 0.9185131
0.9132027 0.8425807 0.9169871
0.9358481 0.8337301 0.9150949
0.7701886 0.9276689 0.9260819
0.7741561 0.9274858 0.9260209
0.7880730 0.9270585 0.9258378
0.8105963 0.9261430 0.9254715
0.8381859 0.9247391 0.9248611
0.8673015 0.9228469 0.9240676
0.8957456 0.9203443 0.9229689
0.9206495 0.9171092 0.9216871
0.9410364 0.9131417 0.9199780
0.8030886 0.9665507 0.9304767
0.8062016 0.9664897 0.9304157
0.8172496 0.9662455 0.9302326
0.8353171 0.9657572 0.9299274
0.8580236 0.9650247 0.9294391
0.8828053 0.9639871 0.9287066
0.9074040 0.9627052 0.9277910
0.9286455 0.9609962 0.9266313
0.9468351 0.9589819 0.9251663
0.8335470 0.9902338 0.9350546
0.8359885 0.9901727 0.9349936
0.8445950 0.9900507 0.9348715
0.8590612 0.9898065 0.9345663
0.8776781 0.9894403 0.9341390
0.8987365 0.9889520 0.9335287
0.9189404 0.9882805 0.9327352
0.9369468 0.9874260 0.9316975
0.9532442 0.9863883 0.9304767
