app/src/main/assets/luts/Classic.CUBE
#Created by: Leica Camera AG | Wetzar | Germany
#Unique Leica Look ID: 2
#Based Filmstyle Mode: Standard
TITLE "Leica Classic"
#LUT size
LUT_3D_SIZE 17
#data domain
DOMAIN_MIN 0.0 0.0 0.0
DOMAIN_MAX 1.0 1.0 1.0
# 
LUT_3D_SIZE 17
0.0046390 0.0072026 0.0144662
0.0109870 0.0072026 0.0144662
0.0366844 0.0072026 0.0144662
0.0851492 0.0072026 0.0144662
0.1552219 0.0072026 0.0144662
0.2413477 0.0072026 0.0144662
0.3365684 0.0072026 0.0144662
0.4375267 0.0072026 0.0144662
0.5331746 0.0072026 0.0144662
0.6141732 0.0072026 0.0144662
0.6796069 0.0072026 0.0144662
0.7306965 0.0072026 0.0144662
0.7733016 0.0072026 0.0144662
0.8094976 0.0072026 0.0144662
0.8398340 0.0072026 0.0144662
0.8657145 0.0072026 0.0144662
0.8881768 0.0072026 0.0144662
0.0072026 0.0183727 0.0167247
0.0139169 0.0175792 0.0162974
0.0396753 0.0155039 0.0144662
0.0876518 0.0109260 0.0144662
0.1575414 0.0072026 0.0144662
0.2434231 0.0072026 0.0144662
0.3386437 0.0072026 0.0144662
0.4389916 0.0072026 0.0144662
0.5342733 0.0072026 0.0144662
0.6150888 0.0072026 0.0144662
0.6802783 0.0072026 0.0144662
0.7310627 0.0072026 0.0144662
0.7736678 0.0072026 0.0144662
0.8097418 0.0072026 0.0144662
0.8400171 0.0072026 0.0144662
0.8658976 0.0072026 0.0144662
0.8882988 0.0072026 0.0144662
0.0181896 0.0623817 0.0278337
0.0244766 0.0619545 0.0269181
0.0506012 0.0595129 0.0241104
0.0983336 0.0550571 0.0190441
0.1676128 0.0484649 0.0144662
0.2522127 0.0390038 0.0144662
0.3462736 0.0274675 0.0144662
0.4454007 0.0134286 0.0144662
0.5390344 0.0072026 0.0144662
0.6184460 0.0072026 0.0144662
0.6825978 0.0072026 0.0144662
0.7327718 0.0072026 0.0144662
0.7749496 0.0072026 0.0144662
0.8107184 0.0072026 0.0144662
0.8408106 0.0072026 0.0144662
0.8664469 0.0072026 0.0144662
0.8888482 0.0072026 0.0144662
0.0383935 0.1427699 0.0480376
0.0451077 0.1420375 0.0476103
0.0706220 0.1397180 0.0448636
0.1178661 0.1358726 0.0393090
0.1857413 0.1292193 0.0314961
0.2680828 0.1206128 0.0208753
0.3600684 0.1095648 0.0144662
0.4569981 0.0955869 0.0144662
0.5475798 0.0791064 0.0144662
0.6247940 0.0595129 0.0144662
0.6868095 0.0369285 0.0144662
0.7358848 0.0113532 0.0144662
0.7773912 0.0072026 0.0144662
0.8125496 0.0072026 0.0144662
0.8422145 0.0072026 0.0144662
0.8676067 0.0072026 0.0144662
0.8897638 0.0072026 0.0144662
0.0689739 0.2494659 0.0786791
0.0751999 0.2488555 0.0777635
0.1007752 0.2469023 0.0750168
0.1469816 0.2437283 0.0700116
0.2124153 0.2382348 0.0622597
0.2915217 0.2310932 0.0517610
0.3806385 0.2217543 0.0379662
0.4740280 0.2099127 0.0213636
0.5600317 0.1956296 0.0144662
0.6338277 0.1783556 0.0144662
0.6930355 0.1579686 0.0144662
0.7405848 0.1342855 0.0144662
0.7809315 0.1071843 0.0144662
0.8152963 0.0766648 0.0144662
0.8443509 0.0422999 0.0144662
0.8692547 0.0072026 0.0144662
0.8911066 0.0072026 0.0144662
0.1097479 0.3683086 0.1190869
0.1158518 0.3677593 0.1186596
0.1406946 0.3664164 0.1159739
0.1850089 0.3634865 0.1106635
0.2467802 0.3589086 0.1030336
0.3219801 0.3529268 0.0927181
0.4074956 0.3452359 0.0795947
0.4959409 0.3356528 0.0631752
0.5761460 0.3242385 0.0434597
0.6455472 0.3106269 0.0204480
0.7011536 0.2947568 0.0144662
0.7466276 0.2763230 0.0144662
0.7856314 0.2551425 0.0144662
0.8188976 0.2307270 0.0144662
0.8471586 0.2022829 0.0144662
0.8715132 0.1695660 0.0144662
0.8929378 0.1319661 0.0144662
0.1598608 0.4936825 0.1691387
0.1660258 0.4932552 0.1683452
0.1890985 0.4922175 0.1657816
0.2303607 0.4898981 0.1611426
0.2880425 0.4865409 0.1539401
0.3592138 0.4815968 0.1440518
0.4397851 0.4755539 0.1309894
0.5216383 0.4678020 0.1151193
0.5955564 0.4586462 0.0958921
0.6595251 0.4475981 0.0732467
0.7110419 0.4347189 0.0471220
0.7540133 0.4200085 0.0172130
0.7914301 0.4028566 0.0144662
0.8233535 0.3830800 0.0144662
0.8506379 0.3608008 0.0144662
0.8743209 0.3358970 0.0144662
0.8952573 0.3080632 0.0144662
0.2174205 0.6058109 0.2255387
0.2226698 0.6056888 0.2251724
0.2440945 0.6048953 0.2229140
0.2819996 0.6033693 0.2182750
0.3354087 0.6011109 0.2117439
0.4018800 0.5979979 0.2026491
0.4765305 0.5937862 0.1910517
0.5500214 0.5887200 0.1762803
0.6172252 0.5824330 0.1581517
0.6749069 0.5747421 0.1366661
0.7222120 0.5656473 0.1110908
0.7626808 0.5550266 0.0822804
0.7981444 0.5426967 0.0494415
0.8285418 0.5285967 0.0144662
0.8547275 0.5122383 0.0144662
0.8776170 0.4934994 0.0144662
0.8980040 0.4724409 0.0144662
0.2794360 0.6931575 0.2848074
0.2841970 0.6929744 0.2845022
0.3033632 0.6924861 0.2824879
0.3383385 0.6914485 0.2785204
0.3878411 0.6898004 0.2727828
0.4488189 0.6876640 0.2649087
0.5155344 0.6849783 0.2547763
0.5802356 0.6814991 0.2418360
0.6401758 0.6774095 0.2259049
0.6912653 0.6724654 0.2066166
0.7344198 0.6666667 0.1836660
0.7723860 0.6599524 0.1565037
0.8057132 0.6521394 0.1252518
0.8344626 0.6432277 0.0895440
0.8594885 0.6331563 0.0498688
0.8814625 0.6218641 0.0144662
0.9011170 0.6089849 0.0144662
0.3445034 0.7651224 0.3451749
0.3491424 0.7650003 0.3446255
0.3665995 0.7645730 0.3429164
0.3986449 0.7639016 0.3396814
0.4434475 0.7627419 0.3346762
0.4976500 0.7612159 0.3278398
0.5547824 0.7592016 0.3188061
0.6117317 0.7567601 0.3076360
0.6638589 0.7538302 0.2939633
0.7086004 0.7502899 0.2774828
0.7477873 0.7462003 0.2579503
0.7829457 0.7414393 0.2348776
0.8139535 0.7361289 0.2074101
0.8409937 0.7300861 0.1749985
0.8647378 0.7233107 0.1379479
0.8857963 0.7156198 0.0954038
0.9045352 0.7069523 0.0485259
0.4125008 0.8259171 0.4060306
0.4166514 0.8257950 0.4055423
0.4322774 0.8255509 0.4040164
0.4603552 0.8250015 0.4012086
0.4993591 0.8241470 0.3968138
0.5450772 0.8229872 0.3907099
0.5939083 0.8215223 0.3827138
0.6424342 0.8196911 0.3730086
0.6868095 0.8175548 0.3611060
0.7261796 0.8149301 0.3469450
0.7617042 0.8119392 0.3302814
0.7941159 0.8085210 0.3104438
0.8228041 0.8046145 0.2874321
0.8480132 0.8001587 0.2607581
0.8704145 0.7951535 0.2289568
0.8904962 0.7895990 0.1918452
0.9081975 0.7833730 0.1487518
0.4797046 0.8741989 0.4640176
0.4832448 0.8741989 0.4638345
0.4965513 0.8739547 0.4625526
0.5200513 0.8735885 0.4599890
0.5519136 0.8730391 0.4563877
0.5901239 0.8723067 0.4513825
0.6312641 0.8713300 0.4449734
0.6719770 0.8700482 0.4366111
0.7093939 0.8686443 0.4266007
0.7440029 0.8668742 0.4147592
0.7761704 0.8648599 0.4001709
0.8056522 0.8624794 0.3832631
0.8319600 0.8598547 0.3636086
0.8553989 0.8568028 0.3408411
0.8765183 0.8533846 0.3147775
0.8955625 0.8495392 0.2845022
0.9121650 0.8452664 0.2487334
0.5417201 0.9096625 0.5188305
0.5445889 0.9096014 0.5184643
0.5551486 0.9094793 0.5173656
0.5740707 0.9092352 0.5154123
0.6006836 0.9088690 0.5122993
0.6321187 0.9083806 0.5080877
0.6659952 0.9077703 0.5024110
0.6989562 0.9069157 0.4955747
0.7310016 0.9059391 0.4872124
0.7617042 0.9048404 0.4772020
0.7907587 0.9034975 0.4654825
0.8173717 0.9019716 0.4518098
0.8414210 0.9002625 0.4356955
0.8631508 0.8983092 0.4167735
0.8829274 0.8961118 0.3946774
0.9009339 0.8936703 0.3688580
0.9162547 0.8909235 0.3396814
0.5970213 0.9362754 0.5681499
0.5993408 0.9362144 0.5679668
0.6080083 0.9361533 0.5671123
0.6233901 0.9359702 0.5655252
0.6445096 0.9357261 0.5630837
0.6698407 0.9353598 0.5595434
0.6966368 0.9349326 0.5552097
0.7244705 0.9343832 0.5497162
0.7521821 0.9337118 0.5430019
0.7794055 0.9329183 0.5348837
0.8052249 0.9320027 0.5253006
0.8291522 0.9309650 0.5137643
0.8510651 0.9298053 0.5003357
0.8711469 0.9285235 0.4850150
0.8896417 0.9269975 0.4671916
0.9063053 0.9253494 0.4467436
0.9205274 0.9235183 0.4230605
0.6454251 0.9571507 0.6119148
0.6471342 0.9571507 0.6118538
0.6540927 0.9570897 0.6111213
0.6663004 0.9569676 0.6097784
0.6826589 0.9567845 0.6078252
0.7025575 0.9565403 0.6052005
0.7248367 0.9561741 0.6017213
0.7483977 0.9558079 0.5973875
0.7725691 0.9553195 0.5919551
0.7965574 0.9547092 0.5854239
0.8193859 0.9540377 0.5776720
0.8408106 0.9533053 0.5685772
0.8607093 0.9524507 0.5580785
0.8792651 0.9515351 0.5458707
0.8964781 0.9504364 0.5317707
0.9116767 0.9492767 0.5152292
0.9248611 0.9479949 0.4959409
0.6862601 0.9733870 0.6493316
0.6876640 0.9733870 0.6491485
0.6928523 0.9733260 0.6486602
0.7023134 0.9732650 0.6476225
0.7156198 0.9731429 0.6460966
0.7318562 0.9729598 0.6439602
0.7505951 0.9727156 0.6410914
0.7709211 0.9724715 0.6376122
0.7919795 0.9721052 0.6334005
0.8129158 0.9717390 0.6283953
0.8331197 0.9712507 0.6225356
0.8522859 0.9707624 0.6156992
0.8704145 0.9701520 0.6076421
0.8874443 0.9694806 0.5981200
0.9033144 0.9687481 0.5870109
0.9171702 0.9679546 0.5739486
0.9292559 0.9670390 0.5591162
0.7210523 0.9855338 0.6810718
0.7220900 0.9855338 0.6809498
0.7263017 0.9854727 0.6805225
0.7338705 0.9854117 0.6797290
0.7449185 0.9853507 0.6785082
0.7585912 0.9852286 0.6767991
0.7746444 0.9850455 0.6746017
0.7921626 0.9848624 0.6719160
0.8102912 0.9846182 0.6686810
0.8284197 0.9843740 0.6648355
0.8463041 0.9840689 0.6603186
0.8635171 0.9837026 0.6549472
0.8799976 0.9832753 0.6486602
0.8956846 0.9828481 0.6412745
0.9099676 0.9822987 0.6327290
0.9224806 0.9817494 0.6230849
0.9336507 0.9811390 0.6119148
0.0063480 0.0076299 0.0241104
0.0131234 0.0072026 0.0236831
0.0388207 0.0072026 0.0208753
0.0867973 0.0072026 0.0158091
0.1567478 0.0072026 0.0144662
0.2430568 0.0072026 0.0144662
0.3380333 0.0072026 0.0144662
0.4385033 0.0072026 0.0144662
0.5339071 0.0072026 0.0144662
0.6148447 0.0072026 0.0144662
0.6800952 0.0072026 0.0144662
0.7309406 0.0072026 0.0144662
0.7735457 0.0072026 0.0144662
0.8096197 0.0072026 0.0144662
0.8399561 0.0072026 0.0144662
0.8658365 0.0072026 0.0144662
0.8882988 0.0072026 0.0144662
0.0092779 0.0192272 0.0269181
0.0156260 0.0183727 0.0264298
0.0417506 0.0159311 0.0236831
0.0897272 0.0113532 0.0186169
0.1594946 0.0072026 0.0144662
0.2451321 0.0072026 0.0144662
0.3401086 0.0072026 0.0144662
0.4402735 0.0072026 0.0144662
0.5351889 0.0072026 0.0144662
0.6156382 0.0072026 0.0144662
0.6807056 0.0072026 0.0144662
0.7314289 0.0072026 0.0144662
0.7738509 0.0072026 0.0144662
0.8099249 0.0072026 0.0144662
0.8401392 0.0072026 0.0144662
0.8659586 0.0072026 0.0144662
0.8884209 0.0072026 0.0144662
0.0198376 0.0632363 0.0379662
0.0266130 0.0623817 0.0370506
0.0522493 0.0603675 0.0342428
0.1004090 0.0558506 0.0291766
0.1695050 0.0488921 0.0213636
0.2538607 0.0398584 0.0144662
0.3474333 0.0283220 0.0144662
0.4463773 0.0138558 0.0144662
0.5397668 0.0072026 0.0144662
0.6190563 0.0072026 0.0144662
0.6829640 0.0072026 0.0144662
0.7330159 0.0072026 0.0144662
0.7751938 0.0072026 0.0144662
0.8109015 0.0072026 0.0144662
0.8409327 0.0072026 0.0144662
0.8665690 0.0072026 0.0144662
0.8889092 0.0072026 0.0144662
0.0404688 0.1431972 0.0581701
0.0468168 0.1427699 0.0572545
0.0726973 0.1404505 0.0545077
0.1198804 0.1362388 0.0494415
0.1876335 0.1300128 0.0416285
0.2697308 0.1214063 0.0310688
0.3615333 0.1099921 0.0172130
0.4582189 0.0964414 0.0144662
0.5484344 0.0798999 0.0144662
0.6252823 0.0603675 0.0144662
0.6872368 0.0377831 0.0144662
0.7361900 0.0122078 0.0144662
0.7775743 0.0072026 0.0144662
0.8127327 0.0072026 0.0144662
0.8423366 0.0072026 0.0144662
0.8676677 0.0072026 0.0144662
0.8898248 0.0072026 0.0144662
0.0710493 0.2497711 0.0886285
0.0772752 0.2494659 0.0877739
0.1024232 0.2475737 0.0850272
0.1489349 0.2440334 0.0800220
0.2141854 0.2389062 0.0723311
0.2930477 0.2317036 0.0618324
0.3817372 0.2224257 0.0480376
0.4751877 0.2105841 0.0314961
0.5608863 0.1963621 0.0144662
0.6343161 0.1790881 0.0144662
0.6933407 0.1587621 0.0144662
0.7408899 0.1350790 0.0144662
0.7811756 0.1079778 0.0144662
0.8154795 0.0774583 0.0144662
0.8444729 0.0430935 0.0144662
0.8693768 0.0072026 0.0144662
0.8911677 0.0072026 0.0144662
0.1113960 0.3688580 0.1287920
0.1178661 0.3683086 0.1283648
0.1422816 0.3667216 0.1256791
0.1869011 0.3640359 0.1204297
0.2484893 0.3593969 0.1128609
0.3235061 0.3534762 0.1026064
0.4085332 0.3457853 0.0895440
0.4969786 0.3362022 0.0732467
0.5769395 0.3247879 0.0535921
0.6459745 0.3112373 0.0305805
0.7015199 0.2953671 0.0144662
0.7469328 0.2769334 0.0144662
0.7858146 0.2557529 0.0144662
0.8190808 0.2313984 0.0144662
0.8472807 0.2030153 0.0144662
0.8716352 0.1702985 0.0144662
0.8930599 0.1327596 0.0144662
0.1618141 0.4941097 0.1782946
0.1676128 0.4936825 0.1775011
0.1909907 0.4924617 0.1749985
0.2321309 0.4903253 0.1704206
0.2896295 0.4867240 0.1632790
0.3603736 0.4820240 0.1535128
0.4410059 0.4759812 0.1405725
0.5226149 0.4682903 0.1248245
0.5962888 0.4590734 0.1057193
0.6600745 0.4480864 0.0831960
0.7114082 0.4352072 0.0572545
0.7543185 0.4202527 0.0273454
0.7916133 0.4031008 0.0144662
0.8234756 0.3836294 0.0144662
0.8507599 0.3612891 0.0144662
0.8744430 0.3364463 0.0144662
0.8953183 0.3086126 0.0144662
0.2188244 0.6061161 0.2337789
0.2244400 0.6059940 0.2330465
0.2454373 0.6051395 0.2307880
0.2835866 0.6036135 0.2266984
0.3368736 0.6014161 0.2202283
0.4032229 0.5983031 0.2113166
0.4774461 0.5940914 0.1999023
0.5506928 0.5890252 0.1848868
0.6177745 0.5825551 0.1670634
0.6753952 0.5748642 0.1457608
0.7224562 0.5659525 0.1208570
0.7628639 0.5553317 0.0922297
0.7983275 0.5430629 0.0595129
0.8287249 0.5287798 0.0227675
0.8548495 0.5126656 0.0144662
0.8777391 0.4939266 0.0144662
0.8980651 0.4726851 0.0144662
0.2807178 0.6933407 0.2920100
0.2857840 0.6931575 0.2917048
0.3048892 0.6926082 0.2897516
0.3394983 0.6916316 0.2857840
0.3889398 0.6899835 0.2801685
0.4500397 0.6879082 0.2724165
0.5165110 0.6851614 0.2624672
0.5808460 0.6816822 0.2497711
0.6406641 0.6775926 0.2341451
0.6916926 0.6726485 0.2152231
0.7347250 0.6669108 0.1922114
0.7726302 0.6601355 0.1657816
0.8058964 0.6523836 0.1348959
0.8345846 0.6434719 0.0994323
0.8596106 0.6334005 0.0600012
0.8815846 0.6221083 0.0162974
0.9011780 0.6092291 0.0144662
0.3459684 0.7651834 0.3515229
0.3506073 0.7651224 0.3509125
0.3680645 0.7646951 0.3492034
0.3997436 0.7639626 0.3460905
0.4444241 0.7628639 0.3411463
0.4986877 0.7613380 0.3344320
0.5556369 0.7593847 0.3254593
0.6122810 0.7568821 0.3144723
0.6643472 0.7539523 0.3010438
0.7090277 0.7504731 0.2848074
0.7480925 0.7463224 0.2655802
0.7831289 0.7416224 0.2425685
0.8141366 0.7362510 0.2155893
0.8411158 0.7302692 0.1840933
0.8647989 0.7234328 0.1470427
0.8859183 0.7158030 0.1052921
0.9045962 0.7071354 0.0585973
0.4137826 0.8259781 0.4113410
0.4176891 0.8259171 0.4110969
0.4334981 0.8256119 0.4095709
0.4615150 0.8250626 0.4068241
0.5003968 0.8242080 0.4024904
0.5458097 0.8231093 0.3962644
0.5946408 0.8216444 0.3886346
0.6429836 0.8198132 0.3789904
0.6872368 0.8176158 0.3672099
0.7264237 0.8150522 0.3532320
0.7620094 0.8120613 0.3367515
0.7943600 0.8085821 0.3172801
0.8229262 0.8046756 0.2946347
0.8481353 0.8002808 0.2683269
0.8704755 0.7952756 0.2371361
0.8906183 0.7897211 0.2006958
0.9082586 0.7834951 0.1581517
0.4808033 0.8742599 0.4685955
0.4841604 0.8742599 0.4682293
0.4976500 0.8740157 0.4669474
0.5210279 0.8736495 0.4646890
0.5527681 0.8731002 0.4610877
0.5907343 0.8723677 0.4561436
0.6318745 0.8713300 0.4496124
0.6724654 0.8701703 0.4416163
0.7097601 0.8686443 0.4317891
0.7443081 0.8669352 0.4198865
0.7764146 0.8649210 0.4057865
0.8058353 0.8626015 0.3891229
0.8320820 0.8599158 0.3697125
0.8555820 0.8568638 0.3472502
0.8765794 0.8534456 0.3215528
0.8956846 0.8496002 0.2913996
0.9122261 0.8452664 0.2565464
0.5426357 0.9097235 0.5226759
0.5452603 0.9096625 0.5223097
0.5560032 0.9095404 0.5212720
0.5748642 0.9092962 0.5193188
0.6013551 0.9089300 0.5163279
0.6326070 0.9084417 0.5121162
0.6664836 0.9077703 0.5065617
0.6993835 0.9069767 0.4997864
0.7313679 0.9060001 0.4914851
0.7620094 0.9049014 0.4816578
0.7910029 0.9035586 0.4700604
0.8175548 0.9020326 0.4563877
0.8416041 0.9003235 0.4405176
0.8632729 0.8983703 0.4220839
0.8829885 0.8961729 0.4001709
0.9009949 0.8937313 0.3749008
0.9163157 0.8909846 0.3460905
0.5977538 0.9362754 0.5712629
0.5999512 0.9362754 0.5711408
0.6087408 0.9361533 0.5702863
0.6240005 0.9360313 0.5685772
0.6450589 0.9357261 0.5661356
0.6703290 0.9354209 0.5627785
0.6970640 0.9349326 0.5585058
0.7248367 0.9343832 0.5531343
0.7524873 0.9337118 0.5464811
0.7795886 0.9329183 0.5384850
0.8054080 0.9320637 0.5290240
0.8293353 0.9310261 0.5177318
0.8511872 0.9298663 0.5044864
0.8712690 0.9285235 0.4891656
0.8897027 0.9270585 0.4717085
0.9063664 0.9254105 0.4516267
0.9205884 0.9235793 0.4282488
0.6459134 0.9572117 0.6143563
0.6477446 0.9571507 0.6142953
0.6545810 0.9570897 0.6136239
0.6667887 0.9569676 0.6122810
0.6831472 0.9567845 0.6103888
0.7029848 0.9565403 0.6077641
0.7250809 0.9561741 0.6043460
0.7487029 0.9558079 0.6000732
0.7727522 0.9553195 0.5947629
0.7967405 0.9547092 0.5882927
0.8195691 0.9540988 0.5805408
0.8409327 0.9533053 0.5716902
0.8608924 0.9524507 0.5613136
0.8793261 0.9515351 0.5492889
0.8965391 0.9504975 0.5353720
0.9117988 0.9492767 0.5191357
0.9248611 0.9479949 0.5001526
0.6866874 0.9733870 0.6512849
0.6880303 0.9733870 0.6511018
0.6932796 0.9733870 0.6506134
0.7027406 0.9732650 0.6496368
0.7159861 0.9731429 0.6481108
0.7321003 0.9729598 0.6459745
0.7509003 0.9727156 0.6431667
0.7711652 0.9724715 0.6397485
0.7922236 0.9721052 0.6355979
0.8130989 0.9717390 0.6305927
0.8332418 0.9713117 0.6248550
0.8524080 0.9707624 0.6180797
0.8705365 0.9701520 0.6101447
0.8875664 0.9695416 0.6008057
0.9033754 0.9687481 0.5898798
0.9171702 0.9679546 0.5770005
0.9292559 0.9670390 0.5623512
0.7212965 0.9855338 0.6826589
0.7223952 0.9855338 0.6825368
0.7265458 0.9855338 0.6821095
0.7342367 0.9854727 0.6813160
0.7452237 0.9853507 0.6800952
0.7588964 0.9852286 0.6783861
0.7748276 0.9850455 0.6762498
0.7923457 0.9848624 0.6735641
0.8104132 0.9846182 0.6703900
0.8286028 0.9843740 0.6665446
0.8464262 0.9840689 0.6620888
0.8636391 0.9837026 0.6567784
0.8800586 0.9832753 0.6506134
0.8958066 0.9828481 0.6433498
0.9100287 0.9822987 0.6348654
0.9225417 0.9817494 0.6253433
0.9337118 0.9811390 0.6143563
0.0143441 0.0105597 0.0636636
0.0206922 0.0101325 0.0631752
0.0468168 0.0076299 0.0604285
0.0946103 0.0072026 0.0554233
0.1641336 0.0072026 0.0476103
0.2491607 0.0072026 0.0365623
0.3436489 0.0072026 0.0231948
0.4432033 0.0072026 0.0144662
0.5373863 0.0072026 0.0144662
0.6172252 0.0072026 0.0144662
0.6816822 0.0072026 0.0144662
0.7322224 0.0072026 0.0144662
0.7744613 0.0072026 0.0144662
0.8103522 0.0072026 0.0144662
0.8405054 0.0072026 0.0144662
0.8662638 0.0072026 0.0144662
0.8886651 0.0072026 0.0144662
0.0169078 0.0216688 0.0664103
0.0236220 0.0213026 0.0659220
0.0493194 0.0188000 0.0631752
0.0971129 0.0142831 0.0581701
0.1664530 0.0076299 0.0503571
0.2515412 0.0072026 0.0393090
0.3453580 0.0072026 0.0260026
0.4446683 0.0072026 0.0144662
0.5384850 0.0072026 0.0144662
0.6181408 0.0072026 0.0144662
0.6823537 0.0072026 0.0144662
0.7325887 0.0072026 0.0144662
0.7748276 0.0072026 0.0144662
0.8105963 0.0072026 0.0144662
0.8407496 0.0072026 0.0144662
0.8663859 0.0072026 0.0144662
0.8887872 0.0072026 0.0144662
0.0278337 0.0660441 0.0773363
0.0341818 0.0652506 0.0764207
0.0601843 0.0632363 0.0736739
0.1077336 0.0587194 0.0686687
0.1763413 0.0517610 0.0609168
0.2598425 0.0427272 0.0503571
0.3529268 0.0311909 0.0365623
0.4510163 0.0167247 0.0199597
0.5431240 0.0072026 0.0144662
0.6215589 0.0072026 0.0144662
0.6846121 0.0072026 0.0144662
0.7342977 0.0072026 0.0144662
0.7761094 0.0072026 0.0144662
0.8116340 0.0072026 0.0144662
0.8414820 0.0072026 0.0144662
0.8669963 0.0072026 0.0144662
0.8892755 0.0072026 0.0144662
0.0480376 0.1458219 0.0972349
0.0547519 0.1454557 0.0967466
0.0802051 0.1431972 0.0940609
0.1271440 0.1389245 0.0886285
0.1942868 0.1327596 0.0809376
0.2758347 0.1241531 0.0704999
0.3665995 0.1127388 0.0572545
0.4624306 0.0991882 0.0402246
0.5515473 0.0827077 0.0204480
0.6276628 0.0632363 0.0144662
0.6887627 0.0406519 0.0144662
0.7373497 0.0150766 0.0144662
0.7785509 0.0072026 0.0144662
0.8134041 0.0072026 0.0144662
0.8428859 0.0072026 0.0144662
0.8681560 0.0072026 0.0144662
0.8901911 0.0072026 0.0144662
0.0785570 0.2519685 0.1270219
0.0851492 0.2516633 0.1261674
0.1101752 0.2497711 0.1234817
0.1560154 0.2462919 0.1186596
0.2205945 0.2411646 0.1110908
0.2987243 0.2340231 0.1008362
0.3869865 0.2248062 0.0872856
0.4792773 0.2129647 0.0709272
0.5638772 0.1988036 0.0512727
0.6366355 0.1816517 0.0282610
0.6949277 0.1613868 0.0144662
0.7419886 0.1377648 0.0144662
0.7820302 0.1107856 0.0144662
0.8161509 0.0802661 0.0144662
0.8450223 0.0460233 0.0144662
0.8698041 0.0084844 0.0144662
0.8915339 0.0072026 0.0144662
0.1190869 0.3706891 0.1657816
0.1251297 0.3702008 0.1653543
0.1497284 0.3685528 0.1628517
0.1935543 0.3659281 0.1577245
0.2545321 0.3612891 0.1504608
0.3288775 0.3553684 0.1405725
0.4135384 0.3477385 0.1278765
0.5008240 0.3380944 0.1120063
0.5797473 0.3267411 0.0927181
0.6481719 0.3131905 0.0700116
0.7030458 0.2973814 0.0434597
0.7480315 0.2790698 0.0144662
0.7867301 0.2579503 0.0144662
0.8197522 0.2336568 0.0144662
0.8478301 0.2054569 0.0144662
0.8720015 0.1728621 0.0144662
0.8933651 0.1354453 0.0144662
0.1687115 0.4955747 0.2129036
0.1748154 0.4951474 0.2121101
0.1975829 0.4939266 0.2097906
0.2382958 0.4917903 0.2054569
0.2952451 0.4882500 0.1986816
0.3657450 0.4835500 0.1894037
0.4454007 0.4775072 0.1770738
0.5260331 0.4698163 0.1619972
0.5989135 0.4606604 0.1435635
0.6619667 0.4496734 0.1217115
0.7127510 0.4368553 0.0963194
0.7553562 0.4219618 0.0668376
0.7924678 0.4048709 0.0338155
0.8240859 0.3854605 0.0144662
0.8512482 0.3631813 0.0144662
0.8748093 0.3383996 0.0144662
0.8956846 0.3106269 0.0144662
0.2254776 0.6070317 0.2645425
0.2307270 0.6069096 0.2642373
0.2518464 0.6061161 0.2621620
0.2892633 0.6045901 0.2579503
0.3421840 0.6023927 0.2519075
0.4079839 0.5992797 0.2436672
0.4817189 0.5950681 0.2330465
0.5539279 0.5900629 0.2190685
0.6202771 0.5836538 0.2022829
0.6771654 0.5760239 0.1820179
0.7237991 0.5671123 0.1581517
0.7639016 0.5565525 0.1305622
0.7991210 0.5443447 0.0985778
0.8293353 0.5301227 0.0622597
0.8553989 0.5140695 0.0222792
0.8781054 0.4953916 0.0144662
0.8983703 0.4742111 0.0144662
0.2867607 0.6940121 0.3191113
0.2915217 0.6938290 0.3188061
0.3107489 0.6932796 0.3169749
0.3450528 0.6922420 0.3132515
0.3940670 0.6907160 0.3079412
0.4543734 0.6885796 0.3006775
0.5202344 0.6858329 0.2913996
0.5838369 0.6824147 0.2794970
0.6428615 0.6782641 0.2649087
0.6931575 0.6733809 0.2472685
0.7359458 0.6676433 0.2259049
0.7735457 0.6609290 0.2010621
0.8066288 0.6531771 0.1716413
0.8351950 0.6442654 0.1375206
0.8600378 0.6342550 0.0990051
0.8819508 0.6230239 0.0558506
0.9014832 0.6101447 0.0144662
0.3514619 0.7656717 0.3754502
0.3557956 0.7656107 0.3749008
0.3731307 0.7651834 0.3732528
0.4048099 0.7644510 0.3702619
0.4490631 0.7633523 0.3655619
0.5025331 0.7618263 0.3591528
0.5586889 0.7598730 0.3506684
0.6148447 0.7573704 0.3402918
0.6663004 0.7544406 0.3275346
0.7103705 0.7509614 0.3123360
0.7491302 0.7468718 0.2942684
0.7840444 0.7421718 0.2730880
0.8148080 0.7368003 0.2480010
0.8416651 0.7308185 0.2182750
0.8652872 0.7240432 0.1836660
0.8862235 0.7164134 0.1431362
0.9049014 0.7077458 0.0976622
0.4184826 0.8263444 0.4322163
0.4225722 0.8262833 0.4317891
0.4380150 0.8259781 0.4303852
0.4657267 0.8254288 0.4278215
0.5041812 0.8245743 0.4237319
0.5491058 0.8234756 0.4182384
0.5973265 0.8220106 0.4107917
0.6450589 0.8201795 0.4016969
0.6887627 0.8180431 0.3904657
0.7277055 0.8154184 0.3770372
0.7629860 0.8124275 0.3614112
0.7951535 0.8090093 0.3429164
0.8235366 0.8051029 0.3215528
0.8486236 0.8007081 0.2968931
0.8709028 0.7957029 0.2676555
0.8909235 0.7901483 0.2337789
0.9085638 0.7839224 0.1938595
0.4848318 0.8745041 0.4859916
0.4883721 0.8745041 0.4856253
0.5014344 0.8742599 0.4844046
0.5245071 0.8738937 0.4822072
0.5558201 0.8733443 0.4788500
0.5936031 0.8726119 0.4741500
0.6340719 0.8715742 0.4682293
0.6741744 0.8704145 0.4604163
0.7111640 0.8688885 0.4511994
0.7454068 0.8671794 0.4400293
0.7773302 0.8651651 0.4268449
0.8065678 0.8628456 0.4113410
0.8326924 0.8601599 0.3928462
0.8560093 0.8571080 0.3713606
0.8770067 0.8537508 0.3469450
0.8959897 0.8499054 0.3188061
0.9124702 0.8456327 0.2857840
0.5458097 0.9098456 0.5372032
0.5486175 0.9098456 0.5368980
0.5590551 0.9097235 0.5358603
0.5778551 0.9094793 0.5340902
0.6041018 0.9091131 0.5312214
0.6349264 0.9085638 0.5273149
0.6682537 0.9079534 0.5221266
0.7008484 0.9071599 0.5157786
0.7325276 0.9061832 0.5079045
0.7629860 0.9050235 0.4984435
