app/src/main/assets/luts/Contemporary.CUBE
#Created by: Leica Camera AG | Wetzar | Germany
#Unique Leica Look ID: 1
#Based Filmstyle Mode: Standard
TITLE "Leica Contemporary"
#LUT size
LUT_3D_SIZE 9
#data domain
DOMAIN_MIN 0.0 0.0 0.0
DOMAIN_MAX 1.0 1.0 1.0
# 
LUT_3D_SIZE 9
0.0068364 0.0068364 0.0068364
0.0741012 0.0068364 0.0105597
0.2848074 0.0084234 0.0245376
0.4745163 0.0111091 0.0507843
0.6216200 0.0159311 0.0892999
0.7348471 0.0213026 0.1403894
0.8256119 0.0288104 0.2005738
0.9013001 0.0379662 0.2633828
0.9597143 0.0486480 0.3203931
0.0068364 0.0867363 0.0116584
0.0703778 0.0872246 0.0154428
0.2828542 0.0882622 0.0293597
0.4734176 0.0914362 0.0555454
0.6210706 0.0955869 0.0945492
0.7344809 0.1012635 0.1448453
0.8253678 0.1085271 0.2045413
0.9011780 0.1171947 0.2669230
0.9596533 0.1273881 0.3228346
0.0068364 0.3185619 0.0299091
0.0571324 0.3185619 0.0336324
0.2745529 0.3193554 0.0480986
0.4695111 0.3209424 0.0741012
0.6189953 0.3230788 0.1121284
0.7332601 0.3257035 0.1619362
0.8245743 0.3293048 0.2197400
0.9006287 0.3335775 0.2785815
0.9592871 0.3385216 0.3318074
0.0068364 0.5148630 0.0645791
0.0325948 0.5148630 0.0683025
0.2583165 0.5152292 0.0819752
0.4621864 0.5160227 0.1074895
0.6151498 0.5170604 0.1443570
0.7310016 0.5184643 0.1919673
0.8230483 0.5200513 0.2458036
0.8995910 0.5221876 0.2987243
0.9586156 0.5248123 0.3473723
0.0068364 0.6616615 0.1146310
0.0068364 0.6616615 0.1182323
0.2314594 0.6618446 0.1319050
0.4508332 0.6622719 0.1561375
0.6092901 0.6628212 0.1906244
0.7274614 0.6634926 0.2339010
0.8207898 0.6644693 0.2805347
0.8980651 0.6655680 0.3257035
0.9576390 0.6670329 0.3694684
0.0068364 0.7742782 0.1790270
0.0068364 0.7742782 0.1823231
0.1906244 0.7744003 0.1942257
0.4345358 0.7746444 0.2158945
0.6009278 0.7749496 0.2461698
0.7225783 0.7753769 0.2818776
0.8176769 0.7759873 0.3193554
0.8959287 0.7766587 0.3573216
0.9562962 0.7774522 0.3984008
0.0068364 0.8646158 0.2504425
0.0068364 0.8646158 0.2530672
0.1328816 0.8646768 0.2626503
0.4117073 0.8648599 0.2795581
0.5898798 0.8650430 0.3025697
0.7162913 0.8653482 0.3297931
0.8136483 0.8657145 0.3598242
0.8931209 0.8662028 0.3944943
0.9545260 0.8667521 0.4313007
0.0068364 0.9368858 0.3161204
0.0068364 0.9369468 0.3180126
0.0571324 0.9369468 0.3249100
0.3803333 0.9370689 0.3373009
0.5758408 0.9371910 0.3548190
0.7082952 0.9373741 0.3772203
0.8085821 0.9376183 0.4049930
0.8897027 0.9378624 0.4349020
0.9523897 0.9382287 0.4658487
0.0068364 0.9903559 0.3741073
0.0068364 0.9903559 0.3756943
0.0068364 0.9903559 0.3816151
0.3406580 0.9904169 0.3925410
0.5577733 0.9905390 0.4080449
0.6984069 0.9906611 0.4275774
0.8024171 0.9907831 0.4500397
0.8854911 0.9909662 0.4750046
0.9497650 0.9912104 0.5024110
0.0164805 0.0068364 0.0746506
0.0841116 0.0068364 0.0783129
0.2907892 0.0073857 0.0924739
0.4775072 0.0100714 0.1177440
0.6231459 0.0143441 0.1541842
0.7357627 0.0202649 0.2010010
0.8262223 0.0277727 0.2534334
0.9017274 0.0368675 0.3045840
0.9600195 0.0475493 0.3520112
0.0132454 0.0851492 0.0798999
0.0803882 0.0856376 0.0835622
0.2888970 0.0872246 0.0971129
0.4764085 0.0898492 0.1223219
0.6225966 0.0939999 0.1590673
0.7353964 0.0997375 0.2049686
0.8259781 0.1069401 0.2567906
0.9016053 0.1156687 0.3074528
0.9598975 0.1258622 0.3540866
0.0068364 0.3177684 0.0976622
0.0672038 0.3180126 0.1012635
0.2809009 0.3188061 0.1151804
0.4725020 0.3201489 0.1399011
0.6205823 0.3222853 0.1753037
0.7342367 0.3251541 0.2201672
0.8251846 0.3287554 0.2693646
0.9010560 0.3330892 0.3169139
0.9595312 0.3380333 0.3620826
0.0068364 0.5144967 0.1308674
0.0427272 0.5146188 0.1344076
0.2651529 0.5149850 0.1473479
0.4652384 0.5156565 0.1710309
0.6167369 0.5166331 0.2045413
0.7319172 0.5180370 0.2461698
0.8236587 0.5198071 0.2904840
0.9000183 0.5219435 0.3335775
0.9589208 0.5243850 0.3763047
0.0068364 0.6614784 0.1776231
0.0068364 0.6615394 0.1809192
0.2390893 0.6617225 0.1933101
0.4540072 0.6620888 0.2146127
0.6108771 0.6626381 0.2450101
0.7284380 0.6633706 0.2809009
0.8214002 0.6642862 0.3185619
0.8984923 0.6654459 0.3566502
0.9578832 0.6667887 0.3977904
0.0068364 0.7741561 0.2351218
0.0068364 0.7742172 0.2379296
0.1992309 0.7743393 0.2481231
0.4379540 0.7745224 0.2662516
0.6026369 0.7748886 0.2907892
0.7236159 0.7753159 0.3195996
0.8182872 0.7758652 0.3510956
0.8963560 0.7765977 0.3858268
0.9565403 0.7773912 0.4242202
0.0068364 0.8645547 0.2942074
0.0068364 0.8645547 0.2963438
0.1424037 0.8646158 0.3040347
0.4154917 0.8647989 0.3177684
0.5916499 0.8649820 0.3367515
0.7173289 0.8652872 0.3600684
0.8142587 0.8656534 0.3882683
0.8936092 0.8661417 0.4208021
0.9548312 0.8666911 0.4535189
0.0068364 0.9368858 0.3482879
0.0068364 0.9368858 0.3499359
0.0672038 0.9369468 0.3559177
0.3845450 0.9370079 0.3670268
0.5776720 0.9371300 0.3833852
0.7093328 0.9373131 0.4049930
0.8092535 0.9375572 0.4298358
0.8901300 0.9378624 0.4568150
0.9526338 0.9381676 0.4858085
0.0068364 0.9902948 0.4022462
0.0068364 0.9903559 0.4037112
0.0068364 0.9903559 0.4092657
0.3452359 0.9904169 0.4190319
0.5597876 0.9904779 0.4327046
0.6995056 0.9906000 0.4501618
0.8031496 0.9907831 0.4707929
0.8859794 0.9909662 0.4943539
0.9500092 0.9911494 0.5191967
0.0549960 0.0068364 0.2876763
0.1207959 0.0068364 0.2898736
0.3119697 0.0068364 0.2978087
0.4883721 0.0068364 0.3119697
0.6288226 0.0095221 0.3313191
0.7392419 0.0154428 0.3552463
0.8284807 0.0229506 0.3836294
0.9033144 0.0320454 0.4164683
0.9609962 0.0427272 0.4500397
0.0512727 0.0809376 0.2904840
0.1171947 0.0809376 0.2926814
0.3100165 0.0825246 0.3004944
0.4873344 0.0856376 0.3144723
0.6282732 0.0898492 0.3338216
0.7389367 0.0955869 0.3573216
0.8282366 0.1023012 0.3856437
0.9031313 0.1110908 0.4184215
0.9609351 0.1217726 0.4515046
0.0379662 0.3153269 0.3007996
0.1049258 0.3155710 0.3028749
0.3028749 0.3163645 0.3105658
0.4835500 0.3177684 0.3238723
0.6263200 0.3199048 0.3421229
0.7377159 0.3228346 0.3651956
0.8274431 0.3264359 0.3933956
0.9026430 0.3307697 0.4249527
0.9605689 0.3357749 0.4573033
0.0132454 0.5133370 0.3191113
0.0803882 0.5134591 0.3209424
0.2888970 0.5138253 0.3277178
0.4764085 0.5144967 0.3399866
0.6225966 0.5156565 0.3570775
0.7354575 0.5169383 0.3794177
0.8259781 0.5187084 0.4070683
0.9016053 0.5208448 0.4366722
0.9598975 0.5232863 0.4676189
0.0068364 0.6608069 0.3433437
0.0438259 0.6609290 0.3449918
0.2658854 0.6611121 0.3513398
0.4655436 0.6614784 0.3625099
0.6169200 0.6620277 0.3787463
0.7319783 0.6627602 0.4007813
0.8237197 0.6636758 0.4261124
0.9000794 0.6648355 0.4533358
0.9589208 0.6661784 0.4827565
0.0068364 0.7737899 0.3732528
0.0068364 0.7738509 0.3747787
0.2298114 0.7739730 0.3807605
0.4501618 0.7741561 0.3913813
0.6089239 0.7745224 0.4072514
0.7272783 0.7749496 0.4268449
0.8206678 0.7754990 0.4493682
0.8979430 0.7762315 0.4743942
0.9575780 0.7770250 0.5018617
0.0068364 0.8643106 0.4095099
0.0068364 0.8643106 0.4109138
0.1767076 0.8643716 0.4161021
0.4292254 0.8645547 0.4255020
0.5983031 0.8647378 0.4389916
0.7211133 0.8650430 0.4560215
0.8167002 0.8654093 0.4762254
0.8952573 0.8658976 0.4993591
0.9558689 0.8664469 0.5234084
0.0068364 0.9367027 0.4472929
0.0068364 0.9367637 0.4485137
0.1043765 0.9367637 0.4528475
0.4001099 0.9368858 0.4609046
0.5845694 0.9370079 0.4726851
0.7133004 0.9371910 0.4880669
0.8116950 0.9374351 0.5060734
0.8918391 0.9376793 0.5259110
0.9537325 0.9380455 0.5475798
0.0068364 0.9902338 0.4859305
0.0068364 0.9902338 0.4870292
0.0122078 0.9902338 0.4909968
0.3618385 0.9902948 0.4980773
0.5674174 0.9904169 0.5080877
0.7035952 0.9905390 0.5209669
0.8057132 0.9906611 0.5362876
0.8876885 0.9908442 0.5541110
0.9511079 0.9910883 0.5736434
0.1238479 0.0068364 0.4776293
0.1850699 0.0068364 0.4787280
0.3457242 0.0068364 0.4827565
0.5069890 0.0068364 0.4901422
0.6390771 0.0068364 0.5007019
0.7455899 0.0068364 0.5139474
0.8326314 0.0143441 0.5297565
0.9061832 0.0234389 0.5480071
0.9628273 0.0341818 0.5680278
0.1207959 0.0719648 0.4790331
0.1823231 0.0725142 0.4801318
0.3440762 0.0741012 0.4841604
0.5061954 0.0767259 0.4914851
0.6386498 0.0809376 0.5019838
0.7452237 0.0867363 0.5152292
0.8324483 0.0939999 0.5309772
0.9060612 0.1028505 0.5490447
0.9627663 0.1131050 0.5690655
0.1079778 0.3108710 0.4844656
0.1705426 0.3111762 0.4855033
0.3382775 0.3119697 0.4894098
0.5027773 0.3133736 0.4964903
0.6366966 0.3155710 0.5067448
0.7440640 0.3185619 0.5195630
0.8316548 0.3222853 0.5350058
0.9055118 0.3267411 0.5530123
0.9624000 0.3318074 0.5725447
0.0841116 0.5112617 0.4939266
0.1483245 0.5113838 0.4949643
0.3267411 0.5117500 0.4986266
0.4963682 0.5124214 0.5054019
0.6331563 0.5134591 0.5151071
0.7418666 0.5148630 0.5275591
0.8302509 0.5166331 0.5425746
0.9044741 0.5188305 0.5600317
0.9617286 0.5213331 0.5788928
0.0469999 0.6597082 0.5074162
0.1136544 0.6598303 0.5083318
0.3077580 0.6600134 0.5117500
0.4862357 0.6603797 0.5180370
0.6277239 0.6609290 0.5271318
0.7385705 0.6616615 0.5389733
0.8279924 0.6626381 0.5535616
0.9030092 0.6637978 0.5701032
0.9608130 0.6651407 0.5881707
0.0068364 0.7731185 0.5241409
0.0645791 0.7731795 0.5250565
0.2788867 0.7733016 0.5281694
0.4717085 0.7734847 0.5340292
0.6201550 0.7738509 0.5425746
0.7339315 0.7742782 0.5539889
0.8250015 0.7748886 0.5676006
0.9009339 0.7755600 0.5830434
0.9594702 0.7763535 0.6002564
0.0068364 0.8638833 0.5438564
0.0068364 0.8638833 0.5446499
0.2351218 0.8639443 0.5477629
0.4523592 0.8641274 0.5533175
0.6100226 0.8643106 0.5613136
0.7278887 0.8646158 0.5716902
0.8210950 0.8649820 0.5842031
0.8982482 0.8654093 0.5986694
0.9577611 0.8660197 0.6149057
0.0068364 0.9364585 0.5663798
0.0068364 0.9364585 0.5671123
0.1705426 0.9365196 0.5698590
0.4266618 0.9365806 0.5748032
0.5970213 0.9367637 0.5819447
0.7203198 0.9369468 0.5914668
0.8162119 0.9371300 0.6030642
0.8948910 0.9374351 0.6164927
0.9556247 0.9377403 0.6314472
0.0068364 0.9900507 0.5902460
0.0068364 0.9900507 0.5908564
0.0830129 0.9901117 0.5932979
0.3911982 0.9901727 0.5978148
0.5806018 0.9902338 0.6045291
0.7109809 0.9903559 0.6131356
0.8102912 0.9904779 0.6236343
0.8908625 0.9906611 0.6359641
0.9530611 0.9909052 0.6497589
0.2176036 0.0068364 0.6246719
0.2669230 0.0068364 0.6252823
0.3905268 0.0068364 0.6273576
0.5320149 0.0068364 0.6312031
0.6537875 0.0068364 0.6369407
0.7547458 0.0068364 0.6444485
0.8387963 0.0068364 0.6537264
0.9103949 0.0100714 0.6645303
0.9655741 0.0213026 0.6766770
0.2150400 0.0592688 0.6254044
0.2647867 0.0598181 0.6259537
0.3889398 0.0608558 0.6280291
0.5313435 0.0640298 0.6319355
0.6533602 0.0683025 0.6376122
0.7544406 0.0741012 0.6451810
0.8386132 0.0814869 0.6543979
0.9102118 0.0903375 0.6651407
0.9654520 0.1007752 0.6772874
0.2041140 0.3040347 0.6282122
0.2556919 0.3040347 0.6287615
0.3836294 0.3048892 0.6308368
0.5282915 0.3065983 0.6346213
0.6515901 0.3089178 0.6402979
0.7532808 0.3119697 0.6476836
0.8378807 0.3155710 0.6568394
0.9097235 0.3201489 0.6674602
0.9651468 0.3257035 0.6794848
0.1832387 0.5080877 0.6332174
0.2379296 0.5080877 0.6337667
0.3734359 0.5084539 0.6357810
0.5226759 0.5092474 0.6395654
0.6482329 0.5103461 0.6451199
0.7512055 0.5117500 0.6524446
0.8364768 0.5135812 0.6612952
0.9087469 0.5156565 0.6717329
0.9644754 0.5182811 0.6835134
0.1497894 0.6580602 0.6406641
0.2089361 0.6580602 0.6412135
0.3577489 0.6583043 0.6431667
0.5139474 0.6586706 0.6468290
0.6431057 0.6592199 0.6521394
0.7480315 0.6600134 0.6591589
0.8342794 0.6609290 0.6678264
0.9072819 0.6620888 0.6779589
0.9635598 0.6634926 0.6894952
0.1028505 0.7720808 0.6504303
0.1657816 0.7721419 0.6509186
0.3355307 0.7722639 0.6527498
0.5014344 0.7724470 0.6562290
0.6359641 0.7728743 0.6612952
0.7435757 0.7732406 0.6680706
0.8313496 0.7738509 0.6764329
0.9052677 0.7745224 0.6861991
0.9622780 0.7753769 0.6972471
0.0395532 0.8631508 0.6620888
0.1059025 0.8632119 0.6625771
0.3037295 0.8632729 0.6644082
0.4839773 0.8633950 0.6676433
0.6265641 0.8636391 0.6725264
0.7378990 0.8639443 0.6789965
0.8275652 0.8643106 0.6869316
0.9027040 0.8647989 0.6962095
0.9605689 0.8653482 0.7068303
0.0068364 0.9360313 0.6756394
0.0288104 0.9360313 0.6760667
0.2556919 0.9360923 0.6778368
0.4610267 0.9361533 0.6809498
0.6146005 0.9363364 0.6855277
0.7305744 0.9365196 0.6915705
0.8228652 0.9367637 0.6990783
0.8994079 0.9370079 0.7078679
0.9584936 0.9373741 0.7179393
0.0068364 0.9898065 0.6907770
0.0068364 0.9898065 0.6912043
0.1823231 0.9898065 0.6927913
0.4313007 0.9898675 0.6956601
0.5992797 0.9899896 0.6999939
0.7216627 0.9901117 0.7056095
0.8170665 0.9902338 0.7126900
0.8955014 0.9904169 0.7210523
0.9559910 0.9906611 0.7304523
0.3119697 0.0068364 0.7378990
0.3442593 0.0068364 0.7382653
0.4433864 0.0068364 0.7395471
0.5627175 0.0068364 0.7418666
0.6721602 0.0068364 0.7454068
0.7665263 0.0068364 0.7499847
0.8469755 0.0068364 0.7557834
0.9158274 0.0068364 0.7626808
0.9691143 0.0068364 0.7704938
0.3100165 0.0416896 0.7383874
0.3428554 0.0416896 0.7386925
0.4421657 0.0432766 0.7399744
0.5620460 0.0465116 0.7422938
0.6717329 0.0507843 0.7458341
0.7662821 0.0566441 0.7504120
0.8467314 0.0635415 0.7561497
0.9157053 0.0725142 0.7630471
0.9690533 0.0835622 0.7709211
0.3031801 0.2939022 0.7400354
0.3367515 0.2942074 0.7404016
0.4377709 0.2951230 0.7416224
0.5593603 0.2966490 0.7440029
0.6701459 0.2993347 0.7474211
0.7652445 0.3022645 0.7519990
0.8460599 0.3063541 0.7577367
0.9152170 0.3111762 0.7645120
0.9686871 0.3166697 0.7723250
0.2888970 0.5036318 0.7431484
0.3251541 0.5036318 0.7434536
0.4294085 0.5039980 0.7446744
0.5543551 0.5048526 0.7469938
0.6670939 0.5059513 0.7504120
0.7632302 0.5072941 0.7549289
0.8446560 0.5091253 0.7605445
0.9143014 0.5113838 0.7673198
0.9681377 0.5139474 0.7750107
0.2658854 0.6557407 0.7476653
0.3060490 0.6557407 0.7479705
0.4162852 0.6559849 0.7491912
0.5464201 0.6563511 0.7514497
0.6623329 0.6569615 0.7548068
0.7602393 0.6576329 0.7592627
0.8425807 0.6586095 0.7648172
0.9128975 0.6598303 0.7713483
0.9672221 0.6611732 0.7789172
0.2298114 0.7707380 0.7536471
0.2772386 0.7707380 0.7539523
0.3968748 0.7709211 0.7551730
0.5354941 0.7711042 0.7573704
0.6558017 0.7714094 0.7606055
0.7560276 0.7718977 0.7649393
0.8397119 0.7724470 0.7703717
0.9109443 0.7731795 0.7767198
0.9659403 0.7739730 0.7841665
0.1771348 0.8622352 0.7610938
0.2326802 0.8622963 0.7613990
0.3705671 0.8623573 0.7625587
0.5210889 0.8624794 0.7646341
0.6472563 0.8627236 0.7678081
0.7505951 0.8630287 0.7720198
0.8360496 0.8633950 0.7772081
0.9084417 0.8638833 0.7834340
0.9642923 0.8644326 0.7905756
0.1043765 0.9354819 0.7698224
0.1676738 0.9354819 0.7701276
0.3365074 0.9355429 0.7712873
0.5019838 0.9356040 0.7732406
0.6362693 0.9357871 0.7762925
0.7437588 0.9359702 0.7803211
0.8314716 0.9361533 0.7853873
0.9053897 0.9364585 0.7913081
0.9623390 0.9368248 0.7982055
0.0127571 0.9894403 0.7798328
0.0798999 0.9894403 0.7800769
0.2882866 0.9894403 0.7811146
0.4762254 0.9895013 0.7830678
0.6225356 0.9896234 0.7859366
0.7353964 0.9897455 0.7897821
0.8259781 0.9898675 0.7946042
0.9015443 0.9900507 0.8002808
0.9598975 0.9902948 0.8069340
0.3933956 0.0068364 0.8286028
0.4193982 0.0068364 0.8287859
0.4973448 0.0068364 0.8296405
0.5963499 0.0068364 0.8312275
0.6936459 0.0068364 0.8334859
0.7807483 0.0068364 0.8365989
0.8569249 0.0068364 0.8405054
0.9225417 0.0068364 0.8452054
0.9735091 0.0068364 0.8506379
0.3918696 0.0186169 0.8289080
0.4180553 0.0191662 0.8290911
0.4964903 0.0207532 0.8299457
0.5956784 0.0234389 0.8314716
0.6932186 0.0277727 0.8337911
0.7804431 0.0336324 0.8369041
0.8567417 0.0411402 0.8408106
0.9224196 0.0502350 0.8455106
0.9734481 0.0608558 0.8508820
0.3863151 0.2805347 0.8299457
0.4131112 0.2809009 0.8301898
0.4929500 0.2818776 0.8310444
0.5934200 0.2834646 0.8325703
0.6917536 0.2860892 0.8348898
0.7794665 0.2895685 0.8379418
0.8560093 0.2939022 0.8418483
0.9219313 0.2990295 0.8464872
0.9731429 0.3048892 0.8519197
0.3761216 0.4976500 0.8320210
0.4037112 0.4977721 0.8322652
0.4861137 0.4981994 0.8330587
0.5890862 0.4989318 0.8345846
0.6890069 0.5000305 0.8368431
0.7776354 0.5015565 0.8399561
0.8547275 0.5035097 0.8438015
0.9210767 0.5057682 0.8483794
0.9725325 0.5084539 0.8537508
0.3607398 0.6526888 0.8350119
0.3887566 0.6527498 0.8352561
0.4754929 0.6529940 0.8361106
0.5825551 0.6533602 0.8375755
0.6847342 0.6539095 0.8398340
0.7747665 0.6547030 0.8428859
0.8527132 0.6556797 0.8466703
0.9197339 0.6569004 0.8512482
0.9716780 0.6583043 0.8565586
0.3387658 0.7689678 0.8391015
0.3678813 0.7690289 0.8392846
0.4605384 0.7691509 0.8400781
0.5733382 0.7693341 0.8415431
0.6788744 0.7697003 0.8438015
0.7709211 0.7701276 0.8467924
0.8500275 0.7707380 0.8505158
0.9179027 0.7714094 0.8550327
0.9704572 0.7722639 0.8602210
0.3072087 0.8610755 0.8441067
0.3404138 0.8610755 0.8443509
0.4403955 0.8611976 0.8451444
0.5608863 0.8613197 0.8466093
0.6710615 0.8615638 0.8487457
0.7658548 0.8618690 0.8516755
0.8464872 0.8622352 0.8553378
0.9155222 0.8627236 0.8597326
0.9689312 0.8632729 0.8647989
0.2601477 0.9347494 0.8501495
0.3014100 0.9347494 0.8503937
0.4131112 0.9348105 0.8511262
0.5445889 0.9349326 0.8525301
0.6612342 0.9350546 0.8546664
0.7595068 0.9352377 0.8575352
0.8420924 0.9354819 0.8610755
0.9125313 0.9357871 0.8653482
0.9669780 0.9360923 0.8702924
0.1878777 0.9889520 0.8571080
0.2418971 0.9889520 0.8573521
0.3756943 0.9890130 0.8580846
0.5238967 0.9890740 0.8594885
0.6489654 0.9891351 0.8615028
0.7516938 0.9892572 0.8642495
0.8367820 0.9894403 0.8677287
0.9089910 0.9896234 0.8718183
0.9646585 0.9898065 0.8766404
0.4701215 0.0068364 0.9042300
0.4895318 0.0068364 0.9043521
0.5497162 0.0068364 0.9049625
0.6319355 0.0068364 0.9060001
0.7173289 0.0068364 0.9075871
0.7968626 0.0068364 0.9096625
0.8685222 0.0068364 0.9122871
0.9302326 0.0068364 0.9154001
0.9786974 0.0068364 0.9190624
0.4690228 0.0068364 0.9044131
0.4884942 0.0068364 0.9045962
0.5489227 0.0068364 0.9051456
0.6313862 0.0068364 0.9061832
0.7169627 0.0068364 0.9077703
0.7966184 0.0068364 0.9098456
0.8683391 0.0137948 0.9124702
0.9301105 0.0224013 0.9155832
0.9786364 0.0336324 0.9192456
0.4650552 0.2630165 0.9051456
0.4848929 0.2630165 0.9053287
0.5460538 0.2641152 0.9058780
0.6294940 0.2658854 0.9069157
0.7156809 0.2690594 0.9085027
0.7957029 0.2724776 0.9105780
0.8676677 0.2772386 0.9131417
0.9296832 0.2828542 0.9163157
0.9783312 0.2892633 0.9199170
0.4576695 0.4902643 0.9065495
0.4778124 0.4902643 0.9066715
0.5407435 0.4907526 0.9072209
0.6257706 0.4916072 0.9082586
0.7131173 0.4927669 0.9098456
0.7939938 0.4942318 0.9118599
0.8663859 0.4962461 0.9144845
0.9288897 0.4986266 0.9175975
0.9777818 0.5015565 0.9211378
0.4461332 0.6490264 0.9086248
0.4668254 0.6490264 0.9087469
0.5326253 0.6492706 0.9092962
0.6201550 0.6496979 0.9103339
0.7093328 0.6502472 0.9117988
0.7914301 0.6509797 0.9138741
0.8645547 0.6520173 0.9163767
0.9276079 0.6531771 0.9194287
0.9769273 0.6546420 0.9229689
0.4294085 0.7667704 0.9113105
0.4515046 0.7668315 0.9114936
0.5212110 0.7669535 0.9119819
0.6122810 0.7671367 0.9130196
0.7040225 0.7675029 0.9144845
0.7878288 0.7679302 0.9164988
0.8619300 0.7685406 0.9190014
0.9258988 0.7692730 0.9219923
0.9757676 0.7701276 0.9254105
0.4062138 0.8596716 0.9147287
0.4307514 0.8596716 0.9148508
0.5056461 0.8597326 0.9154001
0.6018434 0.8599158 0.9163767
0.6971861 0.8600989 0.9177806
0.7831289 0.8604041 0.9197339
0.8586339 0.8608313 0.9221754
0.9236404 0.8612586 0.9251053
0.9743026 0.8618690 0.9284624
0.3741073 0.9338949 0.9187572
0.4020631 0.9338949 0.9188793
0.4847708 0.9339559 0.9194287
0.5882317 0.9340170 0.9203443
0.6884575 0.9341390 0.9217482
0.7772691 0.9343222 0.9236404
0.8544833 0.9345663 0.9260209
0.9208936 0.9348715 0.9288287
0.9724715 0.9352377 0.9321248
0.3340658 0.9884026 0.9233962
0.3636697 0.9884026 0.9235183
0.4573033 0.9884026 0.9240066
0.5713850 0.9884637 0.9249222
0.6776537 0.9885857 0.9263261
0.7701276 0.9887078 0.9280962
0.8494171 0.9888299 0.9303546
0.9175365 0.9890130 0.9331014
0.9702130 0.9892572 0.9362754
0.5379357 0.0068364 0.9622169
0.5524629 0.0068364 0.9622780
0.5997681 0.0068364 0.9626442
0.6680095 0.0068364 0.9633767
0.7424770 0.0068364 0.9643533
0.8145639 0.0068364 0.9656961
0.8814625 0.0068364 0.9674052
0.9387780 0.0068364 0.9694195
0.9845572 0.0068364 0.9718000
0.5372642 0.0068364 0.9623390
0.5517915 0.0068364 0.9624000
0.5990966 0.0068364 0.9627663
0.6675823 0.0068364 0.9634987
0.7422328 0.0068364 0.9644754
0.8143197 0.0068364 0.9658182
0.8812794 0.0068364 0.9675273
0.9386559 0.0068364 0.9695416
0.9844961 0.0068364 0.9719221
0.5342733 0.2395166 0.9628273
0.5489227 0.2398828 0.9628884
0.5968992 0.2411036 0.9632546
0.6659342 0.2430568 0.9639260
0.7410120 0.2461698 0.9649637
0.8134652 0.2504425 0.9663065
0.8806690 0.2556919 0.9679546
0.9382287 0.2619178 0.9700299
0.9841909 0.2690594 0.9723494
0.5287798 0.4809253 0.9636819
0.5436123 0.4810474 0.9638039
0.5925655 0.4815357 0.9641702
0.6628212 0.4822682 0.9648416
0.7388146 0.4835500 0.9658182
0.8118782 0.4851981 0.9671611
0.8795092 0.4873344 0.9688091
0.9374962 0.4898370 0.9708234
0.9837026 0.4927669 0.9732039
0.5201733 0.6444485 0.9650247
0.5356162 0.6445096 0.9650858
0.5860953 0.6447537 0.9654520
0.6580602 0.6451199 0.9661234
0.7353964 0.6457303 0.9671000
0.8094976 0.6465238 0.9683819
0.8777391 0.6475615 0.9700909
0.9363364 0.6487823 0.9721052
0.9829091 0.6502472 0.9744247
0.5080877 0.7641458 0.9667948
0.5242630 0.7642068 0.9668559
0.5770005 0.7643289 0.9672221
0.6514069 0.7645120 0.9678325
0.7307575 0.7648782 0.9688091
0.8062016 0.7653665 0.9701520
0.8753586 0.7659769 0.9717390
0.9347494 0.7666484 0.9737533
0.9818104 0.7675029 0.9760117
0.4914851 0.8579015 0.9689922
0.5090032 0.8579015 0.9690533
0.5649149 0.8580236 0.9694195
0.6425563 0.8581456 0.9700299
0.7245926 0.8583898 0.9710065
0.8019288 0.8586950 0.9722883
0.8721846 0.8590612 0.9738754
0.9326741 0.8595495 0.9758286
0.9803455 0.8600989 0.9780870
0.4690228 0.9327962 0.9716169
0.4884942 0.9328572 0.9717390
0.5488006 0.9328572 0.9720442
0.6313862 0.9329793 0.9726546
0.7169627 0.9331014 0.9735702
0.7966184 0.9332845 0.9748520
0.8683391 0.9335287 0.9764390
0.9301105 0.9338339 0.9783312
0.9786364 0.9342001 0.9805286
0.4402124 0.9877312 0.9746689
0.4613929 0.9877312 0.9747909
0.5285357 0.9877312 0.9750961
0.6173473 0.9877922 0.9757065
0.7074406 0.9879143 0.9766221
0.7900873 0.9880364 0.9778429
0.8635781 0.9881585 0.9793689
0.9269975 0.9883416 0.9812000
0.9765000 0.9885857 0.9833364
