app/src/main/assets/luts/Contemporary.CUBE
#Created by: Leica Camera AG | Wetzar | Germany
#Unique Leica Look ID: 1
#Based Filmstyle Mode: Standard
TITLE "Leica Contemporary"
#LUT size
LUT_3D_SIZE 17
#data domain
DOMAIN_MIN 0.0 0.0 0.0
DOMAIN_MAX 1.0 1.0 1.0
# 
LUT_3D_SIZE 17
0.0068364 0.0068364 0.0068364
0.0202649 0.0068364 0.0073857
0.0741012 0.0068364 0.0105597
0.1696271 0.0073857 0.0159311
0.2848074 0.0084234 0.0245376
0.3829579 0.0095221 0.0357688
0.4745163 0.0111091 0.0507843
0.5533175 0.0132454 0.0683025
0.6216200 0.0159311 0.0892999
0.6816212 0.0186169 0.1136544
0.7348471 0.0213026 0.1403894
0.7826405 0.0250870 0.1696271
0.8256119 0.0288104 0.2005738
0.8652261 0.0331441 0.2322529
0.9013001 0.0379662 0.2633828
0.9327352 0.0432766 0.2929866
0.9597143 0.0486480 0.3203931
0.0068364 0.0229506 0.0073857
0.0197156 0.0229506 0.0084234
0.0730635 0.0234389 0.0111091
0.1691387 0.0239883 0.0170298
0.2844412 0.0250870 0.0256363
0.3827748 0.0261246 0.0368675
0.4742111 0.0277727 0.0518220
0.5532564 0.0299091 0.0693402
0.6214369 0.0320454 0.0903375
0.6814991 0.0347311 0.1146310
0.7347861 0.0379662 0.1413660
0.7825185 0.0411402 0.1705426
0.8255509 0.0454129 0.2014283
0.8652261 0.0496856 0.2330465
0.9013001 0.0545077 0.2641152
0.9326741 0.0592688 0.2935970
0.9597143 0.0651285 0.3209424
0.0068364 0.0867363 0.0116584
0.0164805 0.0867363 0.0122078
0.0703778 0.0872246 0.0154428
0.1662699 0.0877739 0.0207532
0.2828542 0.0882622 0.0293597
0.3814320 0.0898492 0.0411402
0.4734176 0.0914362 0.0555454
0.5526460 0.0929622 0.0735519
0.6210706 0.0955869 0.0945492
0.6811939 0.0981505 0.1182323
0.7344809 0.1012635 0.1448453
0.7823353 0.1043765 0.1738387
0.8253678 0.1085271 0.2045413
0.8651041 0.1126167 0.2359153
0.9011780 0.1171947 0.2669230
0.9326131 0.1217726 0.2957334
0.9596533 0.1273881 0.3228346
0.0068364 0.1973997 0.0186169
0.0116584 0.1973997 0.0197156
0.0651285 0.1978270 0.0224013
0.1614478 0.1983153 0.0283220
0.2795581 0.1987426 0.0368675
0.3794177 0.2000855 0.0480986
0.4718916 0.2014283 0.0629921
0.5515473 0.2027712 0.0803882
0.6202161 0.2049686 0.1012635
0.6805835 0.2072270 0.1253739
0.7340536 0.2098517 0.1517427
0.7819081 0.2124153 0.1804309
0.8250626 0.2158945 0.2107062
0.8647989 0.2193127 0.2414698
0.9009339 0.2230971 0.2714399
0.9324300 0.2268815 0.2999451
0.9594702 0.2314594 0.3264359
0.0068364 0.3185619 0.0299091
0.0068364 0.3185619 0.0309467
0.0571324 0.3185619 0.0336324
0.1541842 0.3188061 0.0395532
0.2745529 0.3193554 0.0480986
0.3761216 0.3201489 0.0592688
0.4695111 0.3209424 0.0741012
0.5498382 0.3217359 0.0914362
0.6189953 0.3230788 0.1121284
0.6796069 0.3243606 0.1359336
0.7332601 0.3257035 0.1619362
0.7813587 0.3274736 0.1901361
0.8245743 0.3293048 0.2197400
0.8643716 0.3313191 0.2496490
0.9006287 0.3335775 0.2785815
0.9321858 0.3360190 0.3060490
0.9592871 0.3385216 0.3318074
0.0068364 0.4223280 0.0454129
0.0068364 0.4223280 0.0459623
0.0465116 0.4225111 0.0491363
0.1443570 0.4226943 0.0545077
0.2676555 0.4230605 0.0629921
0.3714826 0.4234267 0.0741012
0.4663371 0.4240371 0.0888116
0.5475798 0.4247696 0.1059025
0.6173473 0.4255020 0.1263505
0.6783251 0.4264787 0.1497894
0.7322224 0.4275774 0.1753037
0.7805652 0.4286761 0.2027712
0.8239028 0.4302020 0.2314594
0.8638833 0.4316670 0.2601477
0.9002014 0.4332540 0.2876763
0.9318196 0.4349020 0.3139230
0.9589819 0.4368553 0.3387658
0.0068364 0.5148630 0.0645791
0.0068364 0.5148630 0.0651285
0.0325948 0.5148630 0.0683025
0.1314167 0.5151071 0.0735519
0.2583165 0.5152292 0.0819752
0.3658671 0.5156565 0.0929622
0.4621864 0.5160227 0.1074895
0.5445889 0.5163889 0.1248245
0.6151498 0.5170604 0.1443570
0.6766770 0.5176708 0.1672465
0.7310016 0.5184643 0.1919673
0.7794665 0.5191967 0.2184582
0.8230483 0.5200513 0.2458036
0.8631508 0.5210889 0.2728438
0.8995910 0.5221876 0.2987243
0.9313923 0.5234084 0.3235671
0.9586156 0.5248123 0.3473723
0.0068364 0.5932979 0.0877739
0.0068364 0.5934200 0.0882622
0.0159311 0.5934200 0.0914362
0.1156687 0.5934810 0.0966246
0.2461698 0.5936642 0.1049258
0.3586645 0.5938473 0.1162180
0.4571202 0.5941525 0.1298907
0.5408655 0.5945187 0.1467985
0.6124641 0.5948849 0.1662699
0.6746017 0.5954343 0.1878777
0.7293536 0.5958616 0.2115608
0.7781847 0.5965330 0.2367088
0.8220106 0.5972044 0.2622841
0.8622352 0.5979369 0.2873711
0.8989196 0.5987304 0.3117256
0.9307819 0.5996460 0.3347983
0.9581884 0.6005616 0.3575658
0.0068364 0.6616615 0.1146310
0.0068364 0.6616615 0.1156687
0.0068364 0.6616615 0.1182323
0.0960752 0.6617225 0.1238479
0.2314594 0.6618446 0.1319050
0.3499359 0.6620888 0.1424037
0.4508332 0.6622719 0.1561375
0.5365318 0.6624550 0.1719465
0.6092901 0.6628212 0.1906244
0.6721602 0.6631875 0.2115608
0.7274614 0.6634926 0.2339010
0.7767198 0.6639810 0.2572178
0.8207898 0.6644693 0.2805347
0.8612586 0.6650186 0.3034243
0.8980651 0.6655680 0.3257035
0.9301105 0.6662394 0.3476164
0.9576390 0.6670329 0.3694684
0.0068364 0.7213575 0.1453336
0.0068364 0.7213575 0.1463102
0.0068364 0.7214185 0.1488128
0.0730635 0.7214796 0.1541842
0.2128426 0.7214796 0.1619362
0.3394983 0.7216627 0.1719465
0.4433864 0.7218458 0.1850699
0.5313435 0.7219679 0.2000855
0.6053836 0.7222120 0.2176036
0.6692913 0.7225172 0.2371361
0.7252030 0.7228224 0.2575841
0.7748886 0.7231276 0.2785815
0.8193249 0.7235549 0.2996399
0.8599768 0.7239211 0.3203931
0.8970274 0.7244094 0.3409022
0.9293780 0.7248978 0.3616554
0.9570286 0.7254471 0.3829579
0.0068364 0.7742782 0.1790270
0.0068364 0.7742782 0.1799426
0.0068364 0.7742782 0.1823231
0.0465116 0.7743393 0.1873894
0.1906244 0.7744003 0.1942257
0.3269853 0.7745224 0.2041140
0.4345358 0.7746444 0.2158945
0.5253006 0.7747665 0.2301776
0.6009278 0.7749496 0.2461698
0.6659342 0.7751328 0.2637490
0.7225783 0.7753769 0.2818776
0.7728743 0.7756821 0.3004944
0.8176769 0.7759873 0.3193554
0.8586339 0.7762925 0.3382775
0.8959287 0.7766587 0.3573216
0.9284624 0.7770860 0.3772203
0.9562962 0.7774522 0.3984008
0.0068364 0.8214613 0.2146127
0.0068364 0.8215223 0.2150400
0.0068364 0.8215223 0.2176036
0.0164805 0.8215223 0.2218763
0.1638894 0.8215833 0.2285296
0.3119697 0.8216444 0.2375023
0.4242202 0.8217665 0.2481231
0.5181591 0.8218885 0.2608802
0.5956784 0.8220717 0.2748581
0.6620888 0.8221937 0.2898736
0.7196484 0.8223769 0.3060490
0.7704938 0.8226210 0.3225295
0.8157847 0.8228652 0.3394983
0.8569859 0.8231093 0.3568333
0.8945859 0.8234145 0.3750229
0.9274248 0.8237197 0.3944943
0.9554416 0.8240249 0.4145150
0.0068364 0.8646158 0.2504425
0.0068364 0.8646158 0.2508088
0.0068364 0.8646158 0.2530672
0.0068364 0.8646768 0.2567906
0.1328816 0.8646768 0.2626503
0.2935970 0.8647378 0.2704022
0.4117073 0.8648599 0.2795581
0.5100409 0.8649210 0.2904840
0.5898798 0.8650430 0.3025697
0.6576940 0.8651651 0.3155710
0.7162913 0.8653482 0.3297931
0.7678081 0.8655313 0.3445034
0.8136483 0.8657145 0.3598242
0.8552158 0.8659586 0.3765489
0.8931209 0.8662028 0.3944943
0.9262650 0.8664469 0.4129280
0.9545260 0.8667521 0.4313007
0.0068364 0.9034975 0.2844412
0.0068364 0.9034975 0.2851126
0.0068364 0.9034975 0.2866996
0.0068364 0.9035586 0.2901788
0.0971129 0.9036196 0.2951230
0.2707685 0.9036196 0.3014100
0.3973021 0.9036806 0.3094671
0.5005799 0.9038027 0.3185619
0.5832876 0.9038638 0.3289996
0.6528719 0.9039858 0.3406580
0.7125069 0.9041079 0.3531710
0.7648782 0.9042910 0.3667826
0.8112678 0.9044131 0.3816151
0.8532015 0.9045962 0.3979735
0.8915339 0.9047793 0.4146982
0.9249832 0.9050235 0.4316670
0.9534884 0.9052066 0.4485137
0.0068364 0.9368858 0.3161204
0.0068364 0.9368858 0.3163645
0.0068364 0.9369468 0.3180126
0.0068364 0.9369468 0.3206983
0.0571324 0.9369468 0.3249100
0.2426906 0.9370079 0.3305255
0.3803333 0.9370689 0.3373009
0.4897149 0.9371300 0.3454801
0.5758408 0.9371910 0.3548190
0.6472563 0.9372520 0.3651956
0.7082952 0.9373741 0.3772203
0.7615211 0.9374962 0.3905268
0.8085821 0.9376183 0.4049930
0.8510041 0.9377403 0.4198254
0.8897027 0.9378624 0.4349020
0.9235793 0.9380455 0.4501618
0.9523897 0.9382287 0.4658487
0.0068364 0.9654520 0.3454801
0.0068364 0.9654520 0.3459684
0.0068364 0.9655130 0.3471281
0.0068364 0.9655130 0.3496918
0.0122078 0.9655130 0.3534151
0.2076543 0.9655741 0.3582372
0.3618385 0.9655741 0.3645242
0.4770189 0.9656351 0.3719099
0.5674174 0.9656961 0.3807605
0.6410914 0.9657572 0.3911982
0.7035952 0.9658182 0.4026735
0.7578588 0.9659403 0.4149423
0.8057132 0.9660624 0.4277605
0.8485625 0.9661234 0.4411280
0.8876885 0.9662455 0.4548617
0.9219923 0.9663676 0.4692059
0.9511079 0.9665507 0.4841604
0.0068364 0.9903559 0.3741073
0.0068364 0.9903559 0.3745346
0.0068364 0.9903559 0.3756943
0.0068364 0.9903559 0.3780748
0.0068364 0.9903559 0.3816151
0.1662699 0.9904169 0.3863151
0.3406580 0.9904169 0.3925410
0.4626747 0.9904779 0.3996826
0.5577733 0.9905390 0.4080449
0.6340719 0.9906000 0.4175060
0.6984069 0.9906611 0.4275774
0.7537692 0.9907221 0.4384423
0.8024171 0.9907831 0.4500397
0.8458768 0.9909052 0.4621864
0.8854911 0.9909662 0.4750046
0.9202832 0.9910883 0.4886773
0.9497650 0.9912104 0.5024110
0.0084234 0.0068364 0.0202649
0.0224013 0.0068364 0.0213026
0.0761765 0.0068364 0.0239883
0.1715193 0.0073857 0.0299091
0.2860892 0.0084234 0.0384545
0.3838735 0.0095221 0.0496856
0.4751877 0.0111091 0.0645791
0.5538058 0.0132454 0.0819752
0.6218641 0.0154428 0.1028505
0.6818043 0.0181285 0.1268388
0.7350302 0.0213026 0.1532076
0.7827016 0.0250870 0.1818348
0.8256730 0.0288104 0.2119880
0.8653482 0.0331441 0.2426906
0.9014222 0.0379662 0.2724776
0.9327962 0.0427272 0.3007996
0.9597754 0.0486480 0.3272294
0.0078740 0.0224013 0.0213026
0.0218519 0.0229506 0.0224013
0.0751389 0.0229506 0.0250870
0.1705426 0.0234389 0.0309467
0.2857230 0.0245376 0.0395532
0.3836294 0.0256363 0.0507843
0.4748215 0.0272233 0.0656168
0.5536837 0.0293597 0.0830129
0.6218031 0.0314961 0.1038882
0.6817433 0.0347311 0.1278765
0.7349692 0.0374168 0.1541842
0.7827016 0.0411402 0.1827504
0.8256730 0.0448636 0.2128426
0.8653482 0.0491363 0.2434841
0.9013612 0.0539584 0.2732100
0.9327352 0.0592688 0.3014100
0.9597754 0.0645791 0.3277178
0.0068364 0.0861869 0.0256363
0.0186169 0.0861869 0.0261246
0.0725142 0.0867363 0.0293597
0.1681621 0.0872246 0.0347311
0.2841360 0.0882622 0.0432766
0.3822865 0.0892999 0.0545077
0.4740890 0.0908869 0.0693402
0.5531343 0.0929622 0.0872246
0.6213758 0.0950375 0.1074895
0.6814381 0.0976622 0.1314167
0.7346640 0.1007752 0.1576024
0.7825185 0.1043765 0.1859855
0.8254898 0.1079778 0.2158945
0.8651651 0.1121284 0.2461698
0.9012391 0.1167063 0.2755906
0.9326741 0.1217726 0.3034243
0.9597143 0.1268388 0.3295489
0.0068364 0.1969725 0.0325948
0.0132454 0.1969725 0.0336324
0.0672038 0.1973997 0.0363181
0.1634011 0.1978270 0.0422389
0.2809009 0.1987426 0.0507843
0.3800891 0.1996582 0.0619545
0.4725020 0.2010010 0.0767259
0.5519746 0.2027712 0.0939999
0.6205823 0.2045413 0.1146310
0.6808277 0.2067387 0.1383751
0.7341757 0.2093634 0.1643167
0.7820912 0.2124153 0.1924556
0.8251846 0.2154673 0.2218763
0.8649210 0.2188854 0.2515412
0.9010560 0.2227309 0.2802295
0.9324910 0.2268815 0.3074528
0.9595312 0.2310322 0.3330892
0.0068364 0.3182567 0.0438259
0.0068364 0.3182567 0.0448636
0.0592688 0.3185619 0.0475493
0.1561375 0.3188061 0.0534090
0.2758957 0.3193554 0.0619545
0.3767930 0.3199048 0.0730635
0.4701215 0.3206983 0.0877739
0.5503266 0.3217359 0.1049258
0.6193005 0.3228346 0.1253739
0.6798511 0.3241165 0.1488128
0.7334432 0.3257035 0.1743270
0.7814808 0.3274736 0.2018556
0.8246963 0.3293048 0.2306049
0.8644937 0.3313191 0.2594152
0.9006897 0.3335775 0.2870048
0.9322468 0.3360190 0.3133736
0.9593481 0.3385216 0.3382775
0.0068364 0.4221449 0.0587194
0.0068364 0.4223280 0.0598181
0.0486480 0.4223280 0.0624428
0.1463102 0.4225111 0.0683025
0.2690594 0.4228774 0.0767259
0.3723372 0.4232436 0.0877739
0.4670085 0.4238540 0.1023012
0.5480071 0.4245865 0.1192700
0.6176524 0.4253189 0.1394128
0.6785692 0.4264787 0.1624245
0.7324666 0.4273942 0.1873894
0.7806873 0.4286761 0.2141854
0.8240249 0.4300189 0.2418971
0.8639443 0.4314839 0.2693646
0.9002625 0.4330709 0.2957334
0.9318806 0.4349020 0.3209424
0.9590429 0.4366722 0.3449918
0.0068364 0.5147409 0.0783129
0.0068364 0.5147409 0.0788622
0.0347311 0.5148630 0.0819752
0.1334310 0.5149850 0.0872246
0.2597815 0.5152292 0.0955869
0.3665385 0.5155344 0.1064518
0.4627968 0.5159006 0.1207959
0.5450162 0.5163889 0.1373985
0.6155161 0.5169383 0.1571141
0.6769212 0.5175487 0.1795154
0.7311237 0.5182811 0.2036867
0.7796496 0.5191967 0.2293841
0.8231704 0.5200513 0.2556919
0.8632729 0.5210889 0.2815113
0.8997131 0.5221876 0.3063541
0.9313923 0.5234084 0.3302814
0.9586767 0.5246292 0.3534151
0.0068364 0.5932979 0.1012635
0.0068364 0.5932979 0.1018129
0.0175792 0.5934200 0.1049258
0.1177440 0.5934810 0.1100531
0.2477568 0.5936642 0.1182323
0.3595801 0.5938473 0.1294024
0.4576695 0.5941525 0.1428920
0.5412928 0.5945187 0.1594946
0.6127693 0.5948849 0.1785998
0.6748459 0.5953122 0.1996582
0.7295978 0.5958616 0.2227309
0.7783678 0.5964109 0.2469633
0.8221327 0.5972044 0.2714399
0.8623573 0.5979369 0.2954282
0.8989807 0.5987304 0.3188061
0.9308429 0.5995849 0.3411463
0.9582494 0.6005616 0.3634255
0.0068364 0.6616004 0.1278765
0.0068364 0.6616004 0.1288531
0.0068364 0.6616615 0.1314167
0.0981505 0.6617225 0.1369102
0.2326802 0.6618446 0.1443570
0.3508515 0.6620277 0.1551608
0.4515046 0.6622108 0.1681621
0.5368980 0.6624550 0.1841543
0.6095953 0.6627602 0.2023439
0.6724043 0.6630654 0.2227309
0.7276445 0.6634926 0.2442776
0.7768418 0.6639810 0.2665568
0.8209119 0.6644693 0.2888970
0.8613197 0.6650186 0.3108710
0.8981261 0.6655680 0.3322957
0.9301715 0.6662394 0.3536593
0.9577001 0.6669108 0.3752060
0.0068364 0.7212965 0.1580907
0.0068364 0.7212965 0.1590673
0.0068364 0.7213575 0.1614478
0.0751389 0.7214185 0.1667582
0.2146127 0.7214796 0.1743270
0.3404138 0.7216017 0.1841543
0.4440579 0.7217848 0.1969725
0.5317707 0.7219679 0.2115608
0.6057499 0.7222120 0.2285296
0.6695355 0.7224562 0.2473295
0.7253861 0.7227614 0.2669230
0.7750717 0.7231276 0.2870048
0.8195080 0.7234939 0.3072087
0.8600989 0.7239211 0.3272294
0.8971495 0.7243484 0.3471281
0.9294391 0.7248978 0.3674541
0.9570286 0.7253861 0.3887566
0.0068364 0.7742782 0.1910517
0.0068364 0.7742782 0.1915400
0.0068364 0.7742782 0.1942257
0.0486480 0.7743393 0.1992309
0.1924556 0.7744003 0.2058841
0.3280230 0.7745224 0.2154673
0.4352683 0.7746444 0.2268815
0.5257889 0.7747665 0.2406763
0.6012940 0.7749496 0.2560581
0.6661784 0.7751328 0.2724776
0.7228224 0.7753769 0.2901788
0.7729964 0.7756211 0.3080632
0.8177989 0.7759873 0.3261918
0.8586950 0.7762925 0.3445034
0.8959897 0.7766587 0.3631813
0.9285235 0.7770250 0.3829579
0.9563572 0.7774522 0.4039553
0.0068364 0.8214613 0.2256607
0.0068364 0.8214613 0.2260270
0.0068364 0.8215223 0.2285296
0.0186169 0.8215223 0.2326802
0.1657816 0.8215833 0.2390893
0.3130684 0.8216444 0.2477568
0.4247696 0.8217665 0.2579503
0.5187084 0.8218885 0.2700971
0.5960447 0.8220106 0.2834646
0.6623329 0.8221937 0.2978087
0.7198926 0.8223769 0.3130684
0.7706159 0.8226210 0.3289996
0.8159067 0.8228652 0.3454801
0.8571080 0.8231093 0.3627541
0.8947079 0.8234145 0.3807605
0.9274858 0.8236587 0.4001099
0.9555027 0.8240249 0.4196423
0.0068364 0.8645547 0.2601477
0.0068364 0.8646158 0.2605139
0.0068364 0.8646158 0.2626503
0.0068364 0.8646158 0.2662516
0.1348959 0.8646768 0.2718061
0.2948178 0.8647378 0.2792529
0.4125008 0.8647989 0.2879814
0.5105902 0.8649210 0.2984191
0.5902460 0.8650430 0.3100165
0.6579991 0.8651651 0.3225295
0.7165354 0.8653482 0.3360190
0.7679912 0.8655313 0.3504242
0.8137704 0.8657145 0.3656839
0.8553378 0.8659586 0.3821034
0.8932430 0.8662028 0.4001099
0.9263871 0.8664469 0.4180553
0.9545871 0.8666911 0.4360007
0.0068364 0.9034975 0.2926814
0.0068364 0.9034975 0.2932918
0.0068364 0.9034975 0.2948178
0.0068364 0.9035586 0.2981139
0.0991882 0.9036196 0.3025697
0.2721724 0.9036196 0.3089178
0.3982177 0.9036806 0.3163645
0.5011292 0.9038027 0.3253983
0.5837148 0.9038638 0.3355307
0.6530550 0.9039858 0.3468840
0.7127510 0.9041079 0.3591528
0.7650003 0.9042300 0.3725813
0.8113899 0.9044131 0.3874138
0.8533236 0.9045962 0.4035280
0.8915949 0.9047793 0.4198254
0.9250443 0.9049625 0.4363059
0.9535494 0.9052066 0.4528475
0.0068364 0.9368858 0.3230788
0.0068364 0.9368858 0.3233230
0.0068364 0.9369468 0.3249100
0.0068364 0.9369468 0.3274736
0.0592688 0.9369468 0.3315632
0.2438503 0.9370079 0.3370567
0.3811878 0.9370689 0.3435879
0.4902643 0.9371300 0.3515840
0.5762070 0.9371910 0.3607398
0.6475615 0.9372520 0.3709943
0.7084783 0.9373741 0.3827748
0.7617042 0.9374962 0.3960203
0.8087652 0.9376183 0.4101202
0.8511262 0.9377403 0.4245865
0.8897638 0.9378624 0.4395410
0.9236404 0.9380455 0.4544955
0.9523897 0.9382287 0.4699994
0.0068364 0.9654520 0.3515840
0.0068364 0.9654520 0.3520112
0.0068364 0.9654520 0.3531710
0.0068364 0.9655130 0.3557346
0.0143441 0.9655130 0.3593359
0.2093634 0.9655130 0.3640969
0.3627541 0.9655741 0.3703229
0.4775072 0.9656351 0.3776476
0.5678447 0.9656961 0.3864982
0.6413355 0.9657572 0.3968748
0.7037783 0.9658182 0.4080449
0.7580419 0.9659403 0.4200085
0.8058353 0.9660013 0.4325215
0.8486236 0.9661234 0.4455838
0.8878105 0.9662455 0.4591345
0.9220533 0.9663676 0.4732955
0.9511689 0.9664897 0.4880669
0.0068364 0.9903559 0.3798450
0.0068364 0.9903559 0.3803333
0.0068364 0.9903559 0.3814320
0.0068364 0.9903559 0.3838735
0.0068364 0.9903559 0.3874138
0.1681621 0.9904169 0.3920527
0.3416346 0.9904169 0.3982177
0.4632851 0.9904779 0.4051761
0.5582006 0.9905390 0.4133553
0.6343771 0.9906000 0.4225111
0.6986510 0.9906611 0.4323384
0.7539523 0.9907221 0.4430202
0.8026003 0.9907831 0.4543734
0.8459989 0.9909052 0.4663371
0.8856131 0.9909662 0.4790331
0.9203443 0.9910883 0.4924617
0.9498260 0.9912104 0.5059513
0.0164805 0.0068364 0.0746506
0.0304584 0.0068364 0.0756882
0.0841116 0.0068364 0.0783129
0.1785998 0.0068364 0.0841116
0.2907892 0.0073857 0.0924739
0.3871696 0.0084234 0.1033388
0.4775072 0.0100714 0.1177440
0.5554538 0.0122078 0.1344076
0.6231459 0.0143441 0.1541842
0.6828420 0.0170298 0.1767076
0.7357627 0.0202649 0.2010010
0.7833730 0.0239883 0.2268815
0.8262223 0.0277727 0.2534334
0.8657755 0.0320454 0.2795581
0.9017274 0.0368675 0.3045840
0.9330403 0.0422389 0.3287554
0.9600195 0.0475493 0.3520112
0.0159311 0.0218519 0.0756882
0.0299091 0.0218519 0.0767259
0.0830129 0.0218519 0.0793505
0.1776231 0.0229506 0.0851492
0.2904840 0.0234389 0.0935116
0.3869255 0.0250870 0.1043765
0.4772020 0.0266740 0.1187206
0.5553317 0.0283220 0.1353842
0.6230239 0.0309467 0.1551608
0.6827199 0.0336324 0.1776231
0.7357016 0.0368675 0.2018556
0.7833120 0.0401025 0.2277361
0.8261613 0.0438259 0.2542269
0.8657145 0.0480986 0.2802295
0.9017274 0.0528597 0.3051944
0.9330403 0.0582311 0.3293048
0.9599585 0.0640298 0.3524995
0.0132454 0.0851492 0.0798999
0.0266740 0.0856376 0.0803882
0.0803882 0.0856376 0.0835622
0.1753037 0.0861869 0.0888116
0.2888970 0.0872246 0.0971129
0.3856437 0.0882622 0.1085271
0.4764085 0.0898492 0.1223219
0.5547824 0.0919246 0.1394128
0.6225966 0.0939999 0.1590673
0.6824147 0.0971129 0.1809192
0.7353964 0.0997375 0.2049686
0.7830678 0.1033388 0.2306049
0.8259781 0.1069401 0.2567906
0.8655924 0.1110908 0.2825490
0.9016053 0.1156687 0.3074528
0.9329183 0.1207959 0.3310749
0.9598975 0.1258622 0.3540866
0.0078740 0.1960569 0.0867363
0.0218519 0.1964842 0.0877739
0.0751389 0.1964842 0.0903375
0.1705426 0.1969725 0.0960752
0.2857230 0.1978270 0.1043765
0.3833852 0.1987426 0.1151804
0.4748215 0.2000855 0.1294024
0.5536837 0.2018556 0.1458219
0.6218031 0.2041140 0.1652933
0.6817433 0.2063114 0.1873894
0.7349081 0.2085088 0.2111335
0.7827016 0.2115608 0.2362815
0.8256730 0.2146127 0.2619178
0.8653482 0.2180309 0.2870048
0.9013612 0.2218763 0.3111762
0.9327352 0.2260270 0.3345541
0.9597754 0.2301776 0.3573216
0.0068364 0.3177684 0.0976622
0.0137948 0.3177684 0.0986999
0.0672038 0.3180126 0.1012635
0.1634011 0.3182567 0.1069401
0.2809009 0.3188061 0.1151804
0.3803333 0.3193554 0.1258622
0.4725020 0.3201489 0.1399011
0.5519746 0.3212476 0.1561375
0.6205823 0.3222853 0.1753037
0.6808277 0.3235671 0.1969725
0.7342367 0.3251541 0.2201672
0.7820912 0.3269853 0.2446438
0.8251846 0.3287554 0.2693646
0.8649210 0.3307697 0.2935970
0.9010560 0.3330892 0.3169139
0.9324910 0.3355307 0.3397424
0.9595312 0.3380333 0.3620826
0.0068364 0.4219008 0.1126167
0.0068364 0.4219008 0.1131050
0.0566441 0.4219008 0.1162180
0.1536959 0.4221449 0.1212843
0.2741867 0.4225111 0.1294024
0.3756943 0.4230605 0.1399011
0.4693280 0.4236098 0.1536959
0.5497162 0.4242202 0.1696271
0.6189343 0.4251358 0.1883049
0.6795459 0.4261124 0.2093634
0.7331990 0.4270280 0.2318257
0.7812977 0.4283098 0.2553256
0.8245132 0.4295916 0.2788867
0.8643716 0.4311176 0.3019593
0.9006287 0.4327046 0.3243606
0.9321248 0.4345358 0.3463957
0.9592871 0.4364890 0.3683697
0.0068364 0.5144967 0.1308674
0.0068364 0.5144967 0.1314167
0.0427272 0.5146188 0.1344076
0.1408777 0.5147409 0.1394128
0.2651529 0.5149850 0.1473479
0.3698956 0.5152292 0.1576024
0.4652384 0.5156565 0.1710309
0.5467253 0.5161448 0.1864738
0.6167369 0.5166331 0.2045413
0.6778978 0.5173045 0.2248062
0.7319172 0.5180370 0.2461698
0.7802600 0.5189526 0.2683269
0.8236587 0.5198071 0.2904840
0.8636391 0.5208448 0.3122749
0.9000183 0.5219435 0.3335775
0.9316975 0.5231643 0.3548190
0.9589208 0.5243850 0.3763047
0.0068364 0.5931148 0.1527193
0.0068364 0.5931148 0.1532076
0.0261246 0.5932369 0.1561375
0.1253739 0.5932979 0.1609595
0.2534334 0.5934810 0.1686504
0.3629982 0.5936642 0.1790270
0.4601111 0.5939694 0.1915400
0.5430629 0.5943356 0.2067387
0.6140512 0.5947018 0.2239517
0.6758225 0.5951291 0.2426906
0.7303302 0.5956784 0.2626503
0.7789782 0.5963499 0.2831594
0.8226210 0.5970213 0.3037295
0.8627846 0.5977538 0.3241165
0.8993469 0.5985473 0.3445034
0.9311481 0.5994629 0.3647684
0.9584325 0.6003784 0.3860709
0.0068364 0.6614784 0.1776231
0.0068364 0.6614784 0.1785998
0.0068364 0.6615394 0.1809192
0.1059025 0.6616004 0.1859855
0.2390893 0.6617225 0.1933101
0.3543307 0.6618446 0.2027712
0.4540072 0.6620888 0.2146127
0.5387902 0.6623329 0.2289568
0.6108771 0.6626381 0.2450101
0.6734420 0.6629433 0.2626503
0.7284380 0.6633706 0.2809009
0.7774522 0.6638589 0.2996399
0.8214002 0.6642862 0.3185619
0.8617469 0.6648355 0.3375450
0.8984923 0.6654459 0.3566502
0.9304767 0.6661173 0.3765489
0.9578832 0.6667887 0.3977904
0.0068364 0.7211744 0.2054569
0.0068364 0.7212354 0.2063114
0.0068364 0.7212354 0.2085088
0.0830129 0.7212965 0.2133309
0.2210218 0.7214185 0.2201672
0.3440762 0.7214796 0.2289568
0.4466215 0.7216627 0.2403101
0.5336019 0.7218458 0.2530672
0.6070927 0.7220900 0.2676555
0.6705121 0.7223952 0.2834646
0.7261796 0.7226393 0.2999451
0.7756821 0.7230056 0.3169139
0.8199963 0.7233718 0.3343100
0.8605262 0.7237991 0.3520112
0.8974547 0.7242874 0.3703229
0.9296832 0.7247757 0.3900995
0.9572728 0.7252640 0.4104865
0.0068364 0.7741561 0.2351218
0.0068364 0.7741561 0.2359153
0.0068364 0.7742172 0.2379296
0.0566441 0.7742782 0.2422633
0.1992309 0.7743393 0.2481231
0.3318074 0.7744003 0.2564243
0.4379540 0.7745224 0.2662516
0.5275591 0.7747055 0.2779100
0.6026369 0.7748886 0.2907892
0.6672160 0.7750717 0.3045840
0.7236159 0.7753159 0.3195996
0.7736068 0.7756211 0.3350424
0.8182872 0.7758652 0.3510956
0.8591223 0.7762315 0.3678813
0.8963560 0.7765977 0.3858268
0.9287676 0.7769639 0.4051761
0.9565403 0.7773912 0.4242202
0.0068364 0.8214002 0.2651529
0.0068364 0.8214002 0.2655191
0.0068364 0.8214002 0.2676555
0.0266740 0.8214613 0.2711347
0.1729232 0.8215223 0.2765672
0.3172191 0.8215833 0.2838308
0.4275774 0.8217054 0.2923762
0.5206006 0.8218275 0.3025697
0.5974486 0.8219496 0.3139230
0.6633706 0.8221327 0.3261918
0.7206861 0.8223158 0.3394983
0.7712873 0.8225600 0.3539034
0.8163950 0.8227431 0.3687969
0.8575352 0.8230483 0.3853995
0.8950742 0.8233535 0.4031008
0.9277910 0.8236587 0.4208021
0.9557468 0.8239639 0.4384423
0.0068364 0.8645547 0.2942074
0.0068364 0.8645547 0.2945126
0.0068364 0.8645547 0.2963438
0.0068364 0.8646158 0.2993347
0.1424037 0.8646158 0.3040347
0.2993347 0.8646768 0.3103217
0.4154917 0.8647989 0.3177684
0.5125435 0.8648599 0.3267411
0.5916499 0.8649820 0.3367515
0.6590368 0.8651651 0.3478606
