app/src/main/assets/luts/Contemporary.CUBE
#Created by: Leica Camera AG | Wetzar | Germany
#Unique Leica Look ID: 1
#Based Filmstyle Mode: Standard
TITLE "Leica Contemporary"
#LUT size
LUT_3D_SIZE 5
#data domain
DOMAIN_MIN 0.0 0.0 0.0
DOMAIN_MAX 1.0 1.0 1.0
# 
LUT_3D_SIZE 5
0.0068364 0.0068364 0.0068364
0.2848074 0.0084234 0.0245376
0.6216200 0.0159311 0.0892999
0.8256119 0.0288104 0.2005738
0.9597143 0.0486480 0.3203931
0.0068364 0.3185619 0.0299091
0.2745529 0.3193554 0.0480986
0.6189953 0.3230788 0.1121284
0.8245743 0.3293048 0.2197400
0.9592871 0.3385216 0.3318074
0.0068364 0.6616615 0.1146310
0.2314594 0.6618446 0.1319050
0.6092901 0.6628212 0.1906244
0.8207898 0.6644693 0.2805347
0.9576390 0.6670329 0.3694684
0.0068364 0.8646158 0.2504425
0.1328816 0.8646768 0.2626503
0.5898798 0.8650430 0.3025697
0.8136483 0.8657145 0.3598242
0.9545260 0.8667521 0.4313007
0.0068364 0.9903559 0.3741073
0.0068364 0.9903559 0.3816151
0.5577733 0.9905390 0.4080449
0.8024171 0.9907831 0.4500397
0.9497650 0.9912104 0.5024110
0.0549960 0.0068364 0.2876763
0.3119697 0.0068364 0.2978087
0.6288226 0.0095221 0.3313191
0.8284807 0.0229506 0.3836294
0.9609962 0.0427272 0.4500397
0.0379662 0.3153269 0.3007996
0.3028749 0.3163645 0.3105658
0.6263200 0.3199048 0.3421229
0.8274431 0.3264359 0.3933956
0.9605689 0.3357749 0.4573033
0.0068364 0.6608069 0.3433437
0.2658854 0.6611121 0.3513398
0.6169200 0.6620277 0.3787463
0.8237197 0.6636758 0.4261124
0.9589208 0.6661784 0.4827565
0.0068364 0.8643106 0.4095099
0.1767076 0.8643716 0.4161021
0.5983031 0.8647378 0.4389916
0.8167002 0.8654093 0.4762254
0.9558689 0.8664469 0.5234084
0.0068364 0.9902338 0.4859305
0.0122078 0.9902338 0.4909968
0.5674174 0.9904169 0.5080877
0.8057132 0.9906611 0.5362876
0.9511079 0.9910883 0.5736434
0.2176036 0.0068364 0.6246719
0.3905268 0.0068364 0.6273576
0.6537875 0.0068364 0.6369407
0.8387963 0.0068364 0.6537264
0.9655741 0.0213026 0.6766770
0.2041140 0.3040347 0.6282122
0.3836294 0.3048892 0.6308368
0.6515901 0.3089178 0.6402979
0.8378807 0.3155710 0.6568394
0.9651468 0.3257035 0.6794848
0.1497894 0.6580602 0.6406641
0.3577489 0.6583043 0.6431667
0.6431057 0.6592199 0.6521394
0.8342794 0.6609290 0.6678264
0.9635598 0.6634926 0.6894952
0.0395532 0.8631508 0.6620888
0.3037295 0.8632729 0.6644082
0.6265641 0.8636391 0.6725264
0.8275652 0.8643106 0.6869316
0.9605689 0.8653482 0.7068303
0.0068364 0.9898065 0.6907770
0.1823231 0.9898065 0.6927913
0.5992797 0.9899896 0.6999939
0.8170665 0.9902338 0.7126900
0.9559910 0.9906611 0.7304523
0.3933956 0.0068364 0.8286028
0.4973448 0.0068364 0.8296405
0.6936459 0.0068364 0.8334859
0.8569249 0.0068364 0.8405054
0.9735091 0.0068364 0.8506379
0.3863151 0.2805347 0.8299457
0.4929500 0.2818776 0.8310444
0.6917536 0.2860892 0.8348898
0.8560093 0.2939022 0.8418483
0.9731429 0.3048892 0.8519197
0.3607398 0.6526888 0.8350119
0.4754929 0.6529940 0.8361106
0.6847342 0.6539095 0.8398340
0.8527132 0.6556797 0.8466703
0.9716780 0.6583043 0.8565586
0.3072087 0.8610755 0.8441067
0.4403955 0.8611976 0.8451444
0.6710615 0.8615638 0.8487457
0.8464872 0.8622352 0.8553378
0.9689312 0.8632729 0.8647989
0.1878777 0.9889520 0.8571080
0.3756943 0.9890130 0.8580846
0.6489654 0.9891351 0.8615028
0.8367820 0.9894403 0.8677287
0.9646585 0.9898065 0.8766404
0.5379357 0.0068364 0.9622169
0.5997681 0.0068364 0.9626442
0.7424770 0.0068364 0.9643533
0.8814625 0.0068364 0.9674052
0.9845572 0.0068364 0.9718000
0.5342733 0.2395166 0.9628273
0.5968992 0.2411036 0.9632546
0.7410120 0.2461698 0.9649637
0.8806690 0.2556919 0.9679546
0.9841909 0.2690594 0.9723494
0.5201733 0.6444485 0.9650247
0.5860953 0.6447537 0.9654520
0.7353964 0.6457303 0.9671000
0.8777391 0.6475615 0.9700909
0.9829091 0.6502472 0.9744247
0.4914851 0.8579015 0.9689922
0.5649149 0.8580236 0.9694195
0.7245926 0.8583898 0.9710065
0.8721846 0.8590612 0.9738754
0.9803455 0.8600989 0.9780870
0.4402124 0.9877312 0.9746689
0.5285357 0.9877312 0.9750961
0.7074406 0.9879143 0.9766221
0.8635781 0.9881585 0.9793689
0.9765000 0.9885857 0.9833364
