app/src/main/assets/luts/Eternal.CUBE
#Created by: Leica Camera AG | Wetzlar | Germany
#Created by: Adobe Photoshop Export Color Lookup Plugin
#Unique Leica Look ID: 6
TITLE "Leica Eternal"
#LUT size
LUT_3D_SIZE 5
#data domain
DOMAIN_MIN 0.0 0.0 0.0
DOMAIN_MAX 1.0 1.0 1.0
#LUT data points
0.000092 0.000092 0.000336
0.119507 0.000671 0.002472
0.570618 0.001740 0.006500
0.888947 0.002686 0.009979
0.999451 0.003265 0.012115
0.000946 0.141327 0.003540
0.111938 0.140869 0.001160
0.567688 0.154999 0.000916
0.888733 0.142334 0.000641
0.999756 0.128662 0.000824
0.002197 0.543365 0.008118
0.104584 0.544037 0.000854
0.550659 0.537720 0.000580
0.884552 0.538452 0.000488
1.000000 0.561676 0.000977
0.003204 0.833557 0.011963
0.092499 0.833649 0.000519
0.540985 0.832367 0.000702
0.870178 0.824707 0.000671
0.999969 0.805298 0.001038
0.004395 1.000000 0.016418
0.114624 1.000000 0.001190
0.551605 0.999969 0.001099
0.842957 0.999878 0.000854
0.998505 0.994568 0.000610
0.000641 0.000641 0.202728
0.120422 0.000214 0.194794
0.571442 0.000305 0.207611
0.889008 0.000305 0.223267
0.999481 0.000305 0.224548
0.000305 0.143616 0.185669
0.113007 0.144836 0.187439
0.572845 0.144073 0.190979
0.897278 0.109528 0.181580
0.999817 0.099213 0.166840
0.000336 0.546051 0.189667
0.074829 0.550964 0.170532
0.555511 0.544586 0.166046
0.892517 0.541687 0.142090
1.000000 0.547760 0.138702
0.000183 0.834106 0.163208
0.060394 0.842499 0.131500
0.538910 0.839905 0.132172
0.877319 0.831665 0.132568
0.999969 0.807587 0.138550
0.000244 1.000000 0.185852
0.071198 1.000000 0.140594
0.502899 0.999969 0.138702
0.844971 0.999908 0.138245
0.998627 0.994995 0.137115
0.001709 0.001709 0.594452
0.146423 0.000244 0.589050
0.565399 0.000336 0.573425
0.888123 0.000336 0.561310
0.999542 0.000275 0.580444
0.000305 0.162964 0.582489
0.123810 0.148834 0.584778
0.569244 0.145447 0.574280
0.896515 0.105316 0.564392
0.999908 0.099915 0.571960
0.000305 0.544159 0.558655
0.065369 0.549744 0.564331
0.552551 0.544037 0.557495
0.887543 0.531708 0.547485
1.000000 0.509338 0.535614
0.000183 0.834991 0.551483
0.061646 0.843170 0.553558
0.509766 0.836182 0.532654
0.873291 0.829254 0.519104
0.999969 0.814270 0.501892
0.000244 1.000000 0.573944
0.069336 1.000000 0.550201
0.400513 0.999908 0.503601
0.848755 0.999847 0.475220
0.998993 0.996338 0.457672
0.002625 0.002625 0.864899
0.180023 0.000275 0.862213
0.567291 0.000336 0.855896
0.880554 0.000305 0.843109
0.999664 0.000275 0.813995
0.000305 0.158783 0.859222
0.127686 0.119873 0.865692
0.571106 0.109375 0.861176
0.888977 0.092224 0.848755
1.000000 0.099976 0.816010
0.000244 0.548187 0.848877
0.060638 0.551849 0.856781
0.549469 0.537231 0.848480
0.882782 0.522156 0.839569
1.000000 0.496582 0.820526
0.000214 0.830322 0.830353
0.062469 0.838318 0.838318
0.492798 0.833130 0.832428
0.867401 0.824982 0.823517
0.999969 0.809875 0.808960
0.000244 0.999969 0.803864
0.069153 0.999969 0.806030
0.327393 0.999908 0.808472
0.835480 0.999817 0.798676
0.999451 0.998047 0.783142
0.003174 0.003174 0.998596
0.193390 0.000275 0.998138
0.599243 0.000305 0.997955
0.858398 0.000305 0.998322
0.997772 0.000244 0.992767
0.000275 0.126923 0.997986
0.132233 0.096588 0.998962
0.590820 0.098114 0.999237
0.861237 0.099243 0.999725
0.998077 0.099487 0.993774
0.000214 0.571381 0.999146
0.068207 0.558411 0.999817
0.545471 0.518250 1.000000
0.867432 0.501251 1.000000
0.998840 0.480225 0.996216
0.000214 0.812958 1.000000
0.069153 0.814697 1.000000
0.480713 0.819855 1.000000
0.855011 0.813049 0.999908
0.999481 0.798798 0.998322
0.000214 0.994812 0.995331
0.066345 0.997437 0.997925
0.309753 0.997437 0.997894
0.821472 0.998444 0.998596
0.999969 0.999939 0.999939
