app/src/main/assets/luts/Eternal.CUBE
#Created by: Leica Camera AG | Wetzlar | Germany
#Created by: Adobe Photoshop Export Color Lookup Plugin
#Unique Leica Look ID: 6
TITLE "Leica Eternal"
#LUT size
LUT_3D_SIZE 9
#data domain
DOMAIN_MIN 0.0 0.0 0.0
DOMAIN_MAX 1.0 1.0 1.0
#LUT data points
0.000092 0.000092 0.000336
0.020142 0.000244 0.000885
0.119507 0.000671 0.002472
0.326813 0.001221 0.004517
0.570618 0.001740 0.006500
0.753998 0.002228 0.008301
0.888947 0.002686 0.009979
0.983673 0.003021 0.011322
0.999451 0.003265 0.012115
0.000458 0.039825 0.001709
0.018921 0.039673 0.000885
0.117432 0.040375 0.001160
0.324097 0.038757 0.001465
0.569946 0.032532 0.001678
0.754913 0.036896 0.001709
0.889771 0.041046 0.001678
0.983551 0.046509 0.002777
0.999573 0.049133 0.001221
0.000946 0.141327 0.003540
0.017303 0.141815 0.001587
0.111938 0.140869 0.001160
0.317810 0.146332 0.001099
0.567688 0.154999 0.000916
0.753723 0.155914 0.000763
0.888733 0.142334 0.000641
0.983490 0.122772 0.001007
0.999756 0.128662 0.000824
0.001526 0.325317 0.005707
0.015656 0.324951 0.002350
0.111694 0.324432 0.001129
0.307129 0.321289 0.001068
0.562531 0.323944 0.000824
0.751373 0.337646 0.000580
0.887512 0.353973 0.000397
0.983337 0.362366 0.000580
1.000000 0.358612 0.000671
0.002197 0.543365 0.008118
0.017700 0.543457 0.002594
0.104584 0.544037 0.000854
0.303070 0.543274 0.000732
0.550659 0.537720 0.000580
0.746216 0.532318 0.000458
0.884552 0.538452 0.000488
0.982849 0.552429 0.000946
1.000000 0.561676 0.000977
0.002594 0.709778 0.009613
0.019531 0.710388 0.002319
0.080383 0.710419 0.000580
0.310333 0.710144 0.000458
0.538391 0.708710 0.000610
0.735657 0.703094 0.000671
0.879883 0.693390 0.000671
0.982086 0.692139 0.001099
1.000000 0.692627 0.001099
0.003204 0.833557 0.011963
0.022461 0.834198 0.001709
0.092499 0.833649 0.000519
0.298401 0.833282 0.000610
0.540985 0.832367 0.000702
0.720764 0.830688 0.000702
0.870178 0.824707 0.000671
0.980988 0.812866 0.001099
0.999969 0.805298 0.001038
0.003876 0.929382 0.014465
0.025513 0.929840 0.001984
0.104370 0.929291 0.000671
0.220795 0.928802 0.000671
0.551514 0.927917 0.000671
0.716827 0.926666 0.000641
0.854218 0.924927 0.000580
0.973053 0.918518 0.000946
0.999969 0.904266 0.000824
0.004395 1.000000 0.016418
0.028442 1.000000 0.001282
0.114624 1.000000 0.001190
0.241577 1.000000 0.001160
0.551605 0.999969 0.001099
0.716614 0.999908 0.000977
0.842957 0.999878 0.000854
0.954346 0.999817 0.000732
0.998505 0.994568 0.000610
0.000214 0.000214 0.078308
0.020721 0.000153 0.076172
0.120483 0.000244 0.076874
0.326630 0.000366 0.080048
0.570892 0.000488 0.080688
0.754730 0.000641 0.076538
0.888855 0.000763 0.073242
0.983551 0.000763 0.077881
0.999451 0.000366 0.080627
0.000214 0.040863 0.072388
0.018982 0.040680 0.072083
0.118744 0.039581 0.072845
0.326996 0.033447 0.071014
0.575623 0.022675 0.065857
0.761688 0.023926 0.057739
0.897247 0.025085 0.056122
0.983459 0.035431 0.065948
0.999603 0.035248 0.065765
0.000397 0.143127 0.068512
0.016449 0.143402 0.066437
0.112549 0.143707 0.065460
0.320343 0.145691 0.062378
0.573059 0.146606 0.054901
0.761261 0.139404 0.053223
0.897461 0.118317 0.053314
0.983398 0.108215 0.063629
0.999786 0.109924 0.063904
0.000610 0.326385 0.059814
0.014862 0.326263 0.055511
0.105896 0.328308 0.053406
0.310486 0.326447 0.056000
0.567413 0.326599 0.055969
0.758789 0.334229 0.055664
0.896393 0.341064 0.055267
0.983276 0.343475 0.065063
1.000000 0.331146 0.064911
0.000702 0.544250 0.066193
0.016113 0.544250 0.060242
0.084839 0.549652 0.054169
0.302643 0.548676 0.056427
0.555969 0.543732 0.058289
0.753296 0.537262 0.057343
0.893219 0.541199 0.056488
0.982758 0.549866 0.065826
1.000000 0.554321 0.065460
0.000702 0.710480 0.073212
0.017120 0.710602 0.064209
0.063263 0.717834 0.054932
0.296722 0.717346 0.056549
0.542999 0.715607 0.057953
0.742462 0.709656 0.058411
0.888123 0.699799 0.057129
0.981964 0.693848 0.066193
1.000000 0.694244 0.065643
0.000641 0.833618 0.079895
0.017975 0.833527 0.067383
0.069366 0.842041 0.055725
0.259094 0.841431 0.056305
0.541992 0.840393 0.057373
0.728088 0.838501 0.057800
0.878113 0.831909 0.057373
0.980835 0.813690 0.066193
0.999969 0.806122 0.065521
0.000702 0.929108 0.085907
0.018585 0.928741 0.069702
0.075104 0.938171 0.055878
0.189056 0.937622 0.055664
0.540680 0.936707 0.056427
0.722900 0.935425 0.056610
0.862915 0.933563 0.056610
0.975281 0.920654 0.062592
0.999939 0.904694 0.065186
0.000305 1.000000 0.089996
0.018494 1.000000 0.069336
0.088287 1.000000 0.065216
0.209595 1.000000 0.065216
0.524597 1.000000 0.065460
0.717834 0.999939 0.065430
0.844086 0.999908 0.065247
0.954926 0.999847 0.064941
0.998566 0.994781 0.064667
0.000641 0.000641 0.202728
0.023285 0.000214 0.200317
0.120422 0.000214 0.194794
0.326141 0.000275 0.197205
0.571442 0.000305 0.207611
0.755066 0.000305 0.217133
0.889008 0.000305 0.223267
0.983551 0.000305 0.226044
0.999481 0.000305 0.224548
0.000244 0.043304 0.195648
0.020020 0.041595 0.194733
0.118835 0.038757 0.193756
0.326782 0.032959 0.195435
0.576141 0.023041 0.199524
0.762024 0.023438 0.202576
0.897186 0.023743 0.202454
0.983459 0.032990 0.204346
0.999634 0.033264 0.194489
0.000305 0.143616 0.185669
0.016418 0.144531 0.186432
0.113007 0.144836 0.187439
0.319641 0.146942 0.190399
0.572845 0.144073 0.190979
0.761078 0.132660 0.187683
0.897278 0.109528 0.181580
0.983429 0.099060 0.181183
0.999817 0.099213 0.166840
0.000366 0.327789 0.186096
0.015015 0.327545 0.184448
0.103699 0.329498 0.182739
0.310211 0.327789 0.185455
0.566498 0.327820 0.184357
0.757935 0.329376 0.178375
0.895508 0.327454 0.168121
0.983307 0.324432 0.162689
1.000000 0.308594 0.148041
0.000336 0.546051 0.189667
0.015869 0.545776 0.180786
0.074829 0.550964 0.170532
0.299683 0.548676 0.169556
0.555511 0.544586 0.166046
0.752319 0.539215 0.155914
0.892517 0.541687 0.142090
0.982788 0.547180 0.139709
1.000000 0.547760 0.138702
0.000244 0.711517 0.176758
0.016571 0.711426 0.159241
0.057159 0.718658 0.143280
0.283722 0.717041 0.138000
0.542877 0.715332 0.132385
0.741791 0.709625 0.133484
0.887299 0.700653 0.132324
0.981995 0.695587 0.140228
1.000000 0.695892 0.138855
0.000183 0.834106 0.163208
0.017090 0.833893 0.147827
0.060394 0.842499 0.131500
0.230927 0.840973 0.130066
0.538910 0.839905 0.132172
0.728119 0.837982 0.132996
0.877319 0.831665 0.132568
0.980804 0.814911 0.140137
0.999969 0.807587 0.138550
0.000244 0.929291 0.175751
0.017395 0.928894 0.154907
0.062439 0.938446 0.133759
0.166016 0.937042 0.130035
0.528534 0.936127 0.131134
0.722870 0.934845 0.131470
0.862732 0.932892 0.131378
0.974915 0.920715 0.136444
0.999939 0.905609 0.137909
0.000244 1.000000 0.185852
0.017365 1.000000 0.158600
0.071198 1.000000 0.140594
0.178864 1.000000 0.138397
0.502899 0.999969 0.138702
0.717346 0.999908 0.138580
0.844971 0.999908 0.138245
0.955444 0.999847 0.137634
0.998627 0.994995 0.137115
0.001160 0.001160 0.401184
0.027710 0.000275 0.397491
0.129547 0.000244 0.391296
0.323212 0.000275 0.381561
0.570953 0.000305 0.375702
0.754791 0.000336 0.384796
0.888733 0.000336 0.401337
0.983490 0.000305 0.416870
0.999512 0.000305 0.423584
0.000366 0.044159 0.393158
0.021576 0.038788 0.391541
0.124786 0.033630 0.389954
0.324860 0.027985 0.383057
0.575592 0.024536 0.377533
0.761841 0.024567 0.382965
0.897095 0.024567 0.393066
0.983429 0.033691 0.404388
0.999695 0.033722 0.407959
0.000305 0.151520 0.380951
0.016602 0.150757 0.379517
0.118256 0.148651 0.380188
0.320282 0.151398 0.376953
0.572327 0.148010 0.374969
0.760803 0.134796 0.376923
0.897125 0.109863 0.381287
0.983398 0.099945 0.389954
0.999878 0.099579 0.390015
0.000366 0.327026 0.366150
0.015594 0.328186 0.367126
0.106934 0.330750 0.370178
0.311981 0.330353 0.369080
0.564423 0.331329 0.369934
0.756165 0.327332 0.368103
0.893921 0.316711 0.363434
0.983307 0.305115 0.362793
1.000000 0.279999 0.353394
0.000336 0.547150 0.361603
0.016357 0.546692 0.362946
0.070526 0.551727 0.363495
0.298676 0.548096 0.361267
0.553986 0.544617 0.363190
0.749817 0.540436 0.359192
0.890167 0.538239 0.351135
0.982819 0.537659 0.347046
1.000000 0.530762 0.336945
0.000244 0.712555 0.372406
0.016968 0.712341 0.367676
0.059509 0.719482 0.361206
0.267029 0.716461 0.348572
0.540802 0.713593 0.346527
0.740051 0.709045 0.341309
0.884979 0.702087 0.330658
0.981995 0.698669 0.323944
1.000000 0.696930 0.312958
0.000153 0.834686 0.383209
0.017303 0.834442 0.366241
0.060242 0.842896 0.349518
0.198975 0.840851 0.328308
0.527313 0.838196 0.318787
0.727936 0.836365 0.310272
0.875671 0.830719 0.296844
0.980774 0.816864 0.285858
0.999969 0.810089 0.271790
0.000244 0.929535 0.373718
0.017426 0.929138 0.342957
0.059753 0.938660 0.315674
0.150299 0.937256 0.290253
0.504456 0.934845 0.271393
0.721313 0.933685 0.258423
0.862244 0.931885 0.241302
0.974548 0.920807 0.226807
0.999939 0.906525 0.226349
0.000244 1.000000 0.345276
0.017365 1.000000 0.293793
0.069092 1.000000 0.259613
0.158997 1.000000 0.231445
0.472778 0.999969 0.228210
0.713837 0.999908 0.227844
0.845856 0.999878 0.227112
0.955811 0.999817 0.226044
0.998688 0.995239 0.224915
0.001709 0.001709 0.594452
0.031525 0.000305 0.592621
0.146423 0.000244 0.589050
0.326660 0.000275 0.583374
0.565399 0.000336 0.573425
0.753998 0.000336 0.560852
0.888123 0.000336 0.561310
0.983398 0.000305 0.571594
0.999542 0.000275 0.580444
0.000519 0.035950 0.589783
0.022125 0.026917 0.590637
0.135468 0.023132 0.591583
0.327301 0.024475 0.586639
0.570709 0.025818 0.577667
0.760864 0.025391 0.565277
0.896576 0.025085 0.564728
0.983337 0.034088 0.571075
0.999725 0.033997 0.576996
0.000305 0.162964 0.582489
0.016663 0.157196 0.581116
0.123810 0.148834 0.584778
0.324615 0.150177 0.580841
0.569244 0.145447 0.574280
0.759735 0.130585 0.565308
0.896515 0.105316 0.564392
0.983307 0.100616 0.568604
0.999908 0.099915 0.571960
0.000366 0.331726 0.572266
0.016266 0.333313 0.571350
0.108002 0.333984 0.575836
0.317566 0.334167 0.571259
0.563538 0.336395 0.567505
0.755219 0.329865 0.562103
0.893280 0.316345 0.560089
0.983215 0.302185 0.561188
1.000000 0.277100 0.560089
0.000305 0.544159 0.558655
0.016815 0.544403 0.558899
0.065369 0.549744 0.564331
0.303223 0.547699 0.561615
0.552551 0.544037 0.557495
0.746765 0.539368 0.553284
0.887543 0.531708 0.547485
0.982758 0.525208 0.544678
1.000000 0.509338 0.535614
0.000214 0.712769 0.547729
0.017273 0.712372 0.549438
0.061676 0.719421 0.553894
0.260956 0.716400 0.551971
0.535706 0.711334 0.546021
0.737579 0.707703 0.542358
0.881989 0.701935 0.534668
0.981934 0.698639 0.529327
1.000000 0.693512 0.518219
0.000183 0.834991 0.551483
0.017517 0.834656 0.552032
0.061646 0.843170 0.553558
0.178955 0.841187 0.548401
0.509766 0.836182 0.532654
0.725403 0.834015 0.525818
0.873291 0.829254 0.519104
0.980713 0.819824 0.513428
0.999969 0.814270 0.501892
0.000244 0.929749 0.564728
0.017578 0.929321 0.559662
0.060699 0.938782 0.555206
0.150391 0.937347 0.545105
0.464508 0.932861 0.517090
0.713318 0.931000 0.504242
0.861450 0.929108 0.496887
0.973785 0.920776 0.490112
0.999939 0.909271 0.480957
0.000244 1.000000 0.573944
0.017456 1.000000 0.562042
0.069336 1.000000 0.550201
0.156555 0.999969 0.535889
0.400513 0.999908 0.503601
0.699371 0.999847 0.483337
0.848755 0.999847 0.475220
0.957550 0.999817 0.464111
0.998993 0.996338 0.457672
0.002167 0.002167 0.745941
0.035370 0.000336 0.744171
0.164368 0.000244 0.741852
0.347443 0.000305 0.738007
0.558502 0.000336 0.733093
0.747528 0.000336 0.723633
0.887268 0.000305 0.707733
0.983246 0.000305 0.702148
0.999603 0.000275 0.698975
0.000610 0.038666 0.742462
0.022491 0.028076 0.744598
0.145996 0.023804 0.746552
0.343811 0.024780 0.743256
0.563934 0.025574 0.738708
0.754791 0.025970 0.729248
0.895538 0.025391 0.713928
0.983185 0.034332 0.703613
0.999786 0.034119 0.701202
0.000305 0.167786 0.737518
0.016693 0.155487 0.736481
0.126587 0.139923 0.742249
0.335144 0.139435 0.739471
0.564972 0.132904 0.735657
0.754303 0.118744 0.727325
0.895416 0.093689 0.713776
0.983154 0.100891 0.704498
0.999939 0.100037 0.702576
0.000336 0.348083 0.730743
0.016693 0.345856 0.730103
0.107056 0.338898 0.736542
0.321686 0.333466 0.732361
0.562500 0.332855 0.729126
0.751617 0.326111 0.722839
0.892151 0.311554 0.713074
0.983032 0.296844 0.707153
1.000000 0.271637 0.704712
0.000275 0.540436 0.722382
0.017120 0.542206 0.721832
0.061127 0.546783 0.728638
0.302155 0.546478 0.724762
0.551544 0.542236 0.719513
0.744965 0.537994 0.715271
0.886536 0.527863 0.708344
0.982605 0.518585 0.704956
1.000000 0.501678 0.701324
0.000183 0.708923 0.710114
0.017456 0.708649 0.709839
0.062988 0.715942 0.716980
0.253204 0.714020 0.714691
0.533722 0.710052 0.710297
0.734375 0.705261 0.705231
0.879028 0.698547 0.698761
0.981781 0.692444 0.693909
0.999969 0.681061 0.685059
0.000183 0.834717 0.695923
0.017609 0.834259 0.697357
0.062347 0.842712 0.703827
0.156647 0.841003 0.703064
0.500580 0.835815 0.699951
0.718994 0.831757 0.693237
0.870941 0.827881 0.686798
0.980225 0.821381 0.680511
0.999969 0.815826 0.669373
0.000244 0.929749 0.693237
0.017609 0.929321 0.694489
0.060974 0.938751 0.700104
0.150665 0.937317 0.699127
0.442902 0.933044 0.693176
0.697845 0.928955 0.679443
0.859375 0.927094 0.670898
0.973022 0.920776 0.665527
0.999939 0.911774 0.655640
0.000244 1.000000 0.694244
0.017456 0.999969 0.695862
0.069366 0.999969 0.696198
0.156372 0.999969 0.694489
0.365936 0.999908 0.687714
0.672974 0.999847 0.666992
0.846893 0.999817 0.654236
0.959290 0.999786 0.647675
0.999207 0.997162 0.641083
0.002625 0.002625 0.864899
0.038788 0.000366 0.863892
0.180023 0.000275 0.862213
0.377502 0.000305 0.859436
0.567291 0.000336 0.855896
0.735474 0.000336 0.851807
0.880554 0.000305 0.843109
0.983063 0.000275 0.825806
0.999664 0.000275 0.813995
0.000671 0.042969 0.862762
0.022736 0.029541 0.865417
0.155090 0.024017 0.868439
0.366455 0.024658 0.866058
0.571503 0.025146 0.862946
0.743561 0.025574 0.859009
0.888824 0.025604 0.849670
0.982941 0.034454 0.826599
0.999817 0.034241 0.815277
0.000305 0.158783 0.859222
0.016602 0.140259 0.858337
0.127686 0.119873 0.865692
0.349213 0.117188 0.863800
0.571106 0.109375 0.861176
0.744324 0.095612 0.857605
0.888977 0.092224 0.848755
0.982880 0.100952 0.826752
1.000000 0.099976 0.816010
0.000305 0.367676 0.854462
0.016937 0.357208 0.853943
0.104614 0.339447 0.861908
0.322998 0.325439 0.858276
0.566101 0.322083 0.855957
0.745300 0.314575 0.852814
0.886993 0.300659 0.845215
0.982727 0.286011 0.827728
1.000000 0.260498 0.818176
0.000244 0.548187 0.848877
0.017273 0.549316 0.848450
0.060638 0.551849 0.856781
0.298004 0.546906 0.853241
0.549469 0.537231 0.848480
0.741150 0.530823 0.845734
0.882782 0.522156 0.839569
0.982300 0.513275 0.827759
1.000000 0.496582 0.820526
0.000153 0.700653 0.841827
0.017517 0.701935 0.841278
0.061920 0.708801 0.849609
0.242401 0.708801 0.846710
0.527405 0.706238 0.841644
0.730072 0.700867 0.837280
0.876709 0.694092 0.832611
0.981506 0.686310 0.825348
0.999969 0.673035 0.819489
0.000214 0.830322 0.830353
0.017639 0.829742 0.829834
0.062469 0.838318 0.838318
0.152832 0.837036 0.836670
0.492798 0.833130 0.832428
0.713470 0.829498 0.828430
0.867401 0.824982 0.823517
0.979156 0.818878 0.817474
0.999969 0.809875 0.808960
0.000244 0.929352 0.814270
0.017639 0.928711 0.815186
0.060944 0.938171 0.823181
0.150391 0.936676 0.822418
0.423279 0.932678 0.820709
0.688019 0.928192 0.817627
0.853271 0.925049 0.811401
0.972076 0.920532 0.804993
0.999939 0.913696 0.795593
0.000244 0.999969 0.803864
0.017456 0.999969 0.804993
0.069153 0.999969 0.806030
0.155762 0.999939 0.806946
0.327393 0.999908 0.808472
0.657928 0.999847 0.808533
0.835480 0.999817 0.798676
0.960175 0.999817 0.789307
0.999451 0.998047 0.783142
0.002960 0.002960 0.949921
0.040466 0.000397 0.948944
0.190552 0.000275 0.948822
0.403931 0.000305 0.948730
0.585876 0.000305 0.948700
0.734833 0.000336 0.948730
0.866241 0.000305 0.947144
0.981354 0.000275 0.939301
0.999695 0.000244 0.921204
0.000671 0.046539 0.948944
0.022583 0.030670 0.951935
0.160614 0.023804 0.957092
0.385956 0.024200 0.957153
0.587341 0.024536 0.957336
0.741699 0.024811 0.957611
0.875214 0.025085 0.955383
0.981171 0.034363 0.938110
0.999817 0.034241 0.921570
0.000305 0.129547 0.948761
0.016724 0.107391 0.948334
0.129883 0.087921 0.957825
0.364746 0.089325 0.957977
0.583618 0.090088 0.958252
0.743073 0.090668 0.958069
0.876526 0.091064 0.954895
0.981171 0.100586 0.937347
0.999939 0.099701 0.921722
0.000305 0.378296 0.948914
0.016998 0.359894 0.948700
0.100281 0.332092 0.958496
0.322083 0.308533 0.956543
0.571808 0.302368 0.956299
0.744904 0.294098 0.954071
0.876801 0.280762 0.951233
0.981201 0.266052 0.936401
0.999939 0.240814 0.921875
0.000214 0.563812 0.948700
0.017273 0.561218 0.948151
0.059296 0.559082 0.957703
0.291473 0.545471 0.954376
0.545715 0.527466 0.950195
0.740021 0.518402 0.948273
0.875458 0.510712 0.945557
0.981079 0.504456 0.934479
0.999939 0.488800 0.922211
0.000153 0.700775 0.943726
0.017487 0.702057 0.943176
0.060272 0.708069 0.952698
0.232758 0.708221 0.950165
0.518646 0.703796 0.945496
0.724243 0.693542 0.941681
0.871674 0.685425 0.939301
0.980438 0.679962 0.931458
0.999908 0.667999 0.921387
0.000214 0.819763 0.937561
0.017578 0.820465 0.936890
0.060699 0.828552 0.946350
0.150055 0.828094 0.944733
0.480927 0.826813 0.939728
0.704498 0.824524 0.935425
0.861633 0.819366 0.932007
0.976746 0.813171 0.926880
0.999939 0.803253 0.919281
0.000244 0.924652 0.927032
0.017578 0.923676 0.926086
0.060516 0.933167 0.935547
0.149323 0.932068 0.934174
0.404480 0.928955 0.930817
0.680634 0.925293 0.926880
0.846527 0.922302 0.923584
0.969238 0.918121 0.919067
0.999939 0.911285 0.912048
0.000214 0.999939 0.907898
0.017395 0.999817 0.908569
0.068695 0.999908 0.908997
0.154785 0.999878 0.909241
0.288422 0.999847 0.909485
0.648834 0.999786 0.911652
0.826172 0.999817 0.912231
0.956146 0.999817 0.907654
0.999664 0.998810 0.900970
0.003174 0.003174 0.998596
0.038452 0.000275 0.998322
0.193390 0.000275 0.998138
0.419830 0.000305 0.997955
0.599243 0.000305 0.997955
0.735168 0.000305 0.998077
0.858398 0.000305 0.998322
0.968719 0.000275 0.998718
0.997772 0.000244 0.992767
0.000305 0.048462 0.998230
0.024353 0.033936 0.998108
0.166107 0.031891 0.998627
0.398987 0.032227 0.998657
0.596497 0.032562 0.998749
0.737701 0.032990 0.998962
0.860260 0.033417 0.999237
0.969604 0.033783 0.999481
0.997925 0.034149 0.993256
0.000275 0.126923 0.997986
0.016724 0.108429 0.997986
0.132233 0.096588 0.998962
0.375427 0.097382 0.999054
0.590820 0.098114 0.999237
0.739319 0.098755 0.999481
0.861237 0.099243 0.999725
0.970093 0.099426 0.999878
0.998077 0.099487 0.993774
0.000305 0.375458 0.998199
0.016907 0.350830 0.998413
0.107239 0.320648 0.999329
0.325378 0.293976 0.999542
0.576752 0.288666 0.999817
0.742676 0.280334 1.000000
0.864227 0.265381 1.000000
0.970947 0.242706 0.999878
0.998474 0.232452 0.994995
0.000214 0.571381 0.999146
0.017181 0.565002 0.999390
0.068207 0.558411 0.999817
0.295502 0.541016 1.000000
0.545471 0.518250 1.000000
0.739319 0.508636 1.000000
0.867432 0.501251 1.000000
0.972260 0.491119 0.999847
0.998840 0.480225 0.996216
0.000122 0.701080 0.999969
0.017365 0.702423 1.000000
0.069000 0.703796 1.000000
0.245544 0.704712 1.000000
0.516205 0.700653 1.000000
0.720184 0.686768 1.000000
0.866699 0.677032 1.000000
0.972229 0.669983 0.999817
0.999176 0.662384 0.997345
0.000214 0.812958 1.000000
0.017426 0.813782 1.000000
0.069153 0.814697 1.000000
0.155823 0.815735 1.000000
0.480713 0.819855 1.000000
0.697510 0.820465 0.999969
0.855011 0.813049 0.999908
0.970612 0.804840 0.999817
0.999481 0.798798 0.998322
0.000244 0.911499 0.999969
0.017426 0.911987 0.999847
0.068817 0.912445 0.999939
0.154968 0.912842 0.999908
0.411041 0.914185 0.999847
0.673218 0.915833 0.999817
0.838348 0.916412 0.999817
0.962982 0.912659 0.999847
0.999664 0.906464 0.998932
0.000214 0.994812 0.995331
0.017334 0.995087 0.995575
0.066345 0.997437 0.997925
0.152161 0.997345 0.997833
0.309753 0.997437 0.997894
0.642761 0.997681 0.997955
0.821472 0.998444 0.998596
0.950958 0.998901 0.999023
0.999969 0.999939 0.999939
