app/src/main/assets/luts/Eternal.CUBE
#Created by: Leica Camera AG | Wetzlar | Germany
#Created by: Adobe Photoshop Export Color Lookup Plugin
#Unique Leica Look ID: 6
TITLE "Leica Eternal"
#LUT size
LUT_3D_SIZE 17
#data domain
DOMAIN_MIN 0.0 0.0 0.0
DOMAIN_MAX 1.0 1.0 1.0
#LUT data points
0.000092 0.000092 0.000336
0.008972 0.000122 0.000458
0.020142 0.000244 0.000885
0.057434 0.000458 0.001678
0.119507 0.000671 0.002472
0.207855 0.000946 0.003479
0.326813 0.001221 0.004517
0.454132 0.001495 0.005585
0.570618 0.001740 0.006500
0.669922 0.002014 0.007477
0.753998 0.002228 0.008301
0.827057 0.002472 0.009186
0.888947 0.002686 0.009979
0.943634 0.002838 0.010590
0.983673 0.003021 0.011322
0.992798 0.003174 0.011810
0.999451 0.003265 0.012115
0.000244 0.010681 0.000977
0.008545 0.010681 0.000641
0.019592 0.010437 0.000763
0.056641 0.009979 0.001221
0.119049 0.008728 0.001740
0.206940 0.007690 0.002289
0.326111 0.008636 0.002777
0.454041 0.009369 0.003113
0.571472 0.010010 0.003235
0.671173 0.010834 0.003540
0.755737 0.011597 0.003876
0.828522 0.012451 0.004181
0.890533 0.013214 0.004456
0.945374 0.013977 0.004608
0.983643 0.016632 0.006409
0.992798 0.017212 0.005829
0.999481 0.017670 0.005646
0.000458 0.039825 0.001709
0.007874 0.039886 0.001221
0.018921 0.039673 0.000885
0.054810 0.039886 0.000977
0.117432 0.040375 0.001160
0.205963 0.040253 0.001251
0.324097 0.038757 0.001465
0.452118 0.034729 0.001556
0.569946 0.032532 0.001678
0.670013 0.034790 0.001678
0.754913 0.036896 0.001709
0.827515 0.038910 0.001678
0.889771 0.041046 0.001678
0.944641 0.043121 0.001617
0.983551 0.046509 0.002777
0.992828 0.048035 0.002319
0.999573 0.049133 0.001221
0.000702 0.084076 0.002563
0.006531 0.084045 0.002014
0.018311 0.083893 0.001190
0.052551 0.083588 0.001007
0.114685 0.084595 0.001068
0.202850 0.086761 0.001068
0.321411 0.089020 0.001068
0.450531 0.089905 0.001007
0.569000 0.088196 0.000946
0.669250 0.083832 0.000885
0.754120 0.075409 0.000946
0.826752 0.072052 0.001007
0.889038 0.075287 0.000885
0.943909 0.078522 0.000793
0.983521 0.082214 0.001312
0.992889 0.084381 0.001129
0.999664 0.086029 0.001007
0.000946 0.141327 0.003540
0.006683 0.141510 0.002747
0.017303 0.141815 0.001587
0.050934 0.141144 0.001160
0.111938 0.140869 0.001160
0.198730 0.142426 0.001160
0.317810 0.146332 0.001099
0.447998 0.151062 0.001068
0.567688 0.154999 0.000916
0.668549 0.157043 0.000854
0.753723 0.155914 0.000763
0.826447 0.151062 0.000702
0.888733 0.142334 0.000641
0.943542 0.128021 0.000610
0.983490 0.122772 0.001007
0.992950 0.126343 0.000916
0.999756 0.128662 0.000824
0.001251 0.218781 0.004608
0.007263 0.219666 0.003448
0.015320 0.220520 0.002045
0.049347 0.220093 0.001251
0.110901 0.219147 0.001251
0.194550 0.218475 0.001221
0.313080 0.219818 0.001129
0.444550 0.224670 0.001038
0.565613 0.230927 0.000885
0.667267 0.237823 0.000793
0.752930 0.243713 0.000671
0.825928 0.247528 0.000610
0.888367 0.248474 0.000488
0.943359 0.245605 0.000458
0.983459 0.237579 0.000732
0.993073 0.224243 0.000671
0.999908 0.213837 0.000671
0.001526 0.325317 0.005707
0.007935 0.325256 0.004028
0.015656 0.324951 0.002350
0.045227 0.324951 0.001221
0.111694 0.324432 0.001129
0.192657 0.323242 0.001099
0.307129 0.321289 0.001068
0.439697 0.320740 0.000946
0.562531 0.323944 0.000824
0.665131 0.329803 0.000671
0.751373 0.337646 0.000580
0.824799 0.346375 0.000488
0.887512 0.353973 0.000397
0.942657 0.359589 0.000336
0.983337 0.362366 0.000580
0.993195 0.361572 0.000610
1.000000 0.358612 0.000671
0.001801 0.438446 0.006744
0.008636 0.438446 0.004639
0.016693 0.438080 0.002502
0.034332 0.438263 0.001312
0.111115 0.438324 0.001007
0.194458 0.437775 0.000946
0.302734 0.436371 0.000885
0.432617 0.433350 0.000824
0.557953 0.430267 0.000702
0.662140 0.431396 0.000580
0.749115 0.435455 0.000458
0.823090 0.442139 0.000397
0.886169 0.450684 0.000366
0.941650 0.459686 0.000366
0.983154 0.467194 0.000732
0.993256 0.471313 0.000793
1.000000 0.471283 0.000854
0.002197 0.543365 0.008118
0.009399 0.543610 0.005341
0.017700 0.543457 0.002594
0.033478 0.543884 0.001282
0.104584 0.544037 0.000854
0.197113 0.543976 0.000763
0.303070 0.543274 0.000732
0.425659 0.541687 0.000641
0.550659 0.537720 0.000580
0.657806 0.533386 0.000488
0.746216 0.532318 0.000458
0.820984 0.534149 0.000488
0.884552 0.538452 0.000488
0.940308 0.545013 0.000519
0.982849 0.552429 0.000946
0.993286 0.559113 0.000977
1.000000 0.561676 0.000977
0.002411 0.633240 0.008911
0.010101 0.633514 0.005554
0.018646 0.633392 0.002563
0.038361 0.633911 0.001038
0.087311 0.633789 0.000702
0.196259 0.633911 0.000610
0.306366 0.633514 0.000549
0.423645 0.632751 0.000488
0.542236 0.631165 0.000488
0.650970 0.627228 0.000549
0.742249 0.621948 0.000580
0.818298 0.619263 0.000610
0.882446 0.619202 0.000580
0.938660 0.621338 0.000580
0.982513 0.625336 0.001038
0.993317 0.629211 0.001068
1.000000 0.630890 0.001099
0.002594 0.709778 0.009613
0.010742 0.710114 0.005676
0.019531 0.710388 0.002319
0.042938 0.710632 0.000824
0.080383 0.710419 0.000580
0.186401 0.710419 0.000488
0.310333 0.710144 0.000458
0.425507 0.709595 0.000519
0.538391 0.708710 0.000610
0.642456 0.707153 0.000671
0.735657 0.703094 0.000671
0.814636 0.697205 0.000671
0.879883 0.693390 0.000671
0.936584 0.691986 0.000610
0.982086 0.692139 0.001099
0.993347 0.692932 0.001099
1.000000 0.692627 0.001099
0.002869 0.776764 0.010712
0.011353 0.776764 0.005768
0.020782 0.777222 0.001740
0.047211 0.776886 0.000641
0.086182 0.776642 0.000458
0.162079 0.776520 0.000458
0.310455 0.776367 0.000549
0.430115 0.775940 0.000610
0.538147 0.775269 0.000671
0.637085 0.774353 0.000702
0.727081 0.772797 0.000732
0.808228 0.768463 0.000702
0.876373 0.762054 0.000671
0.934113 0.757507 0.000641
0.981567 0.754822 0.001129
0.992950 0.752899 0.001099
1.000000 0.750793 0.001099
0.003204 0.833557 0.011963
0.011963 0.833649 0.005829
0.022461 0.834198 0.001709
0.051331 0.833801 0.000580
0.092499 0.833649 0.000519
0.141113 0.833466 0.000549
0.298401 0.833282 0.000610
0.435211 0.832886 0.000671
0.540985 0.832367 0.000702
0.635101 0.831635 0.000702
0.720764 0.830688 0.000702
0.799225 0.829102 0.000702
0.870178 0.824707 0.000671
0.930786 0.818176 0.000610
0.980988 0.812866 0.001099
0.992432 0.808807 0.001068
0.999969 0.805298 0.001038
0.003571 0.883972 0.013214
0.012512 0.883911 0.006134
0.024017 0.884521 0.001862
0.055206 0.884155 0.000641
0.098541 0.884003 0.000610
0.149292 0.883820 0.000610
0.267242 0.883514 0.000641
0.436157 0.883179 0.000671
0.546082 0.882690 0.000671
0.635925 0.882050 0.000671
0.717621 0.881317 0.000671
0.792358 0.880371 0.000671
0.861267 0.878815 0.000671
0.924805 0.874329 0.000610
0.978882 0.867340 0.001038
0.991882 0.861115 0.000977
0.999969 0.856079 0.000977
0.003876 0.929382 0.014465
0.013000 0.929260 0.006409
0.025513 0.929840 0.001984
0.059113 0.929443 0.000702
0.104370 0.929291 0.000671
0.157654 0.929077 0.000671
0.220795 0.928802 0.000671
0.425293 0.928406 0.000671
0.551514 0.927917 0.000671
0.639404 0.927368 0.000641
0.716827 0.926666 0.000641
0.788391 0.925842 0.000641
0.854218 0.924927 0.000580
0.915985 0.923309 0.000549
0.973053 0.918518 0.000946
0.991150 0.910889 0.000885
0.999969 0.904266 0.000824
0.004211 0.970032 0.015686
0.013550 0.969910 0.005981
0.026886 0.970367 0.001923
0.062744 0.970032 0.000702
0.109863 0.969910 0.000671
0.166412 0.969727 0.000671
0.231628 0.969482 0.000641
0.400116 0.969147 0.000641
0.553986 0.968719 0.000610
0.643707 0.968231 0.000610
0.717285 0.967651 0.000610
0.785431 0.967010 0.000549
0.848694 0.966278 0.000519
0.907898 0.965393 0.000519
0.963409 0.963593 0.000824
0.989624 0.958588 0.000763
0.999939 0.950043 0.000732
0.004395 1.000000 0.016418
0.013794 1.000000 0.005371
0.028442 1.000000 0.001282
0.065399 1.000000 0.001160
0.114624 1.000000 0.001190
0.174286 1.000000 0.001160
0.241577 1.000000 0.001160
0.378845 1.000000 0.001129
0.551605 0.999969 0.001099
0.646851 0.999939 0.001007
0.716614 0.999908 0.000977
0.782013 0.999908 0.000946
0.842957 0.999878 0.000854
0.900238 0.999847 0.000793
0.954346 0.999817 0.000732
0.986725 0.999664 0.000671
0.998505 0.994568 0.000610
0.000122 0.000122 0.035309
0.009155 0.000122 0.034576
0.020477 0.000183 0.034119
0.057892 0.000305 0.034119
0.120453 0.000427 0.033936
0.208801 0.000580 0.033478
0.326813 0.000793 0.032623
0.454071 0.001038 0.030975
0.570801 0.001160 0.032715
0.670166 0.001282 0.034546
0.754578 0.001434 0.036224
0.827087 0.001526 0.037811
0.888947 0.001648 0.039337
0.943634 0.001709 0.040863
0.983643 0.001740 0.042511
0.992767 0.001587 0.043610
0.999451 0.001526 0.044434
0.000153 0.011017 0.032837
0.008545 0.010803 0.032349
0.019653 0.010529 0.032166
0.056793 0.009857 0.032104
0.119659 0.008545 0.031494
0.207764 0.007355 0.030670
0.326202 0.007935 0.029175
0.454254 0.008301 0.028381
0.572266 0.008270 0.028992
0.672241 0.008575 0.029785
0.756927 0.008850 0.030609
0.829712 0.009125 0.031372
0.891907 0.009399 0.032166
0.946899 0.009674 0.032867
0.983612 0.013336 0.036621
0.992798 0.013428 0.036682
0.999512 0.013550 0.037018
0.000305 0.040497 0.030640
0.007721 0.040375 0.030090
0.018890 0.040192 0.029510
0.054840 0.040131 0.029022
0.118347 0.039520 0.027710
0.207733 0.037750 0.025452
0.326874 0.034332 0.023468
0.456360 0.028503 0.023254
0.575653 0.024445 0.022888
0.676514 0.025269 0.022827
0.761963 0.026215 0.022980
0.835022 0.027069 0.023041
0.897766 0.027924 0.023071
0.953247 0.028625 0.023132
0.983521 0.039612 0.033173
0.992828 0.040009 0.033295
0.999603 0.040375 0.032745
0.000519 0.084808 0.027588
0.006226 0.084625 0.026825
0.018036 0.084412 0.025848
0.051849 0.084534 0.024567
0.115265 0.084991 0.023499
0.204437 0.085663 0.023529
0.324249 0.085632 0.023193
0.454742 0.084015 0.022614
0.574799 0.079865 0.021881
0.676147 0.073029 0.021423
0.761902 0.062775 0.021179
0.835205 0.059113 0.020996
0.898102 0.060913 0.020966
0.953522 0.062775 0.020935
0.983521 0.074585 0.031464
0.992889 0.075806 0.031555
0.999695 0.076843 0.031494
0.000732 0.142090 0.024933
0.006622 0.142151 0.024597
0.016754 0.142395 0.023987
0.048798 0.142883 0.023132
0.112000 0.142609 0.023773
0.200348 0.143524 0.024048
0.320587 0.145538 0.023682
0.452301 0.147949 0.023071
0.573517 0.149109 0.022400
0.675537 0.148071 0.021790
0.761597 0.143982 0.021393
0.835052 0.136719 0.021088
0.897949 0.125580 0.020813
0.953308 0.109314 0.020508
0.983459 0.115021 0.031097
0.992950 0.117279 0.031342
0.999786 0.119415 0.031433
0.000916 0.220337 0.027039
0.007080 0.220642 0.026306
0.014496 0.221375 0.025543
0.045013 0.222870 0.023376
0.109558 0.221863 0.023895
0.195923 0.221313 0.024628
0.315826 0.221924 0.024445
0.448792 0.224854 0.023895
0.571320 0.229095 0.023224
0.674164 0.233246 0.022675
0.760803 0.236206 0.022278
0.834534 0.236877 0.021942
0.897644 0.234589 0.021667
0.953217 0.228027 0.021393
0.983429 0.223145 0.031799
0.993073 0.208344 0.031860
0.999878 0.188904 0.031830
0.001099 0.325928 0.029541
0.007568 0.325928 0.028137
0.015106 0.325623 0.026978
0.037659 0.328552 0.023438
0.107635 0.327972 0.023773
0.192627 0.326752 0.024475
0.309845 0.325134 0.025238
0.443756 0.323639 0.024780
0.568085 0.325409 0.024109
0.672058 0.329712 0.023529
0.759216 0.335541 0.023102
0.833435 0.341461 0.022705
0.896851 0.346222 0.022339
0.952576 0.348633 0.022034
0.983337 0.352081 0.032349
0.993195 0.349457 0.032410
1.000000 0.342804 0.032379
0.001251 0.438904 0.032043
0.008087 0.438873 0.030121
0.015961 0.438538 0.028534
0.026703 0.442352 0.024139
0.103149 0.442963 0.023590
0.191742 0.442322 0.024261
0.304260 0.440857 0.024963
0.436798 0.438080 0.025696
0.563416 0.434174 0.024994
0.668915 0.434021 0.024323
0.756897 0.436920 0.023773
0.831757 0.442383 0.023285
0.895569 0.449097 0.022888
0.951508 0.455597 0.022461
0.983124 0.462097 0.032715
0.993256 0.465149 0.032745
1.000000 0.463562 0.032715
0.001465 0.543854 0.034882
0.008667 0.544067 0.032196
0.016754 0.543884 0.029938
0.026245 0.549194 0.024078
0.091980 0.549744 0.023285
0.190552 0.549622 0.024017
0.302826 0.548920 0.024689
0.428986 0.547150 0.025330
0.556213 0.543396 0.025818
0.664398 0.538239 0.024994
0.753906 0.536255 0.024384
0.829498 0.537262 0.023773
0.893707 0.540649 0.023285
0.950073 0.546082 0.022797
0.982819 0.551361 0.033020
0.993286 0.556824 0.032959
1.000000 0.557892 0.032898
0.001495 0.633636 0.037445
0.009094 0.633820 0.033783
0.017456 0.633789 0.031250
0.027405 0.640717 0.023529
0.071747 0.640503 0.022888
0.184570 0.640625 0.023743
0.303467 0.640198 0.024384
0.425690 0.639343 0.024963
0.547363 0.637543 0.025482
0.657532 0.633545 0.025574
0.749664 0.627655 0.024811
0.826630 0.624176 0.024170
0.891541 0.623444 0.023590
0.948303 0.625061 0.023041
0.982483 0.625916 0.033203
0.993317 0.629761 0.033081
1.000000 0.631226 0.032990
0.001526 0.710205 0.039886
0.009491 0.710419 0.035278
0.018097 0.710419 0.032440
0.030609 0.717682 0.024078
0.068329 0.717896 0.022919
0.168671 0.717896 0.023468
0.302856 0.717590 0.024109
0.425964 0.716980 0.024658
0.542389 0.716034 0.025055
0.648834 0.714233 0.025360
0.743042 0.709900 0.025208
0.822662 0.703613 0.024445
0.888855 0.699188 0.023804
0.946136 0.697174 0.023224
0.982056 0.692810 0.033295
0.993347 0.693665 0.033203
1.000000 0.693268 0.033051
0.001556 0.776825 0.042175
0.009857 0.776855 0.036621
0.018677 0.776611 0.033417
0.033478 0.784088 0.024506
0.072418 0.784760 0.022888
0.139008 0.784607 0.023132
0.295837 0.784393 0.023834
0.428040 0.783905 0.024292
0.541260 0.783142 0.024658
0.642792 0.782166 0.024872
0.734528 0.780365 0.025055
0.816223 0.775696 0.024658
0.885071 0.769012 0.023926
0.943573 0.763916 0.023315
0.981537 0.755310 0.033356
0.992920 0.753418 0.033234
1.000000 0.751190 0.033020
0.001587 0.833679 0.044342
0.010193 0.833710 0.037872
0.019226 0.833527 0.034332
0.036194 0.841400 0.024689
0.076447 0.842316 0.022858
0.125641 0.842102 0.023041
0.275299 0.841827 0.023590
0.428864 0.841431 0.023987
0.542816 0.840820 0.024200
0.640045 0.840088 0.024414
0.727631 0.839050 0.024506
0.807709 0.837250 0.024567
0.878845 0.832428 0.024048
0.940033 0.825653 0.023346
0.980927 0.813202 0.033325
0.992401 0.809174 0.033173
0.999969 0.805573 0.032990
0.001648 0.883942 0.046448
0.010498 0.883911 0.039001
0.019745 0.884186 0.034698
0.038605 0.892120 0.024811
0.080750 0.893036 0.022797
0.132202 0.892853 0.022949
0.236084 0.892548 0.023193
0.422638 0.892120 0.023590
0.545868 0.891602 0.023773
0.640198 0.890961 0.023895
0.723877 0.890228 0.023956
0.800293 0.889252 0.023987
0.870392 0.887451 0.023987
0.933990 0.882446 0.023315
0.979309 0.868256 0.032410
0.991852 0.861572 0.033051
0.999969 0.856598 0.032867
0.001709 0.929321 0.048340
0.010712 0.929169 0.039795
0.020233 0.929871 0.034637
0.040894 0.937805 0.024414
0.085236 0.938629 0.022614
0.138702 0.938416 0.022705
0.201874 0.938141 0.022888
0.402832 0.937714 0.023163
0.547424 0.937225 0.023315
0.642609 0.936646 0.023376
0.722504 0.935974 0.023407
0.795624 0.935150 0.023407
0.862854 0.934204 0.023407
0.925659 0.932281 0.023254
0.975739 0.920990 0.029938
0.991058 0.911102 0.032928
0.999939 0.904480 0.032715
0.001587 0.969910 0.050446
0.010834 0.969818 0.040253
0.020538 0.970825 0.034363
0.042480 0.979004 0.023743
0.089264 0.979645 0.022400
0.144653 0.979523 0.022461
0.211151 0.979279 0.022552
0.370239 0.978912 0.022705
0.545868 0.978516 0.022797
0.645996 0.977997 0.022858
0.722565 0.977448 0.022858
0.792236 0.976807 0.022827
0.856873 0.976074 0.022766
0.917267 0.975159 0.022705
0.970215 0.969666 0.026184
0.989563 0.958557 0.032715
0.999817 0.950287 0.032532
0.001434 1.000000 0.051361
0.010834 1.000000 0.040375
0.021973 1.000000 0.034760
0.053528 1.000000 0.032990
0.101532 1.000000 0.032654
0.158142 1.000000 0.032715
0.225372 1.000000 0.032837
0.324738 1.000000 0.032867
0.536560 1.000000 0.032928
0.644409 0.999969 0.032898
0.717102 0.999939 0.032837
0.782562 0.999939 0.032776
0.843414 0.999939 0.032684
0.900574 0.999908 0.032593
0.954651 0.999878 0.032471
0.986816 0.999268 0.032440
0.998535 0.994720 0.032288
0.000214 0.000214 0.078308
0.009399 0.000153 0.077515
0.020721 0.000153 0.076172
0.057831 0.000183 0.075928
0.120483 0.000244 0.076874
0.209015 0.000305 0.078430
0.326630 0.000366 0.080048
0.453888 0.000427 0.080719
0.570892 0.000488 0.080688
0.670349 0.000549 0.079376
0.754730 0.000641 0.076538
0.826935 0.000702 0.072601
0.888855 0.000763 0.073242
0.943573 0.000793 0.075531
0.983551 0.000763 0.077881
0.992706 0.000641 0.079498
0.999451 0.000366 0.080627
0.000183 0.011169 0.075500
0.008728 0.010864 0.074982
0.019897 0.010437 0.074341
0.056793 0.009583 0.074371
0.119781 0.008209 0.075012
0.208099 0.007111 0.075836
0.325867 0.007477 0.076630
0.453827 0.007629 0.076324
0.571716 0.007660 0.074890
0.671539 0.007874 0.072388
0.756287 0.008148 0.068695
0.828796 0.008423 0.064056
0.890991 0.008606 0.065552
0.945862 0.008789 0.066925
0.983521 0.011383 0.070343
0.992767 0.011444 0.070740
0.999512 0.011108 0.071198
0.000214 0.040863 0.072388
0.007660 0.040741 0.072144
0.018982 0.040680 0.072083
0.054718 0.040131 0.072601
0.118744 0.039581 0.072845
0.208405 0.037384 0.072266
0.326996 0.033447 0.071014
0.456238 0.027039 0.068817
0.575623 0.022675 0.065857
0.676514 0.023102 0.062164
0.761688 0.023926 0.057739
0.834534 0.024567 0.055389
0.897247 0.025085 0.056122
0.952484 0.025543 0.056641
0.983459 0.035431 0.065948
0.992798 0.035370 0.065918
0.999603 0.035248 0.065765
0.000305 0.085083 0.070404
0.006165 0.084869 0.069702
0.018005 0.085052 0.069489
0.052155 0.085388 0.069885
0.115631 0.085358 0.069702
0.204834 0.085327 0.068878
0.323914 0.084442 0.067078
0.454224 0.081787 0.064209
0.574341 0.076813 0.060333
0.675781 0.069672 0.055969
0.761566 0.059204 0.052856
0.834808 0.055573 0.053131
0.897766 0.056763 0.053497
0.953156 0.057953 0.053833
0.983459 0.069458 0.064209
0.992859 0.069427 0.064545
0.999695 0.069794 0.064484
0.000397 0.143127 0.068512
0.006470 0.143097 0.067261
0.016449 0.143402 0.066437
0.048553 0.144043 0.065857
0.112549 0.143707 0.065460
0.201050 0.144531 0.064606
0.320343 0.145691 0.062378
0.451782 0.146759 0.059143
0.573059 0.146606 0.054901
0.675171 0.144440 0.053284
0.761261 0.139404 0.053223
0.834595 0.130951 0.053284
0.897461 0.118317 0.053314
0.952820 0.101624 0.053284
0.983398 0.108215 0.063629
0.992950 0.109009 0.063965
0.999786 0.109924 0.063904
0.000519 0.222107 0.065369
0.006805 0.222321 0.063416
0.014191 0.222565 0.062073
0.043304 0.224213 0.059906
0.109467 0.223114 0.058899
0.197021 0.223053 0.058014
0.315765 0.223572 0.055603
0.448120 0.225739 0.054779
0.570740 0.228699 0.054657
0.673767 0.231232 0.054626
0.760406 0.232361 0.054596
0.834076 0.231262 0.054504
0.897186 0.227051 0.054352
0.952698 0.218628 0.054169
0.983368 0.212646 0.064301
0.993042 0.196472 0.064331
0.999908 0.176086 0.064209
0.000610 0.326385 0.059814
0.007233 0.326477 0.057129
0.014862 0.326263 0.055511
0.034454 0.329254 0.052887
0.105896 0.328308 0.053406
0.193298 0.327423 0.054657
0.310486 0.326447 0.056000
0.443146 0.325287 0.056122
0.567413 0.326599 0.055969
0.671539 0.329926 0.055817
0.758789 0.334229 0.055664
0.832916 0.338318 0.055511
0.896393 0.341064 0.055267
0.952057 0.341522 0.055023
0.983276 0.343475 0.065063
0.993164 0.339264 0.065033
1.000000 0.331146 0.064911
0.000671 0.439178 0.062378
0.007660 0.439240 0.059631
0.015503 0.438965 0.057983
0.025146 0.441833 0.055023
0.098907 0.442841 0.053833
0.190826 0.442322 0.055023
0.305176 0.440887 0.056274
0.436768 0.438751 0.057465
0.562622 0.435516 0.057129
0.668274 0.435181 0.056854
0.756439 0.437744 0.056610
0.831177 0.442169 0.056305
0.895020 0.447174 0.055969
0.951050 0.452026 0.055573
0.983063 0.457031 0.065491
0.993225 0.458740 0.065399
1.000000 0.456421 0.065247
0.000702 0.544250 0.066193
0.008026 0.544342 0.062653
0.016113 0.544250 0.060242
0.025452 0.548859 0.055603
0.084839 0.549652 0.054169
0.187012 0.549438 0.055267
0.302643 0.548676 0.056427
0.429657 0.546875 0.057495
0.555969 0.543732 0.058289
0.663635 0.539215 0.057770
0.753296 0.537262 0.057343
0.828888 0.538086 0.056946
0.893219 0.541199 0.056488
0.949554 0.545715 0.056000
0.982758 0.549866 0.065826
0.993286 0.554138 0.065674
1.000000 0.554321 0.065460
0.000702 0.633850 0.069733
0.008362 0.634064 0.065277
0.016632 0.634003 0.062256
0.025452 0.640381 0.055786
0.063141 0.640381 0.054443
0.177460 0.640350 0.055389
0.301025 0.639893 0.056519
0.426025 0.638947 0.057434
0.548004 0.637115 0.058167
0.657104 0.633545 0.058533
0.748840 0.628265 0.057922
0.825928 0.624969 0.057404
0.890961 0.624207 0.056854
0.947754 0.625702 0.056305
0.982422 0.626343 0.066071
0.993317 0.629944 0.065826
1.000000 0.630859 0.065613
0.000702 0.710480 0.073212
0.008667 0.710632 0.067780
0.017120 0.710602 0.064209
0.026764 0.717651 0.056519
0.063263 0.717834 0.054932
0.157288 0.717590 0.055420
0.296722 0.717346 0.056549
0.425171 0.716614 0.057373
0.542999 0.715607 0.057953
0.649200 0.713684 0.058472
0.742462 0.709656 0.058411
0.821747 0.704041 0.057770
0.888123 0.699799 0.057129
0.945587 0.697815 0.056519
0.981964 0.693848 0.066193
0.993317 0.694550 0.065918
1.000000 0.694244 0.065643
0.000671 0.776733 0.076660
0.008972 0.776794 0.070038
0.017578 0.776581 0.065887
0.029175 0.783783 0.057617
0.066376 0.784515 0.055328
0.125580 0.784210 0.055328
0.284607 0.783997 0.056458
0.424805 0.783447 0.057220
0.541412 0.782715 0.057709
0.643280 0.781677 0.058075
0.734711 0.779663 0.058319
0.815521 0.775299 0.058014
0.884155 0.769318 0.057281
0.942871 0.764435 0.056641
0.981445 0.756012 0.066223
0.992889 0.754120 0.065918
1.000000 0.752045 0.065643
0.000641 0.833618 0.079895
0.009216 0.833679 0.072205
0.017975 0.833527 0.067383
0.031311 0.841003 0.058441
0.069366 0.842041 0.055725
0.117584 0.841675 0.055420
0.259094 0.841431 0.056305
0.421478 0.841003 0.056976
0.541992 0.840393 0.057373
0.640503 0.839600 0.057617
0.728088 0.838501 0.057800
0.807739 0.836517 0.057953
0.878113 0.831909 0.057373
0.939148 0.825745 0.056641
0.980835 0.813690 0.066193
0.992401 0.809601 0.065887
0.999969 0.806122 0.065521
0.000671 0.883881 0.082947
0.009430 0.883881 0.074158
0.018311 0.883698 0.068695
0.033203 0.891479 0.059113
0.072266 0.892700 0.055939
0.122772 0.892426 0.055511
0.215881 0.892120 0.055969
0.410187 0.891724 0.056610
0.542664 0.891174 0.056946
0.640411 0.890564 0.057159
0.724274 0.889740 0.057281
0.800598 0.888672 0.057312
0.870361 0.886719 0.057312
0.933258 0.881836 0.056641
0.978882 0.868561 0.065033
0.991791 0.861908 0.065765
0.999969 0.856995 0.065369
0.000702 0.929108 0.085907
0.009552 0.929016 0.076080
0.018585 0.928741 0.069702
0.034760 0.936829 0.059326
0.075104 0.938171 0.055878
0.127747 0.937927 0.055450
0.189056 0.937622 0.055664
0.384430 0.937195 0.056152
0.540680 0.936707 0.056427
0.641785 0.936127 0.056549
0.722900 0.935425 0.056610
0.795807 0.934662 0.056641
0.862915 0.933563 0.056610
0.925415 0.931458 0.056427
0.975281 0.920654 0.062592
0.990936 0.911163 0.065582
0.999939 0.904694 0.065186
0.000671 0.969604 0.088501
0.009521 0.969543 0.077332
0.018585 0.969421 0.069794
0.035126 0.977814 0.059082
0.077026 0.979309 0.055389
0.132202 0.979095 0.055145
0.196381 0.978821 0.055359
0.346802 0.978516 0.055634
0.535889 0.978058 0.055847
0.643860 0.977570 0.055939
0.722809 0.976990 0.055969
0.792480 0.976349 0.055908
0.856873 0.975586 0.055847
0.917206 0.974609 0.055756
0.970001 0.968964 0.059113
0.989502 0.958466 0.065338
0.999756 0.950592 0.064941
0.000305 1.000000 0.089996
0.009308 1.000000 0.077637
0.018494 1.000000 0.069336
0.043976 1.000000 0.066467
0.088287 1.000000 0.065216
0.144226 1.000000 0.065094
0.209595 1.000000 0.065216
0.298950 1.000000 0.065338
0.524597 1.000000 0.065460
0.640442 0.999969 0.065491
0.717834 0.999939 0.065430
0.783417 0.999908 0.065338
0.844086 0.999908 0.065247
0.901031 0.999908 0.065094
0.954926 0.999847 0.064941
0.986877 0.999054 0.064850
0.998566 0.994781 0.064667
0.000427 0.000427 0.132965
0.009857 0.000244 0.132050
0.021637 0.000183 0.130066
0.058136 0.000183 0.128174
0.120239 0.000214 0.127930
0.208649 0.000244 0.130188
0.326477 0.000275 0.134033
0.454132 0.000275 0.137665
0.571320 0.000305 0.140503
0.670654 0.000305 0.142365
0.754974 0.000336 0.143066
0.827118 0.000336 0.142639
