app/src/main/assets/luts/Selenium.CUBE
#Created by: Leica Camera AG | Wetzar | Germany
#Unique Leica Look ID: 3
#Based Filmstyle Mode: Standard
TITLE "Leica Selenium"
#LUT size
LUT_3D_SIZE 5
#data domain
DOMAIN_MIN 0.0 0.0 0.0
DOMAIN_MAX 1.0 1.0 1.0
#LUT data points
0.019897 0.019440 0.020569
0.123627 0.125519 0.164856
0.263885 0.259338 0.308167
0.414734 0.408081 0.459930
0.567719 0.562836 0.614990
0.201569 0.199036 0.244843
0.239777 0.235748 0.283630
0.334595 0.328278 0.379272
0.461731 0.455292 0.507294
0.600311 0.596252 0.648438
0.417297 0.410675 0.462708
0.436951 0.430389 0.482391
0.492859 0.486694 0.538971
0.581635 0.576996 0.629028
0.689667 0.688995 0.737854
0.638885 0.635895 0.687653
0.650391 0.647980 0.698944
0.684906 0.683868 0.732941
0.743439 0.745697 0.791504
0.823120 0.830688 0.871277
0.850006 0.859589 0.898102
0.857391 0.867554 0.905426
0.880249 0.892181 0.928070
0.920471 0.935516 0.967072
0.976044 0.976044 0.976044
0.019897 0.019440 0.020569
0.123627 0.125519 0.164856
0.263885 0.259338 0.308167
0.414734 0.408081 0.459930
0.567719 0.562836 0.614990
0.201569 0.199036 0.244843
0.239777 0.235748 0.283630
0.334595 0.328278 0.379272
0.461731 0.455292 0.507294
0.600311 0.596252 0.648438
0.417297 0.410675 0.462708
0.436951 0.430389 0.482391
0.492859 0.486694 0.538971
0.581635 0.576996 0.629028
0.689667 0.688995 0.737854
0.638885 0.635895 0.687653
0.650391 0.647980 0.698944
0.684906 0.683868 0.732941
0.743439 0.745697 0.791504
0.823120 0.830688 0.871277
0.850006 0.859589 0.898102
0.857391 0.867554 0.905426
0.880249 0.892181 0.928070
0.920471 0.935516 0.967072
0.976044 0.976044 0.976044
0.019897 0.019440 0.020569
0.123627 0.125519 0.164856
0.263885 0.259338 0.308167
0.414734 0.408081 0.459930
0.567719 0.562836 0.614990
0.201569 0.199036 0.244843
0.239777 0.235748 0.283630
0.334595 0.328278 0.379272
0.461731 0.455292 0.507294
0.600311 0.596252 0.648438
0.417297 0.410675 0.462708
0.436951 0.430389 0.482391
0.492859 0.486694 0.538971
0.581635 0.576996 0.629028
0.689667 0.688995 0.737854
0.638885 0.635895 0.687653
0.650391 0.647980 0.698944
0.684906 0.683868 0.732941
0.743439 0.745697 0.791504
0.823120 0.830688 0.871277
0.850006 0.859589 0.898102
0.857391 0.867554 0.905426
0.880249 0.892181 0.928070
0.920471 0.935516 0.967072
0.976044 0.976044 0.976044
0.019897 0.019440 0.020569
0.123627 0.125519 0.164856
0.263885 0.259338 0.308167
0.414734 0.408081 0.459930
0.567719 0.562836 0.614990
0.201569 0.199036 0.244843
0.239777 0.235748 0.283630
0.334595 0.328278 0.379272
0.461731 0.455292 0.507294
0.600311 0.596252 0.648438
0.417297 0.410675 0.462708
0.436951 0.430389 0.482391
0.492859 0.486694 0.538971
0.581635 0.576996 0.629028
0.689667 0.688995 0.737854
0.638885 0.635895 0.687653
0.650391 0.647980 0.698944
0.684906 0.683868 0.732941
0.743439 0.745697 0.791504
0.823120 0.830688 0.871277
0.850006 0.859589 0.898102
0.857391 0.867554 0.905426
0.880249 0.892181 0.928070
0.920471 0.935516 0.967072
0.976044 0.976044 0.976044
0.019897 0.019440 0.020569
0.123627 0.125519 0.164856
0.263885 0.259338 0.308167
0.414734 0.408081 0.459930
0.567719 0.562836 0.614990
0.201569 0.199036 0.244843
0.239777 0.235748 0.283630
0.334595 0.328278 0.379272
0.461731 0.455292 0.507294
0.600311 0.596252 0.648438
0.417297 0.410675 0.462708
0.436951 0.430389 0.482391
0.492859 0.486694 0.538971
0.581635 0.576996 0.629028
0.689667 0.688995 0.737854
0.638885 0.635895 0.687653
0.650391 0.647980 0.698944
0.684906 0.683868 0.732941
0.743439 0.745697 0.791504
0.823120 0.830688 0.871277
0.850006 0.859589 0.898102
0.857391 0.867554 0.905426
0.880249 0.892181 0.928070
0.920471 0.935516 0.967072
0.976044 0.976044 0.976044
