app/src/main/assets/luts/Selenium.CUBE
#Created by: Leica Camera AG | Wetzar | Germany
#Unique Leica Look ID: 3
#Based Filmstyle Mode: Standard
TITLE "Leica Selenium"
#LUT size
LUT_3D_SIZE 17
#data domain
DOMAIN_MIN 0.0 0.0 0.0
DOMAIN_MAX 1.0 1.0 1.0
#LUT data points
0.019897 0.019440 0.020569
0.041656 0.050140 0.075073
0.059967 0.067352 0.097473
0.088776 0.093994 0.128967
0.123627 0.125519 0.164856
0.158447 0.158203 0.200775
0.193329 0.190918 0.236328
0.228363 0.224640 0.271912
0.263885 0.259338 0.308167
0.300781 0.295166 0.345245
0.338287 0.332092 0.383179
0.376251 0.369812 0.421356
0.414734 0.408081 0.459930
0.453125 0.446594 0.498718
0.491516 0.485382 0.537476
0.529633 0.524170 0.576385
0.567719 0.562836 0.614990
0.054443 0.061707 0.090637
0.064423 0.070953 0.101929
0.085327 0.090271 0.124756
0.110779 0.113983 0.151703
0.140625 0.141174 0.182220
0.171661 0.170837 0.214539
0.204102 0.201385 0.247498
0.237518 0.233490 0.281342
0.272217 0.267120 0.316437
0.307922 0.302124 0.352600
0.344604 0.338470 0.389526
0.381897 0.375275 0.427063
0.419617 0.412994 0.465027
0.457581 0.451263 0.503387
0.495605 0.489685 0.541718
0.533356 0.527954 0.580078
0.571045 0.566284 0.618561
0.100647 0.104065 0.140839
0.108887 0.111938 0.149536
0.122620 0.124481 0.163605
0.142273 0.142578 0.183899
0.165924 0.165222 0.208527
0.192993 0.190521 0.235901
0.222198 0.218445 0.265533
0.253021 0.248535 0.297028
0.285767 0.280640 0.330353
0.320282 0.314117 0.364960
0.355652 0.349335 0.400665
0.391998 0.385345 0.437134
0.428711 0.422119 0.474121
0.465759 0.459442 0.511505
0.502869 0.496826 0.549072
0.540100 0.534637 0.586975
0.577148 0.572571 0.624786
0.150726 0.151001 0.192993
0.156464 0.156555 0.198914
0.166199 0.165527 0.208923
0.180664 0.179138 0.223511
0.199646 0.197205 0.242859
0.222351 0.218933 0.265961
0.248047 0.243866 0.291962
0.276337 0.271210 0.320587
0.306854 0.301178 0.351379
0.339172 0.332916 0.383911
0.372620 0.366089 0.417572
0.407349 0.400696 0.452545
0.442566 0.436127 0.488129
0.478394 0.472168 0.524261
0.514496 0.508698 0.560852
0.550781 0.545624 0.597656
0.587067 0.582642 0.634583
0.201569 0.199036 0.244843
0.205841 0.203033 0.248993
0.213287 0.209991 0.256714
0.224487 0.221008 0.268097
0.239777 0.235748 0.283630
0.258942 0.254242 0.302917
0.281433 0.276123 0.325684
0.306641 0.301147 0.351257
0.334595 0.328278 0.379272
0.364258 0.357727 0.409210
0.395538 0.388947 0.440735
0.428101 0.421692 0.473694
0.461731 0.455292 0.507294
0.495758 0.489838 0.541901
0.530396 0.524750 0.577057
0.565430 0.560516 0.612610
0.600311 0.596252 0.648438
0.253174 0.248688 0.297150
0.256531 0.252075 0.300690
0.262482 0.257935 0.306763
0.272034 0.266907 0.316193
0.284576 0.279572 0.329102
0.300903 0.295288 0.345367
0.320648 0.314453 0.365326
0.342896 0.336700 0.387726
0.367920 0.361572 0.413055
0.395203 0.388428 0.440277
0.424042 0.417389 0.469421
0.454254 0.447784 0.499878
0.485565 0.479401 0.531464
0.517731 0.511871 0.564270
0.550720 0.545563 0.597626
0.584015 0.579468 0.631683
0.617645 0.614075 0.665894
0.306580 0.300812 0.351135
0.309631 0.303650 0.354095
0.314484 0.308655 0.359161
0.322357 0.316376 0.367004
0.333313 0.327087 0.378021
0.347412 0.340912 0.392090
0.364166 0.357666 0.409210
0.384155 0.377472 0.429108
0.406342 0.399719 0.451569
0.430756 0.424103 0.476166
0.457001 0.450470 0.502777
0.484894 0.478668 0.530823
0.513916 0.508118 0.560211
0.544006 0.538788 0.590881
0.575012 0.570282 0.622314
0.606384 0.602509 0.654633
0.638245 0.635345 0.687103
0.361664 0.355133 0.406616
0.363983 0.357452 0.408966
0.368225 0.361725 0.413269
0.374878 0.368469 0.420044
0.384430 0.377747 0.429352
0.396362 0.389679 0.441498
0.411133 0.404449 0.456451
0.428345 0.421936 0.473877
0.448303 0.441620 0.493805
0.470154 0.463806 0.515991
0.493896 0.487762 0.540039
0.519379 0.513672 0.565796
0.546112 0.540802 0.592957
0.574036 0.569336 0.621399
0.603027 0.598999 0.651001
0.632568 0.629364 0.681305
0.662567 0.660675 0.710876
0.417297 0.410675 0.462708
0.419312 0.412689 0.464722
0.423126 0.416412 0.468475
0.428925 0.422272 0.474274
0.436951 0.430389 0.482391
0.447418 0.440826 0.493011
0.460358 0.453857 0.505951
0.475555 0.469238 0.521393
0.492859 0.486694 0.538971
0.512543 0.506653 0.558838
0.533875 0.528473 0.580536
0.557007 0.552032 0.603973
0.581635 0.576996 0.629028
0.607178 0.603363 0.655426
0.633972 0.630890 0.682709
0.661438 0.659393 0.709930
0.689667 0.688995 0.737854
0.473267 0.467072 0.519043
0.475159 0.468872 0.521057
0.478180 0.471893 0.524048
0.483337 0.477020 0.529144
0.490265 0.484161 0.536255
0.499390 0.493347 0.545593
0.510498 0.504761 0.557037
0.523987 0.518341 0.570618
0.539398 0.534088 0.586243
0.557068 0.551971 0.604004
0.576233 0.571594 0.623779
0.597168 0.593079 0.645081
0.619568 0.615967 0.668030
0.643066 0.640259 0.691742
0.667572 0.665894 0.715942
0.693298 0.692841 0.741241
0.719666 0.720551 0.767731
0.529144 0.523499 0.575806
0.530579 0.525055 0.577301
0.533295 0.527710 0.579956
0.537659 0.532257 0.584442
0.543915 0.538605 0.590729
0.551910 0.546722 0.598785
0.561798 0.556854 0.609039
0.573792 0.569061 0.621124
0.587585 0.583221 0.635101
0.603058 0.599152 0.651093
0.620209 0.616699 0.668732
0.638947 0.636017 0.687714
0.659302 0.657257 0.707642
0.680939 0.679810 0.729034
0.703613 0.703613 0.751617
0.727356 0.728729 0.775360
0.752289 0.755096 0.800171
0.584290 0.579865 0.632019
0.585693 0.581268 0.633392
0.588226 0.583862 0.635864
0.591949 0.587646 0.639740
0.597382 0.593323 0.645325
0.604523 0.600494 0.652466
0.613312 0.609497 0.661591
0.623779 0.620270 0.672333
0.636017 0.632935 0.684875
0.649902 0.647430 0.698456
0.665375 0.663513 0.713562
0.682190 0.681183 0.730347
0.700806 0.700684 0.748627
0.720428 0.721436 0.768524
0.741516 0.743652 0.789429
0.763672 0.767181 0.811646
0.786774 0.791809 0.834900
0.638885 0.635895 0.687653
0.640350 0.637360 0.688843
0.642273 0.639496 0.690979
0.645599 0.642914 0.694183
0.650391 0.647980 0.698944
0.656738 0.654480 0.705109
0.664490 0.662628 0.712708
0.673798 0.672394 0.722046
0.684906 0.683868 0.732941
0.697174 0.696869 0.745270
0.711212 0.711639 0.759094
0.726624 0.727875 0.774597
0.743439 0.745697 0.791504
0.761719 0.765106 0.809753
0.781219 0.785736 0.829163
0.801605 0.807648 0.849915
0.823120 0.830688 0.871277
0.692719 0.692169 0.740631
0.693726 0.693268 0.741638
0.695557 0.695160 0.743652
0.698425 0.698242 0.746521
0.702789 0.702759 0.750793
0.708466 0.708740 0.756409
0.715424 0.716125 0.763336
0.723877 0.724976 0.771667
0.733643 0.735413 0.781616
0.745087 0.747559 0.792969
0.757660 0.760864 0.805725
0.771851 0.775940 0.820099
0.787262 0.792328 0.835327
0.804077 0.810089 0.852142
0.821869 0.829346 0.870026
0.840881 0.849548 0.888824
0.860565 0.870941 0.908691
0.745758 0.748169 0.793579
0.746643 0.749115 0.794495
0.748291 0.750916 0.796295
0.751068 0.753662 0.799011
0.754852 0.757843 0.802887
0.760010 0.763336 0.807770
0.766357 0.769836 0.814362
0.773987 0.777954 0.821960
0.782928 0.787781 0.830872
0.793121 0.798615 0.841248
0.804901 0.811157 0.852905
0.817780 0.824768 0.865784
0.831696 0.839935 0.880035
0.847168 0.856293 0.895081
0.863403 0.874054 0.911316
0.880646 0.892548 0.928436
0.898956 0.912109 0.946411
0.798279 0.804108 0.846344
0.799042 0.804962 0.847198
0.800568 0.806580 0.848602
0.803162 0.809082 0.851196
0.806519 0.812958 0.854584
0.811188 0.817749 0.859222
0.816772 0.823883 0.864960
0.823730 0.831360 0.871887
0.831787 0.840027 0.880096
0.841339 0.850037 0.889252
0.851746 0.861450 0.899841
0.863525 0.874146 0.911438
0.876373 0.887787 0.924225
0.890320 0.902740 0.937897
0.905090 0.918762 0.952515
0.920807 0.935974 0.967377
0.937408 0.953766 0.976044
0.850006 0.859589 0.898102
0.850708 0.860352 0.898834
0.852051 0.861755 0.900116
0.854370 0.864075 0.902435
0.857391 0.867554 0.905426
0.861633 0.871857 0.909576
0.866638 0.877502 0.914734
0.872925 0.884277 0.920898
0.880249 0.892181 0.928070
0.888611 0.901215 0.936493
0.898285 0.911438 0.945679
0.908783 0.923004 0.956024
0.920471 0.935516 0.967072
0.933075 0.948914 0.976044
0.946594 0.963287 0.976044
0.960938 0.976044 0.976044
0.976044 0.976044 0.976044
0.019897 0.019440 0.020569
0.041656 0.050140 0.075073
0.059967 0.067352 0.097473
0.088776 0.093994 0.128967
0.123627 0.125519 0.164856
0.158447 0.158203 0.200775
0.193329 0.190918 0.236328
0.228363 0.224640 0.271912
0.263885 0.259338 0.308167
0.300781 0.295166 0.345245
0.338287 0.332092 0.383179
0.376251 0.369812 0.421356
0.414734 0.408081 0.459930
0.453125 0.446594 0.498718
0.491516 0.485382 0.537476
0.529633 0.524170 0.576385
0.567719 0.562836 0.614990
0.054443 0.061707 0.090637
0.064423 0.070953 0.101929
0.085327 0.090271 0.124756
0.110779 0.113983 0.151703
0.140625 0.141174 0.182220
0.171661 0.170837 0.214539
0.204102 0.201385 0.247498
0.237518 0.233490 0.281342
0.272217 0.267120 0.316437
0.307922 0.302124 0.352600
0.344604 0.338470 0.389526
0.381897 0.375275 0.427063
0.419617 0.412994 0.465027
0.457581 0.451263 0.503387
0.495605 0.489685 0.541718
0.533356 0.527954 0.580078
0.571045 0.566284 0.618561
0.100647 0.104065 0.140839
0.108887 0.111938 0.149536
0.122620 0.124481 0.163605
0.142273 0.142578 0.183899
0.165924 0.165222 0.208527
0.192993 0.190521 0.235901
0.222198 0.218445 0.265533
0.253021 0.248535 0.297028
0.285767 0.280640 0.330353
0.320282 0.314117 0.364960
0.355652 0.349335 0.400665
0.391998 0.385345 0.437134
0.428711 0.422119 0.474121
0.465759 0.459442 0.511505
0.502869 0.496826 0.549072
0.540100 0.534637 0.586975
0.577148 0.572571 0.624786
0.150726 0.151001 0.192993
0.156464 0.156555 0.198914
0.166199 0.165527 0.208923
0.180664 0.179138 0.223511
0.199646 0.197205 0.242859
0.222351 0.218933 0.265961
0.248047 0.243866 0.291962
0.276337 0.271210 0.320587
0.306854 0.301178 0.351379
0.339172 0.332916 0.383911
0.372620 0.366089 0.417572
0.407349 0.400696 0.452545
0.442566 0.436127 0.488129
0.478394 0.472168 0.524261
0.514496 0.508698 0.560852
0.550781 0.545624 0.597656
0.587067 0.582642 0.634583
0.201569 0.199036 0.244843
0.205841 0.203033 0.248993
0.213287 0.209991 0.256714
0.224487 0.221008 0.268097
0.239777 0.235748 0.283630
0.258942 0.254242 0.302917
0.281433 0.276123 0.325684
0.306641 0.301147 0.351257
0.334595 0.328278 0.379272
0.364258 0.357727 0.409210
0.395538 0.388947 0.440735
0.428101 0.421692 0.473694
0.461731 0.455292 0.507294
0.495758 0.489838 0.541901
0.530396 0.524750 0.577057
0.565430 0.560516 0.612610
0.600311 0.596252 0.648438
0.253174 0.248688 0.297150
0.256531 0.252075 0.300690
0.262482 0.257935 0.306763
0.272034 0.266907 0.316193
0.284576 0.279572 0.329102
0.300903 0.295288 0.345367
0.320648 0.314453 0.365326
0.342896 0.336700 0.387726
0.367920 0.361572 0.413055
0.395203 0.388428 0.440277
0.424042 0.417389 0.469421
0.454254 0.447784 0.499878
0.485565 0.479401 0.531464
0.517731 0.511871 0.564270
0.550720 0.545563 0.597626
0.584015 0.579468 0.631683
0.617645 0.614075 0.665894
0.306580 0.300812 0.351135
0.309631 0.303650 0.354095
0.314484 0.308655 0.359161
0.322357 0.316376 0.367004
0.333313 0.327087 0.378021
0.347412 0.340912 0.392090
0.364166 0.357666 0.409210
0.384155 0.377472 0.429108
0.406342 0.399719 0.451569
0.430756 0.424103 0.476166
0.457001 0.450470 0.502777
0.484894 0.478668 0.530823
0.513916 0.508118 0.560211
0.544006 0.538788 0.590881
0.575012 0.570282 0.622314
0.606384 0.602509 0.654633
0.638245 0.635345 0.687103
0.361664 0.355133 0.406616
0.363983 0.357452 0.408966
0.368225 0.361725 0.413269
0.374878 0.368469 0.420044
0.384430 0.377747 0.429352
0.396362 0.389679 0.441498
0.411133 0.404449 0.456451
0.428345 0.421936 0.473877
0.448303 0.441620 0.493805
0.470154 0.463806 0.515991
0.493896 0.487762 0.540039
0.519379 0.513672 0.565796
0.546112 0.540802 0.592957
0.574036 0.569336 0.621399
0.603027 0.598999 0.651001
0.632568 0.629364 0.681305
0.662567 0.660675 0.710876
0.417297 0.410675 0.462708
0.419312 0.412689 0.464722
0.423126 0.416412 0.468475
0.428925 0.422272 0.474274
0.436951 0.430389 0.482391
0.447418 0.440826 0.493011
0.460358 0.453857 0.505951
0.475555 0.469238 0.521393
0.492859 0.486694 0.538971
0.512543 0.506653 0.558838
0.533875 0.528473 0.580536
0.557007 0.552032 0.603973
0.581635 0.576996 0.629028
0.607178 0.603363 0.655426
0.633972 0.630890 0.682709
0.661438 0.659393 0.709930
0.689667 0.688995 0.737854
0.473267 0.467072 0.519043
0.475159 0.468872 0.521057
0.478180 0.471893 0.524048
0.483337 0.477020 0.529144
0.490265 0.484161 0.536255
0.499390 0.493347 0.545593
0.510498 0.504761 0.557037
0.523987 0.518341 0.570618
0.539398 0.534088 0.586243
0.557068 0.551971 0.604004
0.576233 0.571594 0.623779
0.597168 0.593079 0.645081
0.619568 0.615967 0.668030
0.643066 0.640259 0.691742
0.667572 0.665894 0.715942
0.693298 0.692841 0.741241
0.719666 0.720551 0.767731
0.529144 0.523499 0.575806
0.530579 0.525055 0.577301
0.533295 0.527710 0.579956
0.537659 0.532257 0.584442
0.543915 0.538605 0.590729
0.551910 0.546722 0.598785
0.561798 0.556854 0.609039
0.573792 0.569061 0.621124
0.587585 0.583221 0.635101
0.603058 0.599152 0.651093
0.620209 0.616699 0.668732
0.638947 0.636017 0.687714
0.659302 0.657257 0.707642
0.680939 0.679810 0.729034
0.703613 0.703613 0.751617
0.727356 0.728729 0.775360
0.752289 0.755096 0.800171
0.584290 0.579865 0.632019
0.585693 0.581268 0.633392
0.588226 0.583862 0.635864
0.591949 0.587646 0.639740
0.597382 0.593323 0.645325
0.604523 0.600494 0.652466
0.613312 0.609497 0.661591
0.623779 0.620270 0.672333
0.636017 0.632935 0.684875
0.649902 0.647430 0.698456
0.665375 0.663513 0.713562
0.682190 0.681183 0.730347
0.700806 0.700684 0.748627
0.720428 0.721436 0.768524
0.741516 0.743652 0.789429
0.763672 0.767181 0.811646
0.786774 0.791809 0.834900
0.638885 0.635895 0.687653
0.640350 0.637360 0.688843
0.642273 0.639496 0.690979
0.645599 0.642914 0.694183
0.650391 0.647980 0.698944
0.656738 0.654480 0.705109
0.664490 0.662628 0.712708
0.673798 0.672394 0.722046
0.684906 0.683868 0.732941
0.697174 0.696869 0.745270
0.711212 0.711639 0.759094
0.726624 0.727875 0.774597
0.743439 0.745697 0.791504
0.761719 0.765106 0.809753
0.781219 0.785736 0.829163
0.801605 0.807648 0.849915
0.823120 0.830688 0.871277
0.692719 0.692169 0.740631
0.693726 0.693268 0.741638
0.695557 0.695160 0.743652
0.698425 0.698242 0.746521
0.702789 0.702759 0.750793
0.708466 0.708740 0.756409
0.715424 0.716125 0.763336
0.723877 0.724976 0.771667
0.733643 0.735413 0.781616
0.745087 0.747559 0.792969
0.757660 0.760864 0.805725
0.771851 0.775940 0.820099
0.787262 0.792328 0.835327
0.804077 0.810089 0.852142
0.821869 0.829346 0.870026
0.840881 0.849548 0.888824
0.860565 0.870941 0.908691
0.745758 0.748169 0.793579
0.746643 0.749115 0.794495
0.748291 0.750916 0.796295
0.751068 0.753662 0.799011
0.754852 0.757843 0.802887
0.760010 0.763336 0.807770
0.766357 0.769836 0.814362
0.773987 0.777954 0.821960
0.782928 0.787781 0.830872
0.793121 0.798615 0.841248
0.804901 0.811157 0.852905
0.817780 0.824768 0.865784
0.831696 0.839935 0.880035
0.847168 0.856293 0.895081
0.863403 0.874054 0.911316
0.880646 0.892548 0.928436
0.898956 0.912109 0.946411
0.798279 0.804108 0.846344
0.799042 0.804962 0.847198
0.800568 0.806580 0.848602
0.803162 0.809082 0.851196
0.806519 0.812958 0.854584
0.811188 0.817749 0.859222
0.816772 0.823883 0.864960
0.823730 0.831360 0.871887
0.831787 0.840027 0.880096
0.841339 0.850037 0.889252
0.851746 0.861450 0.899841
0.863525 0.874146 0.911438
0.876373 0.887787 0.924225
0.890320 0.902740 0.937897
0.905090 0.918762 0.952515
0.920807 0.935974 0.967377
0.937408 0.953766 0.976044
0.850006 0.859589 0.898102
0.850708 0.860352 0.898834
0.852051 0.861755 0.900116
0.854370 0.864075 0.902435
0.857391 0.867554 0.905426
0.861633 0.871857 0.909576
0.866638 0.877502 0.914734
0.872925 0.884277 0.920898
0.880249 0.892181 0.928070
0.888611 0.901215 0.936493
0.898285 0.911438 0.945679
0.908783 0.923004 0.956024
0.920471 0.935516 0.967072
0.933075 0.948914 0.976044
0.946594 0.963287 0.976044
0.960938 0.976044 0.976044
0.976044 0.976044 0.976044
0.019897 0.019440 0.020569
0.041656 0.050140 0.075073
0.059967 0.067352 0.097473
0.088776 0.093994 0.128967
0.123627 0.125519 0.164856
0.158447 0.158203 0.200775
0.193329 0.190918 0.236328
0.228363 0.224640 0.271912
0.263885 0.259338 0.308167
0.300781 0.295166 0.345245
0.338287 0.332092 0.383179
0.376251 0.369812 0.421356
0.414734 0.408081 0.459930
0.453125 0.446594 0.498718
0.491516 0.485382 0.537476
0.529633 0.524170 0.576385
0.567719 0.562836 0.614990
0.054443 0.061707 0.090637
0.064423 0.070953 0.101929
0.085327 0.090271 0.124756
0.110779 0.113983 0.151703
0.140625 0.141174 0.182220
0.171661 0.170837 0.214539
0.204102 0.201385 0.247498
0.237518 0.233490 0.281342
0.272217 0.267120 0.316437
0.307922 0.302124 0.352600
0.344604 0.338470 0.389526
0.381897 0.375275 0.427063
0.419617 0.412994 0.465027
0.457581 0.451263 0.503387
0.495605 0.489685 0.541718
0.533356 0.527954 0.580078
0.571045 0.566284 0.618561
0.100647 0.104065 0.140839
0.108887 0.111938 0.149536
0.122620 0.124481 0.163605
0.142273 0.142578 0.183899
0.165924 0.165222 0.208527
0.192993 0.190521 0.235901
0.222198 0.218445 0.265533
0.253021 0.248535 0.297028
0.285767 0.280640 0.330353
0.320282 0.314117 0.364960
0.355652 0.349335 0.400665
0.391998 0.385345 0.437134
0.428711 0.422119 0.474121
0.465759 0.459442 0.511505
0.502869 0.496826 0.549072
0.540100 0.534637 0.586975
0.577148 0.572571 0.624786
0.150726 0.151001 0.192993
0.156464 0.156555 0.198914
0.166199 0.165527 0.208923
0.180664 0.179138 0.223511
0.199646 0.197205 0.242859
0.222351 0.218933 0.265961
0.248047 0.243866 0.291962
0.276337 0.271210 0.320587
0.306854 0.301178 0.351379
0.339172 0.332916 0.383911
0.372620 0.366089 0.417572
0.407349 0.400696 0.452545
0.442566 0.436127 0.488129
0.478394 0.472168 0.524261
0.514496 0.508698 0.560852
0.550781 0.545624 0.597656
0.587067 0.582642 0.634583
0.201569 0.199036 0.244843
0.205841 0.203033 0.248993
0.213287 0.209991 0.256714
0.224487 0.221008 0.268097
0.239777 0.235748 0.283630
0.258942 0.254242 0.302917
0.281433 0.276123 0.325684
0.306641 0.301147 0.351257
0.334595 0.328278 0.379272
0.364258 0.357727 0.409210
0.395538 0.388947 0.440735
0.428101 0.421692 0.473694
0.461731 0.455292 0.507294
0.495758 0.489838 0.541901
0.530396 0.524750 0.577057
0.565430 0.560516 0.612610
0.600311 0.596252 0.648438
0.253174 0.248688 0.297150
0.256531 0.252075 0.300690
0.262482 0.257935 0.306763
0.272034 0.266907 0.316193
0.284576 0.279572 0.329102
0.300903 0.295288 0.345367
0.320648 0.314453 0.365326
0.342896 0.336700 0.387726
0.367920 0.361572 0.413055
0.395203 0.388428 0.440277
0.424042 0.417389 0.469421
0.454254 0.447784 0.499878
0.485565 0.479401 0.531464
0.517731 0.511871 0.564270
0.550720 0.545563 0.597626
0.584015 0.579468 0.631683
0.617645 0.614075 0.665894
0.306580 0.300812 0.351135
0.309631 0.303650 0.354095
0.314484 0.308655 0.359161
0.322357 0.316376 0.367004
0.333313 0.327087 0.378021
0.347412 0.340912 0.392090
0.364166 0.357666 0.409210
0.384155 0.377472 0.429108
0.406342 0.399719 0.451569
0.430756 0.424103 0.476166
0.457001 0.450470 0.502777
0.484894 0.478668 0.530823
0.513916 0.508118 0.560211
0.544006 0.538788 0.590881
0.575012 0.570282 0.622314
0.606384 0.602509 0.654633
0.638245 0.635345 0.687103
0.361664 0.355133 0.406616
0.363983 0.357452 0.408966
0.368225 0.361725 0.413269
0.374878 0.368469 0.420044
0.384430 0.377747 0.429352
0.396362 0.389679 0.441498
0.411133 0.404449 0.456451
0.428345 0.421936 0.473877
0.448303 0.441620 0.493805
0.470154 0.463806 0.515991
0.493896 0.487762 0.540039
0.519379 0.513672 0.565796
0.546112 0.540802 0.592957
0.574036 0.569336 0.621399
0.603027 0.598999 0.651001
0.632568 0.629364 0.681305
0.662567 0.660675 0.710876
0.417297 0.410675 0.462708
0.419312 0.412689 0.464722
0.423126 0.416412 0.468475
0.428925 0.422272 0.474274
0.436951 0.430389 0.482391
0.447418 0.440826 0.493011
0.460358 0.453857 0.505951
0.475555 0.469238 0.521393
0.492859 0.486694 0.538971
0.512543 0.506653 0.558838
0.533875 0.528473 0.580536
0.557007 0.552032 0.603973
0.581635 0.576996 0.629028
0.607178 0.603363 0.655426
0.633972 0.630890 0.682709
0.661438 0.659393 0.709930
0.689667 0.688995 0.737854
0.473267 0.467072 0.519043
0.475159 0.468872 0.521057
0.478180 0.471893 0.524048
0.483337 0.477020 0.529144
0.490265 0.484161 0.536255
0.499390 0.493347 0.545593
0.510498 0.504761 0.557037
0.523987 0.518341 0.570618
0.539398 0.534088 0.586243
0.557068 0.551971 0.604004
0.576233 0.571594 0.623779
0.597168 0.593079 0.645081
0.619568 0.615967 0.668030
0.643066 0.640259 0.691742
0.667572 0.665894 0.715942
0.693298 0.692841 0.741241
0.719666 0.720551 0.767731
0.529144 0.523499 0.575806
0.530579 0.525055 0.577301
0.533295 0.527710 0.579956
0.537659 0.532257 0.584442
0.543915 0.538605 0.590729
0.551910 0.546722 0.598785
0.561798 0.556854 0.609039
0.573792 0.569061 0.621124
0.587585 0.583221 0.635101
0.603058 0.599152 0.651093
0.620209 0.616699 0.668732
0.638947 0.636017 0.687714
0.659302 0.657257 0.707642
0.680939 0.679810 0.729034
0.703613 0.703613 0.751617
0.727356 0.728729 0.775360
0.752289 0.755096 0.800171
0.584290 0.579865 0.632019
0.585693 0.581268 0.633392
0.588226 0.583862 0.635864
0.591949 0.587646 0.639740
0.597382 0.593323 0.645325
0.604523 0.600494 0.652466
0.613312 0.609497 0.661591
0.623779 0.620270 0.672333
0.636017 0.632935 0.684875
0.649902 0.647430 0.698456
0.665375 0.663513 0.713562
0.682190 0.681183 0.730347
0.700806 0.700684 0.748627
0.720428 0.721436 0.768524
0.741516 0.743652 0.789429
0.763672 0.767181 0.811646
0.786774 0.791809 0.834900
0.638885 0.635895 0.687653
0.640350 0.637360 0.688843
0.642273 0.639496 0.690979
0.645599 0.642914 0.694183
0.650391 0.647980 0.698944
0.656738 0.654480 0.705109
0.664490 0.662628 0.712708
0.673798 0.672394 0.722046
0.684906 0.683868 0.732941
0.697174 0.696869 0.745270
0.711212 0.711639 0.759094
0.726624 0.727875 0.774597
0.743439 0.745697 0.791504
0.761719 0.765106 0.809753
0.781219 0.785736 0.829163
0.801605 0.807648 0.849915
0.823120 0.830688 0.871277
0.692719 0.692169 0.740631
0.693726 0.693268 0.741638
0.695557 0.695160 0.743652
0.698425 0.698242 0.746521
0.702789 0.702759 0.750793
0.708466 0.708740 0.756409
0.715424 0.716125 0.763336
0.723877 0.724976 0.771667
0.733643 0.735413 0.781616
0.745087 0.747559 0.792969
0.757660 0.760864 0.805725
0.771851 0.775940 0.820099
0.787262 0.792328 0.835327
0.804077 0.810089 0.852142
0.821869 0.829346 0.870026
0.840881 0.849548 0.888824
0.860565 0.870941 0.908691
0.745758 0.748169 0.793579
0.746643 0.749115 0.794495
0.748291 0.750916 0.796295
0.751068 0.753662 0.799011
0.754852 0.757843 0.802887
0.760010 0.763336 0.807770
0.766357 0.769836 0.814362
0.773987 0.777954 0.821960
0.782928 0.787781 0.830872
0.793121 0.798615 0.841248
0.804901 0.811157 0.852905
0.817780 0.824768 0.865784
0.831696 0.839935 0.880035
0.847168 0.856293 0.895081
0.863403 0.874054 0.911316
0.880646 0.892548 0.928436
0.898956 0.912109 0.946411
0.798279 0.804108 0.846344
0.799042 0.804962 0.847198
0.800568 0.806580 0.848602
0.803162 0.809082 0.851196
0.806519 0.812958 0.854584
0.811188 0.817749 0.859222
0.816772 0.823883 0.864960
0.823730 0.831360 0.871887
0.831787 0.840027 0.880096
0.841339 0.850037 0.889252
0.851746 0.861450 0.899841
0.863525 0.874146 0.911438
0.876373 0.887787 0.924225
0.890320 0.902740 0.937897
0.905090 0.918762 0.952515
0.920807 0.935974 0.967377
0.937408 0.953766 0.976044
0.850006 0.859589 0.898102
0.850708 0.860352 0.898834
0.852051 0.861755 0.900116
0.854370 0.864075 0.902435
0.857391 0.867554 0.905426
0.861633 0.871857 0.909576
0.866638 0.877502 0.914734
0.872925 0.884277 0.920898
0.880249 0.892181 0.928070
0.888611 0.901215 0.936493
0.898285 0.911438 0.945679
0.908783 0.923004 0.956024
0.920471 0.935516 0.967072
0.933075 0.948914 0.976044
0.946594 0.963287 0.976044
0.960938 0.976044 0.976044
0.976044 0.976044 0.976044
0.019897 0.019440 0.020569
0.041656 0.050140 0.075073
0.059967 0.067352 0.097473
0.088776 0.093994 0.128967
0.123627 0.125519 0.164856
0.158447 0.158203 0.200775
0.193329 0.190918 0.236328
0.228363 0.224640 0.271912
0.263885 0.259338 0.308167
0.300781 0.295166 0.345245
0.338287 0.332092 0.383179
0.376251 0.369812 0.421356
0.414734 0.408081 0.459930
