app/src/main/assets/luts/Selenium.CUBE
#Created by: Leica Camera AG | Wetzar | Germany
#Unique Leica Look ID: 3
#Based Filmstyle Mode: Standard
TITLE "Leica Selenium"
#LUT size
LUT_3D_SIZE 9
#data domain
DOMAIN_MIN 0.0 0.0 0.0
DOMAIN_MAX 1.0 1.0 1.0
#LUT data points
0.019897 0.019440 0.020569
0.059967 0.067352 0.097473
0.123627 0.125519 0.164856
0.193329 0.190918 0.236328
0.263885 0.259338 0.308167
0.338287 0.332092 0.383179
0.414734 0.408081 0.459930
0.491516 0.485382 0.537476
0.567719 0.562836 0.614990
0.100647 0.104065 0.140839
0.122620 0.124481 0.163605
0.165924 0.165222 0.208527
0.222198 0.218445 0.265533
0.285767 0.280640 0.330353
0.355652 0.349335 0.400665
0.428711 0.422119 0.474121
0.502869 0.496826 0.549072
0.577148 0.572571 0.624786
0.201569 0.199036 0.244843
0.213287 0.209991 0.256714
0.239777 0.235748 0.283630
0.281433 0.276123 0.325684
0.334595 0.328278 0.379272
0.395538 0.388947 0.440735
0.461731 0.455292 0.507294
0.530396 0.524750 0.577057
0.600311 0.596252 0.648438
0.306580 0.300812 0.351135
0.314484 0.308655 0.359161
0.333313 0.327087 0.378021
0.364166 0.357666 0.409210
0.406342 0.399719 0.451569
0.457001 0.450470 0.502777
0.513916 0.508118 0.560211
0.575012 0.570282 0.622314
0.638245 0.635345 0.687103
0.417297 0.410675 0.462708
0.423126 0.416412 0.468475
0.436951 0.430389 0.482391
0.460358 0.453857 0.505951
0.492859 0.486694 0.538971
0.533875 0.528473 0.580536
0.581635 0.576996 0.629028
0.633972 0.630890 0.682709
0.689667 0.688995 0.737854
0.529144 0.523499 0.575806
0.533295 0.527710 0.579956
0.543915 0.538605 0.590729
0.561798 0.556854 0.609039
0.587585 0.583221 0.635101
0.620209 0.616699 0.668732
0.659302 0.657257 0.707642
0.703613 0.703613 0.751617
0.752289 0.755096 0.800171
0.638885 0.635895 0.687653
0.642273 0.639496 0.690979
0.650391 0.647980 0.698944
0.664490 0.662628 0.712708
0.684906 0.683868 0.732941
0.711212 0.711639 0.759094
0.743439 0.745697 0.791504
0.781219 0.785736 0.829163
0.823120 0.830688 0.871277
0.745758 0.748169 0.793579
0.748291 0.750916 0.796295
0.754852 0.757843 0.802887
0.766357 0.769836 0.814362
0.782928 0.787781 0.830872
0.804901 0.811157 0.852905
0.831696 0.839935 0.880035
0.863403 0.874054 0.911316
0.898956 0.912109 0.946411
0.850006 0.859589 0.898102
0.852051 0.861755 0.900116
0.857391 0.867554 0.905426
0.866638 0.877502 0.914734
0.880249 0.892181 0.928070
0.898285 0.911438 0.945679
0.920471 0.935516 0.967072
0.946594 0.963287 0.976044
0.976044 0.976044 0.976044
0.019897 0.019440 0.020569
0.059967 0.067352 0.097473
0.123627 0.125519 0.164856
0.193329 0.190918 0.236328
0.263885 0.259338 0.308167
0.338287 0.332092 0.383179
0.414734 0.408081 0.459930
0.491516 0.485382 0.537476
0.567719 0.562836 0.614990
0.100647 0.104065 0.140839
0.122620 0.124481 0.163605
0.165924 0.165222 0.208527
0.222198 0.218445 0.265533
0.285767 0.280640 0.330353
0.355652 0.349335 0.400665
0.428711 0.422119 0.474121
0.502869 0.496826 0.549072
0.577148 0.572571 0.624786
0.201569 0.199036 0.244843
0.213287 0.209991 0.256714
0.239777 0.235748 0.283630
0.281433 0.276123 0.325684
0.334595 0.328278 0.379272
0.395538 0.388947 0.440735
0.461731 0.455292 0.507294
0.530396 0.524750 0.577057
0.600311 0.596252 0.648438
0.306580 0.300812 0.351135
0.314484 0.308655 0.359161
0.333313 0.327087 0.378021
0.364166 0.357666 0.409210
0.406342 0.399719 0.451569
0.457001 0.450470 0.502777
0.513916 0.508118 0.560211
0.575012 0.570282 0.622314
0.638245 0.635345 0.687103
0.417297 0.410675 0.462708
0.423126 0.416412 0.468475
0.436951 0.430389 0.482391
0.460358 0.453857 0.505951
0.492859 0.486694 0.538971
0.533875 0.528473 0.580536
0.581635 0.576996 0.629028
0.633972 0.630890 0.682709
0.689667 0.688995 0.737854
0.529144 0.523499 0.575806
0.533295 0.527710 0.579956
0.543915 0.538605 0.590729
0.561798 0.556854 0.609039
0.587585 0.583221 0.635101
0.620209 0.616699 0.668732
0.659302 0.657257 0.707642
0.703613 0.703613 0.751617
0.752289 0.755096 0.800171
0.638885 0.635895 0.687653
0.642273 0.639496 0.690979
0.650391 0.647980 0.698944
0.664490 0.662628 0.712708
0.684906 0.683868 0.732941
0.711212 0.711639 0.759094
0.743439 0.745697 0.791504
0.781219 0.785736 0.829163
0.823120 0.830688 0.871277
0.745758 0.748169 0.793579
0.748291 0.750916 0.796295
0.754852 0.757843 0.802887
0.766357 0.769836 0.814362
0.782928 0.787781 0.830872
0.804901 0.811157 0.852905
0.831696 0.839935 0.880035
0.863403 0.874054 0.911316
0.898956 0.912109 0.946411
0.850006 0.859589 0.898102
0.852051 0.861755 0.900116
0.857391 0.867554 0.905426
0.866638 0.877502 0.914734
0.880249 0.892181 0.928070
0.898285 0.911438 0.945679
0.920471 0.935516 0.967072
0.946594 0.963287 0.976044
0.976044 0.976044 0.976044
0.019897 0.019440 0.020569
0.059967 0.067352 0.097473
0.123627 0.125519 0.164856
0.193329 0.190918 0.236328
0.263885 0.259338 0.308167
0.338287 0.332092 0.383179
0.414734 0.408081 0.459930
0.491516 0.485382 0.537476
0.567719 0.562836 0.614990
0.100647 0.104065 0.140839
0.122620 0.124481 0.163605
0.165924 0.165222 0.208527
0.222198 0.218445 0.265533
0.285767 0.280640 0.330353
0.355652 0.349335 0.400665
0.428711 0.422119 0.474121
0.502869 0.496826 0.549072
0.577148 0.572571 0.624786
0.201569 0.199036 0.244843
0.213287 0.209991 0.256714
0.239777 0.235748 0.283630
0.281433 0.276123 0.325684
0.334595 0.328278 0.379272
0.395538 0.388947 0.440735
0.461731 0.455292 0.507294
0.530396 0.524750 0.577057
0.600311 0.596252 0.648438
0.306580 0.300812 0.351135
0.314484 0.308655 0.359161
0.333313 0.327087 0.378021
0.364166 0.357666 0.409210
0.406342 0.399719 0.451569
0.457001 0.450470 0.502777
0.513916 0.508118 0.560211
0.575012 0.570282 0.622314
0.638245 0.635345 0.687103
0.417297 0.410675 0.462708
0.423126 0.416412 0.468475
0.436951 0.430389 0.482391
0.460358 0.453857 0.505951
0.492859 0.486694 0.538971
0.533875 0.528473 0.580536
0.581635 0.576996 0.629028
0.633972 0.630890 0.682709
0.689667 0.688995 0.737854
0.529144 0.523499 0.575806
0.533295 0.527710 0.579956
0.543915 0.538605 0.590729
0.561798 0.556854 0.609039
0.587585 0.583221 0.635101
0.620209 0.616699 0.668732
0.659302 0.657257 0.707642
0.703613 0.703613 0.751617
0.752289 0.755096 0.800171
0.638885 0.635895 0.687653
0.642273 0.639496 0.690979
0.650391 0.647980 0.698944
0.664490 0.662628 0.712708
0.684906 0.683868 0.732941
0.711212 0.711639 0.759094
0.743439 0.745697 0.791504
0.781219 0.785736 0.829163
0.823120 0.830688 0.871277
0.745758 0.748169 0.793579
0.748291 0.750916 0.796295
0.754852 0.757843 0.802887
0.766357 0.769836 0.814362
0.782928 0.787781 0.830872
0.804901 0.811157 0.852905
0.831696 0.839935 0.880035
0.863403 0.874054 0.911316
0.898956 0.912109 0.946411
0.850006 0.859589 0.898102
0.852051 0.861755 0.900116
0.857391 0.867554 0.905426
0.866638 0.877502 0.914734
0.880249 0.892181 0.928070
0.898285 0.911438 0.945679
0.920471 0.935516 0.967072
0.946594 0.963287 0.976044
0.976044 0.976044 0.976044
0.019897 0.019440 0.020569
0.059967 0.067352 0.097473
0.123627 0.125519 0.164856
0.193329 0.190918 0.236328
0.263885 0.259338 0.308167
0.338287 0.332092 0.383179
0.414734 0.408081 0.459930
0.491516 0.485382 0.537476
0.567719 0.562836 0.614990
0.100647 0.104065 0.140839
0.122620 0.124481 0.163605
0.165924 0.165222 0.208527
0.222198 0.218445 0.265533
0.285767 0.280640 0.330353
0.355652 0.349335 0.400665
0.428711 0.422119 0.474121
0.502869 0.496826 0.549072
0.577148 0.572571 0.624786
0.201569 0.199036 0.244843
0.213287 0.209991 0.256714
0.239777 0.235748 0.283630
0.281433 0.276123 0.325684
0.334595 0.328278 0.379272
0.395538 0.388947 0.440735
0.461731 0.455292 0.507294
0.530396 0.524750 0.577057
0.600311 0.596252 0.648438
0.306580 0.300812 0.351135
0.314484 0.308655 0.359161
0.333313 0.327087 0.378021
0.364166 0.357666 0.409210
0.406342 0.399719 0.451569
0.457001 0.450470 0.502777
0.513916 0.508118 0.560211
0.575012 0.570282 0.622314
0.638245 0.635345 0.687103
0.417297 0.410675 0.462708
0.423126 0.416412 0.468475
0.436951 0.430389 0.482391
0.460358 0.453857 0.505951
0.492859 0.486694 0.538971
0.533875 0.528473 0.580536
0.581635 0.576996 0.629028
0.633972 0.630890 0.682709
0.689667 0.688995 0.737854
0.529144 0.523499 0.575806
0.533295 0.527710 0.579956
0.543915 0.538605 0.590729
0.561798 0.556854 0.609039
0.587585 0.583221 0.635101
0.620209 0.616699 0.668732
0.659302 0.657257 0.707642
0.703613 0.703613 0.751617
0.752289 0.755096 0.800171
0.638885 0.635895 0.687653
0.642273 0.639496 0.690979
0.650391 0.647980 0.698944
0.664490 0.662628 0.712708
0.684906 0.683868 0.732941
0.711212 0.711639 0.759094
0.743439 0.745697 0.791504
0.781219 0.785736 0.829163
0.823120 0.830688 0.871277
0.745758 0.748169 0.793579
0.748291 0.750916 0.796295
0.754852 0.757843 0.802887
0.766357 0.769836 0.814362
0.782928 0.787781 0.830872
0.804901 0.811157 0.852905
0.831696 0.839935 0.880035
0.863403 0.874054 0.911316
0.898956 0.912109 0.946411
0.850006 0.859589 0.898102
0.852051 0.861755 0.900116
0.857391 0.867554 0.905426
0.866638 0.877502 0.914734
0.880249 0.892181 0.928070
0.898285 0.911438 0.945679
0.920471 0.935516 0.967072
0.946594 0.963287 0.976044
0.976044 0.976044 0.976044
0.019897 0.019440 0.020569
0.059967 0.067352 0.097473
0.123627 0.125519 0.164856
0.193329 0.190918 0.236328
0.263885 0.259338 0.308167
0.338287 0.332092 0.383179
0.414734 0.408081 0.459930
0.491516 0.485382 0.537476
0.567719 0.562836 0.614990
0.100647 0.104065 0.140839
0.122620 0.124481 0.163605
0.165924 0.165222 0.208527
0.222198 0.218445 0.265533
0.285767 0.280640 0.330353
0.355652 0.349335 0.400665
0.428711 0.422119 0.474121
0.502869 0.496826 0.549072
0.577148 0.572571 0.624786
0.201569 0.199036 0.244843
0.213287 0.209991 0.256714
0.239777 0.235748 0.283630
0.281433 0.276123 0.325684
0.334595 0.328278 0.379272
0.395538 0.388947 0.440735
0.461731 0.455292 0.507294
0.530396 0.524750 0.577057
0.600311 0.596252 0.648438
0.306580 0.300812 0.351135
0.314484 0.308655 0.359161
0.333313 0.327087 0.378021
0.364166 0.357666 0.409210
0.406342 0.399719 0.451569
0.457001 0.450470 0.502777
0.513916 0.508118 0.560211
0.575012 0.570282 0.622314
0.638245 0.635345 0.687103
0.417297 0.410675 0.462708
0.423126 0.416412 0.468475
0.436951 0.430389 0.482391
0.460358 0.453857 0.505951
0.492859 0.486694 0.538971
0.533875 0.528473 0.580536
0.581635 0.576996 0.629028
0.633972 0.630890 0.682709
0.689667 0.688995 0.737854
0.529144 0.523499 0.575806
0.533295 0.527710 0.579956
0.543915 0.538605 0.590729
0.561798 0.556854 0.609039
0.587585 0.583221 0.635101
0.620209 0.616699 0.668732
0.659302 0.657257 0.707642
0.703613 0.703613 0.751617
0.752289 0.755096 0.800171
0.638885 0.635895 0.687653
0.642273 0.639496 0.690979
0.650391 0.647980 0.698944
0.664490 0.662628 0.712708
0.684906 0.683868 0.732941
0.711212 0.711639 0.759094
0.743439 0.745697 0.791504
0.781219 0.785736 0.829163
0.823120 0.830688 0.871277
0.745758 0.748169 0.793579
0.748291 0.750916 0.796295
0.754852 0.757843 0.802887
0.766357 0.769836 0.814362
0.782928 0.787781 0.830872
0.804901 0.811157 0.852905
0.831696 0.839935 0.880035
0.863403 0.874054 0.911316
0.898956 0.912109 0.946411
0.850006 0.859589 0.898102
0.852051 0.861755 0.900116
0.857391 0.867554 0.905426
0.866638 0.877502 0.914734
0.880249 0.892181 0.928070
0.898285 0.911438 0.945679
0.920471 0.935516 0.967072
0.946594 0.963287 0.976044
0.976044 0.976044 0.976044
0.019897 0.019440 0.020569
0.059967 0.067352 0.097473
0.123627 0.125519 0.164856
0.193329 0.190918 0.236328
0.263885 0.259338 0.308167
0.338287 0.332092 0.383179
0.414734 0.408081 0.459930
0.491516 0.485382 0.537476
0.567719 0.562836 0.614990
0.100647 0.104065 0.140839
0.122620 0.124481 0.163605
0.165924 0.165222 0.208527
0.222198 0.218445 0.265533
0.285767 0.280640 0.330353
0.355652 0.349335 0.400665
0.428711 0.422119 0.474121
0.502869 0.496826 0.549072
0.577148 0.572571 0.624786
0.201569 0.199036 0.244843
0.213287 0.209991 0.256714
0.239777 0.235748 0.283630
0.281433 0.276123 0.325684
0.334595 0.328278 0.379272
0.395538 0.388947 0.440735
0.461731 0.455292 0.507294
0.530396 0.524750 0.577057
0.600311 0.596252 0.648438
0.306580 0.300812 0.351135
0.314484 0.308655 0.359161
0.333313 0.327087 0.378021
0.364166 0.357666 0.409210
0.406342 0.399719 0.451569
0.457001 0.450470 0.502777
0.513916 0.508118 0.560211
0.575012 0.570282 0.622314
0.638245 0.635345 0.687103
0.417297 0.410675 0.462708
0.423126 0.416412 0.468475
0.436951 0.430389 0.482391
0.460358 0.453857 0.505951
0.492859 0.486694 0.538971
0.533875 0.528473 0.580536
0.581635 0.576996 0.629028
0.633972 0.630890 0.682709
0.689667 0.688995 0.737854
0.529144 0.523499 0.575806
0.533295 0.527710 0.579956
0.543915 0.538605 0.590729
0.561798 0.556854 0.609039
0.587585 0.583221 0.635101
0.620209 0.616699 0.668732
0.659302 0.657257 0.707642
0.703613 0.703613 0.751617
0.752289 0.755096 0.800171
0.638885 0.635895 0.687653
0.642273 0.639496 0.690979
0.650391 0.647980 0.698944
0.664490 0.662628 0.712708
0.684906 0.683868 0.732941
0.711212 0.711639 0.759094
0.743439 0.745697 0.791504
0.781219 0.785736 0.829163
0.823120 0.830688 0.871277
0.745758 0.748169 0.793579
0.748291 0.750916 0.796295
0.754852 0.757843 0.802887
0.766357 0.769836 0.814362
0.782928 0.787781 0.830872
0.804901 0.811157 0.852905
0.831696 0.839935 0.880035
0.863403 0.874054 0.911316
0.898956 0.912109 0.946411
0.850006 0.859589 0.898102
0.852051 0.861755 0.900116
0.857391 0.867554 0.905426
0.866638 0.877502 0.914734
0.880249 0.892181 0.928070
0.898285 0.911438 0.945679
0.920471 0.935516 0.967072
0.946594 0.963287 0.976044
0.976044 0.976044 0.976044
0.019897 0.019440 0.020569
0.059967 0.067352 0.097473
0.123627 0.125519 0.164856
0.193329 0.190918 0.236328
0.263885 0.259338 0.308167
0.338287 0.332092 0.383179
0.414734 0.408081 0.459930
0.491516 0.485382 0.537476
0.567719 0.562836 0.614990
0.100647 0.104065 0.140839
0.122620 0.124481 0.163605
0.165924 0.165222 0.208527
0.222198 0.218445 0.265533
0.285767 0.280640 0.330353
0.355652 0.349335 0.400665
0.428711 0.422119 0.474121
0.502869 0.496826 0.549072
0.577148 0.572571 0.624786
0.201569 0.199036 0.244843
0.213287 0.209991 0.256714
0.239777 0.235748 0.283630
0.281433 0.276123 0.325684
0.334595 0.328278 0.379272
0.395538 0.388947 0.440735
0.461731 0.455292 0.507294
0.530396 0.524750 0.577057
0.600311 0.596252 0.648438
0.306580 0.300812 0.351135
0.314484 0.308655 0.359161
0.333313 0.327087 0.378021
0.364166 0.357666 0.409210
0.406342 0.399719 0.451569
0.457001 0.450470 0.502777
0.513916 0.508118 0.560211
0.575012 0.570282 0.622314
0.638245 0.635345 0.687103
0.417297 0.410675 0.462708
0.423126 0.416412 0.468475
0.436951 0.430389 0.482391
0.460358 0.453857 0.505951
0.492859 0.486694 0.538971
0.533875 0.528473 0.580536
0.581635 0.576996 0.629028
0.633972 0.630890 0.682709
0.689667 0.688995 0.737854
0.529144 0.523499 0.575806
0.533295 0.527710 0.579956
0.543915 0.538605 0.590729
0.561798 0.556854 0.609039
0.587585 0.583221 0.635101
0.620209 0.616699 0.668732
0.659302 0.657257 0.707642
0.703613 0.703613 0.751617
0.752289 0.755096 0.800171
0.638885 0.635895 0.687653
0.642273 0.639496 0.690979
0.650391 0.647980 0.698944
0.664490 0.662628 0.712708
0.684906 0.683868 0.732941
0.711212 0.711639 0.759094
0.743439 0.745697 0.791504
0.781219 0.785736 0.829163
0.823120 0.830688 0.871277
0.745758 0.748169 0.793579
0.748291 0.750916 0.796295
0.754852 0.757843 0.802887
0.766357 0.769836 0.814362
0.782928 0.787781 0.830872
0.804901 0.811157 0.852905
0.831696 0.839935 0.880035
0.863403 0.874054 0.911316
0.898956 0.912109 0.946411
0.850006 0.859589 0.898102
0.852051 0.861755 0.900116
0.857391 0.867554 0.905426
0.866638 0.877502 0.914734
0.880249 0.892181 0.928070
0.898285 0.911438 0.945679
0.920471 0.935516 0.967072
0.946594 0.963287 0.976044
0.976044 0.976044 0.976044
0.019897 0.019440 0.020569
0.059967 0.067352 0.097473
0.123627 0.125519 0.164856
0.193329 0.190918 0.236328
0.263885 0.259338 0.308167
0.338287 0.332092 0.383179
0.414734 0.408081 0.459930
0.491516 0.485382 0.537476
0.567719 0.562836 0.614990
0.100647 0.104065 0.140839
0.122620 0.124481 0.163605
0.165924 0.165222 0.208527
0.222198 0.218445 0.265533
0.285767 0.280640 0.330353
0.355652 0.349335 0.400665
0.428711 0.422119 0.474121
0.502869 0.496826 0.549072
0.577148 0.572571 0.624786
0.201569 0.199036 0.244843
0.213287 0.209991 0.256714
0.239777 0.235748 0.283630
0.281433 0.276123 0.325684
0.334595 0.328278 0.379272
0.395538 0.388947 0.440735
0.461731 0.455292 0.507294
0.530396 0.524750 0.577057
0.600311 0.596252 0.648438
0.306580 0.300812 0.351135
0.314484 0.308655 0.359161
0.333313 0.327087 0.378021
0.364166 0.357666 0.409210
0.406342 0.399719 0.451569
0.457001 0.450470 0.502777
0.513916 0.508118 0.560211
0.575012 0.570282 0.622314
0.638245 0.635345 0.687103
0.417297 0.410675 0.462708
0.423126 0.416412 0.468475
0.436951 0.430389 0.482391
0.460358 0.453857 0.505951
0.492859 0.486694 0.538971
0.533875 0.528473 0.580536
0.581635 0.576996 0.629028
0.633972 0.630890 0.682709
0.689667 0.688995 0.737854
0.529144 0.523499 0.575806
0.533295 0.527710 0.579956
0.543915 0.538605 0.590729
0.561798 0.556854 0.609039
0.587585 0.583221 0.635101
0.620209 0.616699 0.668732
0.659302 0.657257 0.707642
0.703613 0.703613 0.751617
0.752289 0.755096 0.800171
0.638885 0.635895 0.687653
0.642273 0.639496 0.690979
0.650391 0.647980 0.698944
0.664490 0.662628 0.712708
0.684906 0.683868 0.732941
0.711212 0.711639 0.759094
0.743439 0.745697 0.791504
0.781219 0.785736 0.829163
0.823120 0.830688 0.871277
0.745758 0.748169 0.793579
0.748291 0.750916 0.796295
0.754852 0.757843 0.802887
0.766357 0.769836 0.814362
0.782928 0.787781 0.830872
0.804901 0.811157 0.852905
0.831696 0.839935 0.880035
0.863403 0.874054 0.911316
0.898956 0.912109 0.946411
0.850006 0.859589 0.898102
0.852051 0.861755 0.900116
0.857391 0.867554 0.905426
0.866638 0.877502 0.914734
0.880249 0.892181 0.928070
0.898285 0.911438 0.945679
0.920471 0.935516 0.967072
0.946594 0.963287 0.976044
0.976044 0.976044 0.976044
0.019897 0.019440 0.020569
0.059967 0.067352 0.097473
0.123627 0.125519 0.164856
0.193329 0.190918 0.236328
0.263885 0.259338 0.308167
0.338287 0.332092 0.383179
0.414734 0.408081 0.459930
0.491516 0.485382 0.537476
0.567719 0.562836 0.614990
0.100647 0.104065 0.140839
0.122620 0.124481 0.163605
0.165924 0.165222 0.208527
0.222198 0.218445 0.265533
0.285767 0.280640 0.330353
0.355652 0.349335 0.400665
0.428711 0.422119 0.474121
0.502869 0.496826 0.549072
0.577148 0.572571 0.624786
0.201569 0.199036 0.244843
0.213287 0.209991 0.256714
0.239777 0.235748 0.283630
0.281433 0.276123 0.325684
0.334595 0.328278 0.379272
0.395538 0.388947 0.440735
0.461731 0.455292 0.507294
0.530396 0.524750 0.577057
0.600311 0.596252 0.648438
0.306580 0.300812 0.351135
0.314484 0.308655 0.359161
0.333313 0.327087 0.378021
0.364166 0.357666 0.409210
0.406342 0.399719 0.451569
0.457001 0.450470 0.502777
0.513916 0.508118 0.560211
0.575012 0.570282 0.622314
0.638245 0.635345 0.687103
0.417297 0.410675 0.462708
0.423126 0.416412 0.468475
0.436951 0.430389 0.482391
0.460358 0.453857 0.505951
0.492859 0.486694 0.538971
0.533875 0.528473 0.580536
0.581635 0.576996 0.629028
0.633972 0.630890 0.682709
0.689667 0.688995 0.737854
0.529144 0.523499 0.575806
0.533295 0.527710 0.579956
0.543915 0.538605 0.590729
0.561798 0.556854 0.609039
0.587585 0.583221 0.635101
0.620209 0.616699 0.668732
0.659302 0.657257 0.707642
0.703613 0.703613 0.751617
0.752289 0.755096 0.800171
0.638885 0.635895 0.687653
0.642273 0.639496 0.690979
0.650391 0.647980 0.698944
0.664490 0.662628 0.712708
0.684906 0.683868 0.732941
0.711212 0.711639 0.759094
0.743439 0.745697 0.791504
0.781219 0.785736 0.829163
0.823120 0.830688 0.871277
0.745758 0.748169 0.793579
0.748291 0.750916 0.796295
0.754852 0.757843 0.802887
0.766357 0.769836 0.814362
0.782928 0.787781 0.830872
0.804901 0.811157 0.852905
0.831696 0.839935 0.880035
0.863403 0.874054 0.911316
0.898956 0.912109 0.946411
0.850006 0.859589 0.898102
0.852051 0.861755 0.900116
0.857391 0.867554 0.905426
0.866638 0.877502 0.914734
0.880249 0.892181 0.928070
0.898285 0.911438 0.945679
0.920471 0.935516 0.967072
0.946594 0.963287 0.976044
0.976044 0.976044 0.976044
