app/src/main/assets/luts/Sepia.CUBE
#Created by: Leica Camera AG | Wetzar | Germany
#Unique Leica Look ID: 5
#Based Filmstyle Mode: Standard
TITLE "Leica Sepia"
#LUT size
LUT_3D_SIZE 9
#data domain
DOMAIN_MIN 0.0 0.0 0.0
DOMAIN_MAX 1.0 1.0 1.0
#LUT data points
0.000000 0.000000 0.000000
0.041290 0.040131 0.028595
0.081177 0.077972 0.064117
0.128815 0.121674 0.096710
0.178253 0.169739 0.136963
0.222351 0.212830 0.179871
0.270660 0.258911 0.221161
0.321014 0.309448 0.267090
0.358246 0.345642 0.307404
0.077087 0.074158 0.061127
0.111603 0.105042 0.084595
0.155334 0.147308 0.116638
0.197876 0.189819 0.156799
0.240295 0.229889 0.195770
0.289703 0.277802 0.237305
0.333984 0.323029 0.281921
0.372833 0.359161 0.319092
0.423920 0.409485 0.359467
0.165253 0.156982 0.125122
0.196198 0.188171 0.155060
0.228790 0.219635 0.185822
0.270477 0.258759 0.221161
0.316040 0.304108 0.261871
0.350922 0.339020 0.300659
0.395233 0.380432 0.335358
0.442352 0.428162 0.378235
0.483002 0.467712 0.418976
0.246613 0.236053 0.201263
0.280426 0.268402 0.229401
0.315826 0.303894 0.261597
0.344391 0.332977 0.293488
0.380402 0.366089 0.324554
0.425751 0.411285 0.361237
0.465271 0.450562 0.402039
0.505463 0.489410 0.438416
0.552094 0.534637 0.477905
0.333862 0.322906 0.281769
0.357208 0.344940 0.306610
0.389740 0.374939 0.331299
0.426453 0.411987 0.361938
0.459625 0.445129 0.396393
0.495209 0.479431 0.429718
0.536926 0.519867 0.464813
0.582336 0.564392 0.504883
0.628448 0.609711 0.547241
0.415649 0.400879 0.351807
0.445190 0.430725 0.380859
0.472626 0.457642 0.409088
0.503021 0.486816 0.436279
0.538208 0.521118 0.465881
0.576996 0.558990 0.500061
0.619446 0.600708 0.538818
0.662292 0.642914 0.578583
0.705292 0.685242 0.618530
0.494720 0.478943 0.429230
0.524384 0.507690 0.454102
0.557098 0.539703 0.482330
0.591766 0.573486 0.513458
0.627502 0.608643 0.546326
0.664215 0.644592 0.580200
0.701263 0.681122 0.614807
0.740662 0.719971 0.651550
0.779755 0.758423 0.688171
0.583832 0.565887 0.506409
0.615723 0.597168 0.535431
0.648102 0.628876 0.565277
0.680939 0.661255 0.595856
0.714142 0.693970 0.626892
0.747864 0.726990 0.658295
0.781799 0.760498 0.689911
0.815704 0.793854 0.721771
0.851868 0.829407 0.755371
0.674500 0.654907 0.589905
0.704712 0.684662 0.617920
0.734924 0.714325 0.646179
0.765442 0.744293 0.674683
0.796143 0.774567 0.703400
0.826996 0.805023 0.732391
0.858307 0.835724 0.761353
0.890076 0.867035 0.790924
0.922119 0.898468 0.820526
0.001007 0.000092 0.000122
0.052917 0.050934 0.040771
0.094269 0.089020 0.073090
0.142944 0.135223 0.106659
0.190491 0.181854 0.148987
0.234009 0.224274 0.190582
0.284760 0.272644 0.233032
0.331299 0.320221 0.278564
0.369995 0.356110 0.316803
0.089844 0.084869 0.069733
0.125244 0.118134 0.093811
0.168304 0.160767 0.128418
0.209961 0.201141 0.168243
0.252991 0.242279 0.206818
0.303711 0.291473 0.249512
0.343384 0.332001 0.292480
0.386078 0.371735 0.328705
0.436127 0.421875 0.371613
0.178253 0.169800 0.137421
0.208405 0.199585 0.166656
0.241394 0.230988 0.196808
0.284393 0.272644 0.232697
0.327026 0.315887 0.273895
0.361481 0.348511 0.310089
0.409454 0.394318 0.346313
0.453644 0.439331 0.390198
0.494720 0.478943 0.429230
0.260010 0.248627 0.212555
0.294525 0.282104 0.241241
0.326813 0.315643 0.273407
0.353851 0.341980 0.303650
0.394104 0.379364 0.334473
0.437927 0.423676 0.373383
0.476044 0.461060 0.412537
0.518097 0.501617 0.448944
0.565613 0.547821 0.489716
0.343170 0.331818 0.292419
0.368744 0.355225 0.315948
0.403503 0.388611 0.341644
0.438599 0.424347 0.374207
0.470276 0.455566 0.407135
0.507385 0.491058 0.439911
0.550171 0.532928 0.476288
0.595764 0.577423 0.517151
0.641724 0.622772 0.559570
0.428436 0.413971 0.363800
0.456207 0.441650 0.392639
0.483582 0.468262 0.419434
0.515472 0.498871 0.446564
0.551697 0.534241 0.477539
0.590240 0.572327 0.512238
0.632660 0.613831 0.550995
0.675323 0.655731 0.590729
0.717804 0.697449 0.630219
0.506836 0.490479 0.439362
0.537415 0.520355 0.465179
0.570557 0.552673 0.494293
0.605103 0.586578 0.525604
0.640778 0.621674 0.558472
0.677124 0.657349 0.592255
0.713867 0.693604 0.626587
0.752899 0.732056 0.663055
0.791626 0.770264 0.699310
0.597260 0.578888 0.518555
0.628998 0.610107 0.547760
0.661041 0.641663 0.577423
0.693634 0.673767 0.607758
0.726532 0.706177 0.638428
0.760010 0.739075 0.669678
0.793671 0.772003 0.701019
0.827271 0.805267 0.732574
0.863190 0.840546 0.765961
0.687256 0.667328 0.601746
0.717163 0.696960 0.629700
0.747223 0.726471 0.657715
0.777405 0.756104 0.685944
0.807770 0.786041 0.714294
0.838348 0.816162 0.742889
0.869629 0.846893 0.771912
0.901154 0.877808 0.801086
0.933075 0.909393 0.830750
0.019775 0.018158 0.013489
0.063141 0.061005 0.050415
0.107544 0.101135 0.081482
0.156616 0.148560 0.117706
0.202332 0.193604 0.160767
0.246765 0.236206 0.201416
0.298676 0.286560 0.245117
0.340698 0.329590 0.289673
0.383057 0.368591 0.326355
0.100739 0.096039 0.077698
0.137909 0.130371 0.102905
0.181213 0.173340 0.140167
0.221527 0.212585 0.179382
0.266693 0.255127 0.218109
0.316254 0.304291 0.261932
0.352875 0.341003 0.302673
0.400482 0.385437 0.339203
0.447601 0.433441 0.383759
0.190460 0.181915 0.149414
0.220184 0.210693 0.177856
0.254181 0.243439 0.207733
0.298492 0.286407 0.245117
0.336823 0.325623 0.285126
0.373657 0.359650 0.319611
0.422516 0.408112 0.358215
0.464691 0.449982 0.401489
0.506836 0.490479 0.439362
0.273895 0.262054 0.223846
0.307800 0.295898 0.253571
0.336609 0.325378 0.284821
0.365173 0.351807 0.313110
0.408142 0.393341 0.345459
0.449310 0.434937 0.385468
0.487274 0.471924 0.422821
0.530975 0.514099 0.459717
0.578857 0.560852 0.501801
0.352753 0.340851 0.302490
0.381927 0.367493 0.325500
0.417328 0.402496 0.353210
0.449799 0.435638 0.385986
0.481476 0.466217 0.417572
0.520111 0.503357 0.450470
0.563629 0.545868 0.487976
0.609039 0.590637 0.529419
0.654785 0.635498 0.571594
0.440338 0.426147 0.376068
0.467072 0.452332 0.403809
0.495422 0.479431 0.429779
0.528229 0.511414 0.457336
0.565063 0.547455 0.489349
0.603668 0.585327 0.524445
0.645844 0.626678 0.563232
0.688110 0.668182 0.602509
0.730286 0.709747 0.641937
0.519562 0.502838 0.450043
0.550690 0.533447 0.476715
0.583893 0.565948 0.506409
0.618530 0.599792 0.537994
0.653778 0.634491 0.570587
0.690002 0.670013 0.604126
0.726257 0.705780 0.638153
0.764984 0.743835 0.674255
0.803406 0.781830 0.710175
0.610596 0.592163 0.530823
0.642273 0.623169 0.559998
0.674103 0.654480 0.589417
0.706299 0.686249 0.619568
0.738892 0.718384 0.650024
0.772034 0.750793 0.680847
0.805298 0.783600 0.711975
0.838684 0.816406 0.743134
0.874420 0.851501 0.776306
0.699951 0.680023 0.613708
0.729736 0.709229 0.641388
0.759430 0.738464 0.669067
0.789246 0.767883 0.696960
0.819336 0.797455 0.725220
0.849731 0.827423 0.753510
0.880707 0.857788 0.782135
0.912170 0.888763 0.811401
0.944092 0.920135 0.840790
0.032532 0.032196 0.022980
0.074219 0.070312 0.058441
0.119598 0.112762 0.090302
0.170135 0.161774 0.129486
0.213989 0.205078 0.171906
0.260193 0.248779 0.212524
0.311829 0.299896 0.257507
0.350067 0.338470 0.299744
0.396881 0.382263 0.336578
0.113647 0.106903 0.085632
0.150665 0.142761 0.112885
0.192871 0.184174 0.151276
0.233582 0.223846 0.190063
0.280975 0.268921 0.229828
0.327209 0.316040 0.273895
0.363861 0.350800 0.312012
0.414215 0.399475 0.350525
0.458771 0.444244 0.395355
0.201874 0.192474 0.159882
0.231415 0.221191 0.187775
0.266510 0.255402 0.218079
0.311768 0.299805 0.257202
0.345978 0.334686 0.295654
0.387024 0.372620 0.329315
0.434814 0.420593 0.370331
0.475433 0.460480 0.412048
0.519562 0.502838 0.450043
0.287903 0.276093 0.235809
0.320038 0.308441 0.265900
0.345825 0.334503 0.295441
0.377716 0.363495 0.322540
0.421600 0.406952 0.357147
0.460327 0.445831 0.397095
0.499115 0.483032 0.432953
0.544220 0.527130 0.471130
0.592377 0.574097 0.514099
0.363708 0.350647 0.311829
0.395782 0.380951 0.335693
0.429901 0.415680 0.365356
0.460907 0.446411 0.397675
0.492889 0.477356 0.427643
0.533051 0.516083 0.461304
0.576935 0.559143 0.500183
0.622406 0.603607 0.541595
0.667847 0.648376 0.583771
0.451813 0.437408 0.387939
0.477966 0.462738 0.414246
0.507416 0.491089 0.439941
0.541473 0.524261 0.468475
0.578522 0.560455 0.501373
0.617065 0.598511 0.536774
0.658966 0.639587 0.575439
0.700806 0.680725 0.614441
0.742493 0.721802 0.653290
0.532623 0.515472 0.460846
0.564117 0.546387 0.488464
0.597198 0.579010 0.518555
0.631775 0.612671 0.550110
0.666809 0.647339 0.582764
0.702606 0.682465 0.615997
0.738647 0.718018 0.649780
0.776917 0.755737 0.685547
0.815063 0.793121 0.721100
0.623993 0.605316 0.543030
0.655212 0.635925 0.572021
0.686920 0.666992 0.601349
0.718811 0.698456 0.631165
0.751160 0.730469 0.661438
0.783966 0.762573 0.692047
0.816895 0.794922 0.722748
0.850098 0.827667 0.753784
0.885590 0.862488 0.786682
0.712494 0.692474 0.625366
0.741913 0.721222 0.652740
0.771362 0.750153 0.680267
0.801056 0.779297 0.708008
0.830841 0.808685 0.735809
0.861115 0.838593 0.763977
0.891876 0.868805 0.792633
0.923218 0.899597 0.821503
0.955048 0.930817 0.850922
0.041992 0.040955 0.029663
0.085114 0.080536 0.066620
0.132843 0.124542 0.098846
0.181763 0.173218 0.140656
0.225830 0.216217 0.182922
0.274048 0.262207 0.224060
0.323242 0.312073 0.269623
0.360443 0.347839 0.309479
0.410797 0.395905 0.347687
0.126160 0.118988 0.094299
0.162994 0.154816 0.123322
0.203522 0.194794 0.161896
0.244873 0.234894 0.200165
0.294952 0.282928 0.241882
0.336945 0.325714 0.285065
0.376343 0.362213 0.321594
0.427063 0.412598 0.362549
0.469452 0.454742 0.406281
0.212250 0.202850 0.170258
0.242432 0.231934 0.197540
0.279907 0.267944 0.229004
0.322479 0.310883 0.268524
0.356018 0.343750 0.305389
0.401184 0.386108 0.339722
0.446564 0.432159 0.382568
0.486847 0.471252 0.422333
0.532623 0.515472 0.460846
0.300690 0.288544 0.246918
0.329651 0.318573 0.276733
0.354828 0.342590 0.304321
0.390228 0.375671 0.331665
0.434021 0.419525 0.369385
0.471008 0.456299 0.407745
0.511566 0.495087 0.443329
0.557648 0.540222 0.482788
0.605682 0.587158 0.526215
0.376160 0.362000 0.321381
0.409668 0.394806 0.346680
0.441711 0.427521 0.377472
0.471680 0.456970 0.408447
0.504974 0.488892 0.437927
0.546295 0.528809 0.472748
0.590424 0.572327 0.512299
0.635651 0.616638 0.553864
0.680725 0.661163 0.595703
0.462708 0.447968 0.399475
0.489288 0.473633 0.424500
0.520203 0.503418 0.450470
0.554718 0.537201 0.480194
0.591888 0.573792 0.513672
0.630219 0.611450 0.548889
0.671906 0.652191 0.587372
0.713409 0.693237 0.626129
0.754822 0.733826 0.664795
0.545654 0.528351 0.472260
0.577515 0.559692 0.500641
0.610596 0.592194 0.530945
0.644989 0.625671 0.562408
0.679657 0.659851 0.594604
0.715179 0.694855 0.627747
0.750763 0.730072 0.661072
0.788818 0.767456 0.696564
0.826569 0.804596 0.731934
0.637177 0.618164 0.555328
0.668243 0.648743 0.584137
0.699677 0.679565 0.613312
0.731323 0.710785 0.642883
0.763275 0.742279 0.672791
0.795685 0.774109 0.702972
0.828430 0.806396 0.733551
0.861450 0.838928 0.764252
0.896606 0.873535 0.796997
0.724976 0.704651 0.637054
0.754272 0.733307 0.664307
0.783386 0.761993 0.691498
0.812714 0.790894 0.718933
0.842285 0.819977 0.746521
0.872345 0.849548 0.774445
0.902954 0.879761 0.802795
0.934113 0.910339 0.831635
0.965973 0.941650 0.861023
0.052887 0.050903 0.040741
0.095703 0.091400 0.074310
0.145142 0.137329 0.108246
0.192566 0.184570 0.151581
0.237122 0.226807 0.193024
0.288086 0.276276 0.236053
0.333527 0.322510 0.281158
0.372589 0.358917 0.318970
0.423981 0.409576 0.359711
0.138733 0.131226 0.103821
0.175049 0.166595 0.134125
0.214539 0.205109 0.172424
0.257324 0.246033 0.210327
0.307129 0.295258 0.253052
0.346130 0.334808 0.295654
0.390106 0.375305 0.331573
0.439148 0.424927 0.374756
0.480591 0.465363 0.416870
0.222595 0.213623 0.180389
0.254059 0.243317 0.207611
0.292603 0.280640 0.239716
0.331696 0.320648 0.279083
0.366333 0.352875 0.313965
0.414825 0.400085 0.351105
0.457367 0.443085 0.394012
0.498535 0.482422 0.432373
0.545654 0.528351 0.472260
0.312408 0.300842 0.258148
0.338470 0.327271 0.286957
0.365143 0.351776 0.313080
0.402985 0.388123 0.341339
0.444733 0.430267 0.380463
0.482208 0.466919 0.418152
0.524292 0.507568 0.453979
0.571106 0.553192 0.494751
0.619019 0.600281 0.538513
0.388550 0.374084 0.330475
0.421936 0.407288 0.357544
0.452179 0.437805 0.388428
0.481873 0.466614 0.417999
0.516663 0.500000 0.447510
0.559692 0.542053 0.484558
0.603821 0.585358 0.524597
0.648865 0.629639 0.566010
0.693542 0.673523 0.607605
0.473389 0.458649 0.410095
0.501343 0.485168 0.434723
0.533112 0.516144 0.461365
0.568115 0.550446 0.492157
0.605255 0.586761 0.525818
0.643463 0.624481 0.561188
0.684692 0.664948 0.599396
0.725861 0.705383 0.637756
0.766846 0.745789 0.675995
0.558990 0.541565 0.484070
0.590973 0.572876 0.512756
0.624023 0.605347 0.543121
0.657990 0.638611 0.574463
0.692444 0.672577 0.606598
0.727631 0.707001 0.639282
0.762909 0.741943 0.672485
0.800629 0.778870 0.707550
0.838013 0.815735 0.742462
0.650269 0.631195 0.567474
0.681183 0.661499 0.596069
0.712189 0.692017 0.625000
0.743591 0.722992 0.654327
0.775421 0.754150 0.684052
0.807465 0.785614 0.713959
0.839905 0.817596 0.744141
0.872711 0.849823 0.774719
0.907715 0.884277 0.807190
0.737366 0.716888 0.648590
0.766266 0.745331 0.675476
0.795013 0.773468 0.702393
0.824188 0.802124 0.729614
0.853638 0.831238 0.757019
0.883545 0.860596 0.784882
0.914032 0.890503 0.813049
0.945099 0.921173 0.841797
0.974731 0.951874 0.870514
0.063141 0.061005 0.050415
0.108459 0.102081 0.082428
0.157593 0.149475 0.118408
0.204102 0.194702 0.162018
0.248749 0.237610 0.202789
0.300629 0.288849 0.246979
0.342804 0.331421 0.291962
0.386017 0.371399 0.328522
0.436310 0.421844 0.371765
0.151550 0.143616 0.113525
0.186554 0.177948 0.145203
0.225098 0.215515 0.182343
0.269714 0.258453 0.220673
0.318359 0.306763 0.264252
0.355103 0.342865 0.304657
0.403748 0.389099 0.341858
0.450470 0.436096 0.386627
0.492004 0.476288 0.426880
0.233643 0.223907 0.190125
0.266693 0.255127 0.218109
0.305054 0.293213 0.251099
0.340302 0.329193 0.289215
0.377686 0.363739 0.322601
0.426514 0.412079 0.362061
0.468353 0.453644 0.405212
0.510773 0.494507 0.442780
0.558990 0.541565 0.484070
0.322998 0.311798 0.269318
0.346771 0.335449 0.296417
0.376556 0.362396 0.321686
0.415680 0.400909 0.351837
0.454651 0.440338 0.391266
0.492828 0.477081 0.427490
0.537262 0.520203 0.465088
0.584534 0.566406 0.506989
0.632263 0.613434 0.550598
0.401306 0.386505 0.339966
0.433136 0.418915 0.368591
0.462219 0.447479 0.398895
0.492401 0.476685 0.427216
0.528412 0.511383 0.457367
0.571869 0.553955 0.495361
0.617096 0.598572 0.536896
0.661804 0.642395 0.578156
0.706146 0.686096 0.619476
0.483612 0.468292 0.419464
0.512482 0.496002 0.444183
0.545288 0.527802 0.471863
0.580444 0.562378 0.503174
0.617371 0.598816 0.537048
0.655457 0.636139 0.572144
0.697479 0.677551 0.611237
0.738159 0.717651 0.649384
0.778809 0.757477 0.687195
0.572388 0.554474 0.495911
0.604370 0.585876 0.525055
0.637115 0.618256 0.555328
0.670959 0.651276 0.586487
0.705170 0.685150 0.618469
0.739929 0.719269 0.650879
0.774963 0.753815 0.683716
0.812225 0.790436 0.718506
0.849365 0.827026 0.753143
0.663269 0.643860 0.579468
0.693970 0.673950 0.607971
0.724701 0.704254 0.636658
0.755829 0.734833 0.665710
0.787170 0.765747 0.695038
0.819031 0.797119 0.724762
0.851227 0.828766 0.754791
0.883850 0.860901 0.785156
0.918701 0.895203 0.817444
0.749695 0.728760 0.659943
0.778229 0.756927 0.686707
0.806885 0.785065 0.713409
0.835724 0.813477 0.740356
0.864868 0.842194 0.767517
0.894562 0.871429 0.795105
0.924988 0.901367 0.823242
0.955963 0.931824 0.851807
0.976624 0.955750 0.877563
0.074188 0.070282 0.058411
0.120697 0.113831 0.090973
0.169373 0.161804 0.129272
0.214355 0.205475 0.172394
0.260498 0.249542 0.213013
0.312805 0.300873 0.258514
0.351562 0.339630 0.301208
0.399933 0.385193 0.338959
0.447845 0.433441 0.383820
0.163422 0.156006 0.124084
0.197876 0.188507 0.155914
0.236420 0.226074 0.192139
0.282837 0.270752 0.231384
0.328308 0.317200 0.275269
0.365265 0.352203 0.313354
0.416382 0.401855 0.352631
0.461426 0.446930 0.398163
0.504120 0.487885 0.437195
0.244934 0.234955 0.200226
0.279510 0.267944 0.228668
0.316711 0.304779 0.262512
0.348816 0.337189 0.298401
0.390350 0.375793 0.331818
0.437653 0.423431 0.373230
0.478455 0.463440 0.414764
0.523560 0.506897 0.453400
0.572388 0.554474 0.495911
0.332550 0.321472 0.279907
0.356049 0.343781 0.305420
0.389160 0.374390 0.330780
0.427399 0.412933 0.362793
0.464661 0.450165 0.401489
0.503815 0.487610 0.436981
0.549561 0.532135 0.475586
0.597748 0.579529 0.519104
0.645416 0.626251 0.562866
0.413940 0.399200 0.350342
0.443848 0.429626 0.379608
0.471985 0.457245 0.408661
0.503387 0.487366 0.436646
0.540466 0.523285 0.467682
0.584045 0.566101 0.506561
0.629272 0.610382 0.547974
0.674774 0.655212 0.590240
0.718658 0.698303 0.631042
0.494232 0.478485 0.428802
0.524292 0.507385 0.453949
0.557312 0.539886 0.482483
0.592834 0.574524 0.514404
0.629395 0.610687 0.548218
0.667450 0.647949 0.583344
0.709045 0.688843 0.622101
0.750397 0.729584 0.660675
0.790619 0.769257 0.698364
0.584564 0.566620 0.507080
0.616547 0.598022 0.536255
0.649353 0.630096 0.566406
0.682587 0.662903 0.597565
0.716644 0.696320 0.629120
0.751038 0.730316 0.661255
0.785767 0.764465 0.693817
0.823761 0.801697 0.729187
0.860657 0.838257 0.763580
0.676239 0.656647 0.591583
0.706543 0.686493 0.619812
0.737030 0.716522 0.648193
0.767822 0.746765 0.677002
0.799011 0.777405 0.706085
0.830444 0.808411 0.735504
0.862549 0.839905 0.765320
0.894989 0.871735 0.795349
0.929718 0.905945 0.827545
0.761719 0.740875 0.671326
0.790131 0.768646 0.697815
0.818420 0.796631 0.724152
0.847107 0.824768 0.750885
0.876160 0.853333 0.778046
0.905670 0.882385 0.805420
0.935883 0.912079 0.833282
0.966949 0.942627 0.861908
0.977509 0.956116 0.883484
0.085083 0.080505 0.066589
0.132874 0.126434 0.099518
0.181580 0.173035 0.140350
0.225250 0.215668 0.182495
0.273499 0.261688 0.223633
0.323395 0.311859 0.269684
0.361023 0.348358 0.309814
0.412537 0.397827 0.349121
0.458740 0.444427 0.395386
0.175507 0.167786 0.134949
0.208557 0.199188 0.166656
0.247559 0.237000 0.202118
0.295685 0.283630 0.242340
0.337219 0.325989 0.285400
0.376953 0.362762 0.321960
0.428375 0.413666 0.363617
0.471283 0.456543 0.407959
0.516602 0.500153 0.447632
0.257080 0.246246 0.210236
0.292755 0.280365 0.239716
0.326630 0.315491 0.273376
0.358307 0.345703 0.307465
0.403198 0.388306 0.341431
0.448029 0.433868 0.384277
0.488861 0.473236 0.424133
0.535583 0.518372 0.463562
0.585907 0.567719 0.508118
0.340912 0.329834 0.289948
0.366364 0.352905 0.313995
0.401917 0.386810 0.340302
0.438416 0.424164 0.373993
0.474670 0.459717 0.411285
0.515228 0.498627 0.446411
0.561646 0.544128 0.486389
0.610046 0.591644 0.530365
0.658569 0.639221 0.575073
0.425812 0.411346 0.361298
0.454071 0.439728 0.390564
0.482147 0.466858 0.418182
0.514832 0.498260 0.446167
0.552643 0.535126 0.478241
0.596375 0.578033 0.517700
0.641418 0.622437 0.559113
0.686523 0.666626 0.601044
0.731171 0.710632 0.642761
0.505341 0.489044 0.438171
0.536224 0.519012 0.464142
0.569611 0.551758 0.493378
0.604950 0.586456 0.525543
0.641693 0.622589 0.559418
0.679230 0.659424 0.594269
0.720398 0.700134 0.632690
0.761566 0.740601 0.671173
0.802338 0.780579 0.709198
0.596771 0.578583 0.518127
0.628784 0.609863 0.547485
0.661194 0.641785 0.577515
0.694214 0.674347 0.608307
0.728058 0.707703 0.639801
0.762207 0.741119 0.671692
0.796661 0.775177 0.703888
0.834351 0.812134 0.739105
0.871887 0.849121 0.774078
0.687988 0.668060 0.602478
0.718048 0.697693 0.630463
0.748260 0.727478 0.658722
0.778809 0.757477 0.687195
0.809509 0.787781 0.715973
0.841034 0.818726 0.745331
0.872803 0.849915 0.774780
0.905029 0.881775 0.804840
0.940643 0.916748 0.837708
0.773834 0.752686 0.682587
0.801788 0.780121 0.708710
0.829865 0.807800 0.734924
0.858368 0.835785 0.761414
0.887238 0.864227 0.788239
0.916718 0.893311 0.815582
0.946869 0.922913 0.843445
0.975067 0.952850 0.871307
0.978424 0.956573 0.889496
