app/src/main/assets/luts/Sepia.CUBE
#Created by: Leica Camera AG | Wetzar | Germany
#Unique Leica Look ID: 5
#Based Filmstyle Mode: Standard
TITLE "Leica Sepia"
#LUT size
LUT_3D_SIZE 5
#data domain
DOMAIN_MIN 0.0 0.0 0.0
DOMAIN_MAX 1.0 1.0 1.0
#LUT data points
0.000000 0.000000 0.000000
0.081177 0.077972 0.064117
0.178253 0.169739 0.136963
0.270660 0.258911 0.221161
0.358246 0.345642 0.307404
0.165253 0.156982 0.125122
0.228790 0.219635 0.185822
0.316040 0.304108 0.261871
0.395233 0.380432 0.335358
0.483002 0.467712 0.418976
0.333862 0.322906 0.281769
0.389740 0.374939 0.331299
0.459625 0.445129 0.396393
0.536926 0.519867 0.464813
0.628448 0.609711 0.547241
0.494720 0.478943 0.429230
0.557098 0.539703 0.482330
0.627502 0.608643 0.546326
0.701263 0.681122 0.614807
0.779755 0.758423 0.688171
0.674500 0.654907 0.589905
0.734924 0.714325 0.646179
0.796143 0.774567 0.703400
0.858307 0.835724 0.761353
0.922119 0.898468 0.820526
0.019775 0.018158 0.013489
0.107544 0.101135 0.081482
0.202332 0.193604 0.160767
0.298676 0.286560 0.245117
0.383057 0.368591 0.326355
0.190460 0.181915 0.149414
0.254181 0.243439 0.207733
0.336823 0.325623 0.285126
0.422516 0.408112 0.358215
0.506836 0.490479 0.439362
0.352753 0.340851 0.302490
0.417328 0.402496 0.353210
0.481476 0.466217 0.417572
0.563629 0.545868 0.487976
0.654785 0.635498 0.571594
0.519562 0.502838 0.450043
0.583893 0.565948 0.506409
0.653778 0.634491 0.570587
0.726257 0.705780 0.638153
0.803406 0.781830 0.710175
0.699951 0.680023 0.613708
0.759430 0.738464 0.669067
0.819336 0.797455 0.725220
0.880707 0.857788 0.782135
0.944092 0.920135 0.840790
0.041992 0.040955 0.029663
0.132843 0.124542 0.098846
0.225830 0.216217 0.182922
0.323242 0.312073 0.269623
0.410797 0.395905 0.347687
0.212250 0.202850 0.170258
0.279907 0.267944 0.229004
0.356018 0.343750 0.305389
0.446564 0.432159 0.382568
0.532623 0.515472 0.460846
0.376160 0.362000 0.321381
0.441711 0.427521 0.377472
0.504974 0.488892 0.437927
0.590424 0.572327 0.512299
0.680725 0.661163 0.595703
0.545654 0.528351 0.472260
0.610596 0.592194 0.530945
0.679657 0.659851 0.594604
0.750763 0.730072 0.661072
0.826569 0.804596 0.731934
0.724976 0.704651 0.637054
0.783386 0.761993 0.691498
0.842285 0.819977 0.746521
0.902954 0.879761 0.802795
0.965973 0.941650 0.861023
0.063141 0.061005 0.050415
0.157593 0.149475 0.118408
0.248749 0.237610 0.202789
0.342804 0.331421 0.291962
0.436310 0.421844 0.371765
0.233643 0.223907 0.190125
0.305054 0.293213 0.251099
0.377686 0.363739 0.322601
0.468353 0.453644 0.405212
0.558990 0.541565 0.484070
0.401306 0.386505 0.339966
0.462219 0.447479 0.398895
0.528412 0.511383 0.457367
0.617096 0.598572 0.536896
0.706146 0.686096 0.619476
0.572388 0.554474 0.495911
0.637115 0.618256 0.555328
0.705170 0.685150 0.618469
0.774963 0.753815 0.683716
0.849365 0.827026 0.753143
0.749695 0.728760 0.659943
0.806885 0.785065 0.713409
0.864868 0.842194 0.767517
0.924988 0.901367 0.823242
0.976624 0.955750 0.877563
0.085083 0.080505 0.066589
0.181580 0.173035 0.140350
0.273499 0.261688 0.223633
0.361023 0.348358 0.309814
0.458740 0.444427 0.395386
0.257080 0.246246 0.210236
0.326630 0.315491 0.273376
0.403198 0.388306 0.341431
0.488861 0.473236 0.424133
0.585907 0.567719 0.508118
0.425812 0.411346 0.361298
0.482147 0.466858 0.418182
0.552643 0.535126 0.478241
0.641418 0.622437 0.559113
0.731171 0.710632 0.642761
0.596771 0.578583 0.518127
0.661194 0.641785 0.577515
0.728058 0.707703 0.639801
0.796661 0.775177 0.703888
0.871887 0.849121 0.774078
0.773834 0.752686 0.682587
0.829865 0.807800 0.734924
0.887238 0.864227 0.788239
0.946869 0.922913 0.843445
0.978424 0.956573 0.889496
