app/src/main/assets/luts/Sepia.CUBE
#Created by: Leica Camera AG | Wetzar | Germany
#Unique Leica Look ID: 5
#Based Filmstyle Mode: Standard
TITLE "Leica Sepia"
#LUT size
LUT_3D_SIZE 17
#data domain
DOMAIN_MIN 0.0 0.0 0.0
DOMAIN_MAX 1.0 1.0 1.0
#LUT data points
0.000000 0.000000 0.000000
0.022614 0.021973 0.015900
0.041290 0.040131 0.028595
0.060699 0.058716 0.048553
0.081177 0.077972 0.064117
0.104553 0.098511 0.080078
0.128815 0.121674 0.096710
0.154053 0.146027 0.115479
0.178253 0.169739 0.136963
0.200439 0.191742 0.159058
0.222351 0.212830 0.179871
0.245117 0.234650 0.200287
0.270660 0.258911 0.221161
0.297180 0.285095 0.243744
0.321014 0.309448 0.267090
0.339722 0.328583 0.288483
0.358246 0.345642 0.307404
0.040375 0.039337 0.028198
0.055634 0.053619 0.043488
0.074036 0.070129 0.058258
0.093231 0.089081 0.072357
0.116577 0.109741 0.087646
0.140442 0.132812 0.104767
0.164734 0.156433 0.124451
0.187378 0.178741 0.145844
0.209015 0.199646 0.167206
0.230255 0.220612 0.187195
0.253479 0.242737 0.207153
0.279266 0.267731 0.228607
0.305450 0.293243 0.251465
0.327393 0.316254 0.274139
0.345215 0.333862 0.294708
0.364777 0.351715 0.312958
0.389740 0.374939 0.331299
0.077087 0.074158 0.061127
0.093597 0.088348 0.072388
0.111603 0.105042 0.084595
0.132660 0.125366 0.099426
0.155334 0.147308 0.116638
0.177124 0.169403 0.136688
0.197876 0.189819 0.156799
0.218903 0.209412 0.176544
0.240295 0.229889 0.195770
0.264069 0.252563 0.215942
0.289703 0.277802 0.237305
0.314392 0.302460 0.260040
0.333984 0.323029 0.281921
0.351654 0.339752 0.301361
0.372833 0.359161 0.319092
0.398468 0.383789 0.337830
0.423920 0.409485 0.359467
0.119812 0.112885 0.090027
0.137878 0.129395 0.102509
0.155457 0.147430 0.116760
0.174103 0.165619 0.132874
0.193207 0.184540 0.151733
0.211823 0.203033 0.170258
0.231628 0.221924 0.188232
0.253143 0.242432 0.207031
0.277344 0.265778 0.226715
0.301819 0.290070 0.248260
0.324036 0.312500 0.270264
0.341766 0.330322 0.290680
0.359741 0.347107 0.308655
0.382843 0.368652 0.326355
0.408844 0.394012 0.345978
0.432709 0.418488 0.368195
0.454071 0.439728 0.390564
0.165253 0.156982 0.125122
0.181091 0.172607 0.140198
0.196198 0.188171 0.155060
0.212708 0.203247 0.170441
0.228790 0.219635 0.185822
0.248444 0.237854 0.202942
0.270477 0.258759 0.221161
0.293671 0.281708 0.240784
0.316040 0.304108 0.261871
0.334198 0.323242 0.282196
0.350922 0.339020 0.300659
0.370850 0.357208 0.317413
0.395233 0.380432 0.335358
0.420135 0.405518 0.355957
0.442352 0.428162 0.378235
0.462769 0.448273 0.399628
0.483002 0.467712 0.418976
0.206085 0.197296 0.164429
0.220673 0.211121 0.178070
0.235809 0.225494 0.191681
0.252228 0.241547 0.206177
0.271271 0.259521 0.221649
0.291260 0.279358 0.238770
0.312134 0.300568 0.257812
0.330353 0.318878 0.277252
0.345673 0.334351 0.295258
0.363312 0.350250 0.311523
0.385376 0.370789 0.328125
0.409851 0.394989 0.346741
0.432587 0.418365 0.368164
0.453186 0.438873 0.389648
0.472870 0.457916 0.409515
0.493378 0.477631 0.428009
0.515839 0.499207 0.446869
0.246613 0.236053 0.201263
0.262909 0.251434 0.214783
0.280426 0.268402 0.229401
0.298462 0.286377 0.245087
0.315826 0.303894 0.261597
0.330963 0.319550 0.278046
0.344391 0.332977 0.293488
0.360016 0.347443 0.309174
0.380402 0.366089 0.324554
0.403259 0.388336 0.341370
0.425751 0.411285 0.361237
0.446075 0.431915 0.382202
0.465271 0.450562 0.402039
0.484467 0.469116 0.420197
0.505463 0.489410 0.438416
0.528381 0.511353 0.457336
0.552094 0.534637 0.477905
0.293427 0.281433 0.240479
0.309753 0.297485 0.255493
0.324188 0.312653 0.270477
0.336823 0.325562 0.284882
0.349182 0.337250 0.298706
0.363525 0.350494 0.311798
0.381317 0.367218 0.325226
0.401733 0.386658 0.340240
0.423004 0.408356 0.358582
0.442352 0.428131 0.378082
0.460632 0.446167 0.397491
0.478912 0.463898 0.415192
0.498627 0.482544 0.432495
0.520233 0.503448 0.450500
0.542908 0.525665 0.469849
0.566437 0.548615 0.490417
0.589935 0.571838 0.511810
0.333862 0.322906 0.281769
0.345032 0.333710 0.294495
0.357208 0.344940 0.306610
0.372009 0.358368 0.318451
0.389740 0.374939 0.331299
0.408325 0.393494 0.345520
0.426453 0.411987 0.361938
0.443451 0.429016 0.379181
0.459625 0.445129 0.396393
0.476654 0.461670 0.413269
0.495209 0.479431 0.429718
0.515472 0.498871 0.446564
0.536926 0.519867 0.464813
0.559540 0.541901 0.484467
0.582336 0.564392 0.504883
0.605560 0.586884 0.526031
0.628448 0.609711 0.547241
0.369019 0.355164 0.315979
0.384338 0.370117 0.327484
0.401520 0.386688 0.340057
0.418457 0.403900 0.354553
0.434570 0.420349 0.370178
0.449768 0.435394 0.385925
0.464600 0.450104 0.401428
0.479919 0.464691 0.416199
0.496307 0.480530 0.430664
0.514404 0.497803 0.445648
0.534821 0.517609 0.462891
0.555969 0.538391 0.481232
0.577759 0.559937 0.500854
0.600220 0.581757 0.521118
0.622375 0.603577 0.541565
0.644806 0.625671 0.562317
0.667084 0.647644 0.583099
0.415649 0.400879 0.351807
0.430878 0.416412 0.366333
0.445190 0.430725 0.380859
0.458771 0.444244 0.395355
0.472626 0.457642 0.409088
0.487030 0.471680 0.422638
0.503021 0.486816 0.436279
0.520233 0.503448 0.450500
0.538208 0.521118 0.465881
0.557343 0.539917 0.482513
0.576996 0.558990 0.500061
0.597961 0.579590 0.519135
0.619446 0.600708 0.538818
0.640900 0.621948 0.558685
0.662292 0.642914 0.578583
0.683899 0.664154 0.598633
0.705292 0.685242 0.618530
0.456360 0.442047 0.392944
0.469238 0.454529 0.406036
0.482605 0.467316 0.418640
0.496948 0.481110 0.431152
0.512482 0.496002 0.444183
0.529053 0.512024 0.458038
0.546478 0.528961 0.472839
0.564301 0.546570 0.488708
0.582916 0.564789 0.505341
0.601624 0.583344 0.522583
0.620819 0.602051 0.540100
0.640198 0.621094 0.557953
0.660645 0.641266 0.577057
0.681305 0.661591 0.596191
0.701874 0.681732 0.615356
0.722473 0.702087 0.634644
0.742828 0.722137 0.653625
0.494720 0.478943 0.429230
0.509247 0.492859 0.441528
0.524384 0.507690 0.454102
0.540527 0.523346 0.467773
0.557098 0.539703 0.482330
0.574188 0.556427 0.497589
0.591766 0.573486 0.513458
0.609375 0.590973 0.529755
0.627502 0.608643 0.546326
0.645844 0.626526 0.563171
0.664215 0.644592 0.580200
0.682587 0.662903 0.597565
0.701263 0.681122 0.614807
0.721100 0.700684 0.633179
0.740662 0.719971 0.651550
0.760345 0.739380 0.670013
0.779755 0.758423 0.688171
0.537994 0.520874 0.465637
0.553833 0.536346 0.479462
0.569824 0.552124 0.493683
0.586304 0.568115 0.508484
0.602875 0.584412 0.523621
0.619720 0.600983 0.539154
0.636597 0.617737 0.554810
0.654022 0.634735 0.570862
0.671448 0.651764 0.587006
0.688934 0.669128 0.603302
0.706451 0.686432 0.619781
0.724274 0.703827 0.636261
0.741943 0.721252 0.652771
0.759888 0.738922 0.669464
0.778564 0.757355 0.687073
0.797333 0.775879 0.704681
0.816040 0.794220 0.722046
0.583832 0.565887 0.506409
0.599884 0.581451 0.520813
0.615723 0.597168 0.535431
0.631866 0.613068 0.550323
0.648102 0.628876 0.565277
0.664459 0.645020 0.580475
0.680939 0.661255 0.595856
0.697510 0.677582 0.611267
0.714142 0.693970 0.626892
0.731018 0.710480 0.642578
0.747864 0.726990 0.658295
0.764771 0.743652 0.674072
0.781799 0.760498 0.689911
0.798645 0.777161 0.705902
0.815704 0.793854 0.721771
0.833893 0.811676 0.738678
0.851868 0.829407 0.755371
0.629547 0.610779 0.548279
0.645355 0.626038 0.562744
0.660828 0.641418 0.577179
0.676361 0.656769 0.591705
0.692139 0.672272 0.606384
0.707825 0.687775 0.621063
0.723846 0.703400 0.635895
0.739807 0.719147 0.650787
0.755829 0.734833 0.665710
0.771851 0.750610 0.680695
0.788055 0.766479 0.695801
0.804138 0.782532 0.710846
0.820435 0.798523 0.726105
0.836700 0.814545 0.741333
0.853149 0.830566 0.756561
0.869659 0.846924 0.771973
0.887146 0.864044 0.788177
0.674500 0.654907 0.589905
0.689606 0.669769 0.603851
0.704712 0.684662 0.617920
0.719696 0.699310 0.632019
0.734924 0.714325 0.646179
0.750031 0.729248 0.660400
0.765442 0.744293 0.674683
0.780579 0.759338 0.688965
0.796143 0.774567 0.703400
0.811584 0.789795 0.717773
0.826996 0.805023 0.732391
0.842590 0.820374 0.746826
0.858307 0.835724 0.761353
0.874176 0.851227 0.776001
0.890076 0.867035 0.790924
0.906097 0.882690 0.805695
0.922119 0.898468 0.820526
0.000000 0.000000 0.000000
0.030579 0.029266 0.021149
0.046783 0.045746 0.034424
0.066345 0.064056 0.053101
0.088074 0.083252 0.068512
0.111328 0.104767 0.084320
0.135895 0.128418 0.101532
0.160889 0.152740 0.121490
0.184448 0.175903 0.143280
0.206268 0.197479 0.164612
0.228210 0.218597 0.185272
0.251648 0.240936 0.205444
0.277771 0.265808 0.227081
0.303802 0.291962 0.249786
0.326263 0.315125 0.272919
0.344421 0.333008 0.293518
0.363831 0.350769 0.311981
0.045654 0.044617 0.033295
0.061829 0.058624 0.048798
0.079102 0.076019 0.062592
0.100372 0.094574 0.076996
0.123322 0.116241 0.092255
0.147369 0.139587 0.110443
0.171295 0.162933 0.130615
0.193390 0.184723 0.151917
0.214417 0.205536 0.172455
0.236267 0.226471 0.192444
0.260193 0.249237 0.212646
0.286713 0.274475 0.234406
0.311798 0.299866 0.257477
0.332397 0.321320 0.279724
0.349884 0.338318 0.299713
0.370972 0.357330 0.317566
0.396698 0.381805 0.336273
0.083008 0.079681 0.065430
0.099213 0.094666 0.076721
0.118378 0.111511 0.089050
0.139679 0.132111 0.104431
0.162140 0.153992 0.122650
0.183899 0.175354 0.142609
0.204529 0.195160 0.162567
0.224762 0.215179 0.181915
0.246185 0.236145 0.201202
0.270844 0.259552 0.221558
0.297058 0.284607 0.243683
0.320190 0.308594 0.266113
0.338867 0.327637 0.287231
0.356750 0.344482 0.306091
0.379395 0.365387 0.323792
0.405640 0.390656 0.343262
0.430298 0.415833 0.365601
0.126740 0.119598 0.094910
0.144257 0.136536 0.107788
0.162201 0.154053 0.122711
0.180450 0.171875 0.138947
0.199158 0.190430 0.157471
0.218018 0.208557 0.175812
0.238007 0.227661 0.193848
0.259827 0.248901 0.212494
0.284576 0.272430 0.232758
0.308777 0.296539 0.254486
0.329163 0.318024 0.276123
0.346436 0.334808 0.295898
0.365662 0.352264 0.313538
0.389893 0.375336 0.331390
0.415649 0.400879 0.351807
0.438690 0.424469 0.374329
0.459595 0.445099 0.396362
0.171814 0.163452 0.131287
0.187347 0.178711 0.145813
0.203003 0.193604 0.160980
0.218475 0.208984 0.176025
0.235413 0.225128 0.191528
0.254944 0.244141 0.208405
0.277649 0.265686 0.226959
0.300690 0.288544 0.246918
0.321808 0.310242 0.267883
0.338989 0.327820 0.287598
0.355988 0.343719 0.305359
0.377319 0.363129 0.322266
0.402252 0.387421 0.340790
0.426514 0.412079 0.362061
0.448029 0.433868 0.384277
0.468231 0.453522 0.405060
0.488861 0.473236 0.424133
0.211731 0.202942 0.170166
0.226685 0.216522 0.183472
0.241791 0.231354 0.197052
0.259064 0.247681 0.211639
0.278137 0.266571 0.227448
0.298340 0.286224 0.244751
0.318329 0.306396 0.264099
0.334869 0.323914 0.282806
0.350372 0.338745 0.300049
0.369354 0.355499 0.316223
0.392273 0.377625 0.333099
0.416626 0.401855 0.352722
0.438568 0.424347 0.374329
0.458557 0.444275 0.395325
0.478363 0.463318 0.414642
0.499298 0.483185 0.433044
0.522125 0.505310 0.452179
0.253357 0.242157 0.206818
0.269836 0.258179 0.220703
0.287354 0.275513 0.235138
0.305084 0.293243 0.251129
0.321594 0.309998 0.267639
0.335480 0.324554 0.283569
0.348999 0.337402 0.298645
0.365814 0.352753 0.313843
0.387329 0.372620 0.329407
0.410217 0.395355 0.347168
0.431885 0.417664 0.367493
0.451843 0.437439 0.387970
0.470428 0.455719 0.407318
0.490326 0.474640 0.425385
0.511871 0.495392 0.443665
0.534973 0.517792 0.463074
0.558838 0.541229 0.483826
0.300415 0.288239 0.246582
0.315643 0.304077 0.261536
0.329498 0.318054 0.276428
0.341309 0.330231 0.290436
0.353821 0.341949 0.303619
0.369415 0.355865 0.316406
0.388428 0.373657 0.330231
0.408783 0.393677 0.345795
0.429321 0.414825 0.364532
0.448120 0.433716 0.384155
0.465973 0.451508 0.402954
0.484650 0.469086 0.420349
0.504761 0.488495 0.437714
0.526672 0.509735 0.455994
0.549469 0.532227 0.475555
0.572998 0.555054 0.496399
0.596710 0.578339 0.518005
0.338684 0.327454 0.286987
0.350006 0.338074 0.299530
0.362885 0.349854 0.311218
0.378510 0.364532 0.323212
0.396667 0.381775 0.336243
0.415192 0.400421 0.351379
0.432556 0.418335 0.368134
0.448914 0.434784 0.385223
0.465118 0.450378 0.401825
0.482208 0.467133 0.418335
0.501282 0.485291 0.434723
0.521820 0.505005 0.451813
0.543579 0.526337 0.470520
0.566132 0.548523 0.490326
0.588989 0.570770 0.511017
0.612152 0.593536 0.532166
0.635071 0.616241 0.553436
0.375244 0.361176 0.320801
0.391479 0.376831 0.332489
0.408539 0.393707 0.345764
0.424957 0.410522 0.360565
0.440521 0.426300 0.376129
0.455231 0.440918 0.391846
0.470093 0.455139 0.406830
0.485535 0.470184 0.421112
0.502533 0.486328 0.435791
0.520813 0.504028 0.451050
0.541351 0.524170 0.468445
0.562714 0.544983 0.487213
0.584503 0.566559 0.507019
0.606750 0.588196 0.527191
0.628998 0.610107 0.547760
0.651520 0.632111 0.568420
0.673615 0.654022 0.589020
0.422272 0.407623 0.357819
0.436768 0.422546 0.372284
0.450623 0.436249 0.386780
0.463989 0.449493 0.400848
0.478088 0.462860 0.414276
0.492920 0.477203 0.427612
0.509216 0.492828 0.441498
0.526672 0.509735 0.455994
0.544952 0.527649 0.471649
0.563995 0.546295 0.488434
0.583618 0.565674 0.506226
0.604584 0.586273 0.525360
0.626099 0.607239 0.545013
0.647400 0.628204 0.564697
0.668823 0.649323 0.584656
0.690399 0.670441 0.604706
0.711487 0.691254 0.624390
0.461853 0.447357 0.398682
0.474823 0.459839 0.411316
0.488281 0.472870 0.423737
0.503174 0.486969 0.436340
0.518738 0.502228 0.449463
0.535522 0.518494 0.463562
0.553101 0.535583 0.478668
0.571106 0.553192 0.494751
0.589478 0.571259 0.511414
0.608337 0.589905 0.528595
0.627380 0.608643 0.546234
0.646667 0.627472 0.563995
0.667175 0.647675 0.583099
0.687622 0.667725 0.602112
0.708099 0.688019 0.621307
0.728668 0.708252 0.640289
0.749054 0.728119 0.659332
0.500763 0.484802 0.434357
0.515472 0.499054 0.446625
0.530945 0.513855 0.459595
0.547089 0.529755 0.473450
0.563782 0.546051 0.488281
0.580933 0.562836 0.503571
0.598358 0.579987 0.519501
0.616089 0.597565 0.535797
0.634186 0.615204 0.552490
0.652313 0.633057 0.569275
0.670593 0.651062 0.586273
0.688965 0.669281 0.603394
0.707489 0.687408 0.620758
0.727234 0.706635 0.638977
0.746857 0.725983 0.657318
0.766388 0.745361 0.675598
0.785675 0.764374 0.693695
0.544617 0.527374 0.471466
0.560608 0.542938 0.485413
0.576630 0.558624 0.499725
0.592987 0.574707 0.514648
0.609436 0.591034 0.529816
0.626404 0.607544 0.545288
0.643311 0.624207 0.560974
0.660522 0.641113 0.576874
0.677765 0.658142 0.592987
0.695129 0.675262 0.609161
0.712799 0.692627 0.625580
0.730408 0.709991 0.642059
0.748077 0.727325 0.658539
0.765839 0.744690 0.675079
0.784576 0.763184 0.692627
0.803253 0.781677 0.710052
0.821960 0.799927 0.727509
0.590607 0.572510 0.512421
0.606445 0.587921 0.526947
0.622375 0.603577 0.541565
0.638550 0.619354 0.556396
0.654541 0.635223 0.571320
0.670898 0.651367 0.586548
0.687256 0.667328 0.601746
0.703796 0.683655 0.617126
0.720398 0.700134 0.632690
0.737213 0.716553 0.648285
0.753937 0.733093 0.664062
0.770782 0.749573 0.679657
0.787628 0.766174 0.695404
0.804657 0.782959 0.711426
0.821564 0.799530 0.727142
0.839569 0.817383 0.743896
0.857544 0.834991 0.760712
0.636169 0.617310 0.554382
0.651825 0.632568 0.568848
0.667267 0.647797 0.583221
0.682831 0.663147 0.597778
0.698517 0.678589 0.612305
0.714172 0.694031 0.626984
0.730011 0.709625 0.641724
0.745972 0.725220 0.656555
0.761749 0.740784 0.671326
0.777863 0.756561 0.686340
0.793945 0.772278 0.701324
0.809875 0.788116 0.716278
0.826233 0.804230 0.731476
0.842407 0.820160 0.746613
0.858765 0.836182 0.761780
0.875244 0.852509 0.777069
0.892700 0.869598 0.793365
0.680908 0.661224 0.595825
0.695953 0.675903 0.609772
0.710968 0.690704 0.623840
0.725952 0.705505 0.637878
0.741028 0.720367 0.651947
0.756165 0.735260 0.666077
0.771393 0.750183 0.680298
0.786499 0.765198 0.694519
0.801971 0.780212 0.708801
0.817322 0.795349 0.723114
0.832764 0.810638 0.737549
0.848419 0.825989 0.752167
0.863983 0.841339 0.766632
0.879730 0.856720 0.781189
0.895599 0.872528 0.795929
0.911530 0.888153 0.810791
0.927582 0.903931 0.825653
0.001007 0.000092 0.000122
0.035370 0.034729 0.024750
0.052917 0.050934 0.040771
0.072906 0.069000 0.057129
0.094269 0.089020 0.073090
0.118164 0.111267 0.088776
0.142944 0.135223 0.106659
0.167603 0.159302 0.127228
0.190491 0.181854 0.148987
0.212311 0.202911 0.170319
0.234009 0.224274 0.190582
0.258392 0.247040 0.211121
0.284760 0.272644 0.233032
0.310272 0.298370 0.256042
0.331299 0.320221 0.278564
0.349030 0.337433 0.298676
0.369995 0.356110 0.316803
0.051422 0.049438 0.039276
0.066193 0.063904 0.052948
0.085938 0.081238 0.066925
0.106842 0.100555 0.081329
0.130127 0.122925 0.097626
0.154297 0.146301 0.115845
0.177765 0.169281 0.136780
0.199341 0.190613 0.157654
0.220612 0.211060 0.178009
0.242645 0.232147 0.197754
0.267242 0.255585 0.218262
0.293396 0.281403 0.240448
0.317902 0.305939 0.263519
0.337128 0.325897 0.285309
0.354980 0.342743 0.304504
0.377258 0.363342 0.322266
0.403503 0.388611 0.341644
0.089844 0.084869 0.069733
0.106476 0.100189 0.080963
0.125244 0.118134 0.093811
0.146759 0.138947 0.109711
0.168304 0.160767 0.128418
0.189941 0.181274 0.148315
0.209961 0.201141 0.168243
0.230682 0.220978 0.187347
0.252991 0.242279 0.206818
0.278259 0.266266 0.227448
0.303711 0.291473 0.249512
0.325470 0.314270 0.271942
0.343384 0.332001 0.292480
0.362335 0.349335 0.310913
0.386078 0.371735 0.328705
0.412262 0.397583 0.348938
0.436127 0.421875 0.371613
0.133728 0.126282 0.099640
0.151184 0.143219 0.113037
0.168976 0.160645 0.128540
0.186584 0.177979 0.145233
0.204773 0.196075 0.163483
0.223816 0.214294 0.181366
0.244232 0.233734 0.199127
0.266907 0.255280 0.218109
0.291473 0.279541 0.238800
0.314758 0.303192 0.260651
0.333984 0.322998 0.281708
0.350983 0.339417 0.300842
0.371918 0.357971 0.318237
0.396851 0.382233 0.336548
0.422272 0.407623 0.357819
0.444458 0.430267 0.380341
0.465118 0.450378 0.401825
0.178253 0.169800 0.137421
0.193359 0.184692 0.151886
0.208405 0.199585 0.166656
0.224396 0.214783 0.181458
0.241394 0.230988 0.196808
0.261993 0.250549 0.214203
0.284393 0.272644 0.232697
0.307190 0.295319 0.253113
0.327026 0.315887 0.273895
0.343597 0.332184 0.292725
0.361481 0.348511 0.310089
0.384064 0.369568 0.327209
0.409454 0.394318 0.346313
0.432648 0.418427 0.368134
0.453644 0.439331 0.390198
0.473755 0.458801 0.410309
0.494720 0.478943 0.429230
0.217529 0.208649 0.175751
0.232239 0.222534 0.189026
0.247772 0.237701 0.202576
0.265991 0.254364 0.217255
0.285400 0.273224 0.233521
0.305176 0.292938 0.251129
0.323914 0.312347 0.270081
0.339630 0.328491 0.288391
0.355438 0.343231 0.305054
0.375488 0.361664 0.321014
0.399261 0.384552 0.338501
0.423187 0.408539 0.358795
0.444336 0.430145 0.380219
0.464050 0.449341 0.400848
0.483887 0.468567 0.419769
0.505402 0.489136 0.438263
0.528687 0.511658 0.457703
0.260010 0.248627 0.212555
0.276917 0.264984 0.226318
0.294525 0.282104 0.241241
0.311493 0.299896 0.257202
0.326813 0.315643 0.273407
0.340210 0.329102 0.289124
0.353851 0.341980 0.303650
0.372314 0.358368 0.318695
0.394104 0.379364 0.334473
0.416992 0.402191 0.352997
0.437927 0.423676 0.373383
0.457245 0.442688 0.393768
0.476044 0.461060 0.412537
0.496368 0.480316 0.430511
0.518097 0.501617 0.448944
0.541473 0.524292 0.468597
0.565613 0.547821 0.489716
0.306946 0.295044 0.252777
0.321594 0.309998 0.267639
0.334045 0.323090 0.281982
0.345947 0.334656 0.295624
0.359283 0.346710 0.308472
0.375977 0.361816 0.321136
0.395233 0.380432 0.335358
0.415466 0.400696 0.351593
0.435181 0.420959 0.370636
0.453644 0.439301 0.390045
0.471466 0.456726 0.408173
0.490356 0.474670 0.425415
0.511017 0.494568 0.442932
0.533295 0.516113 0.461395
0.556152 0.538574 0.481354
0.579742 0.561707 0.502563
0.603394 0.584930 0.524170
0.343170 0.331818 0.292419
0.354828 0.342590 0.304321
0.368744 0.355225 0.315948
0.385345 0.370758 0.328094
0.403503 0.388611 0.341644
0.421783 0.407135 0.357361
0.438599 0.424347 0.374207
0.454498 0.440186 0.391083
0.470276 0.455566 0.407135
0.488068 0.472473 0.423431
0.507385 0.491058 0.439911
0.528229 0.511414 0.457336
0.550171 0.532928 0.476288
0.572845 0.554901 0.496246
0.595764 0.577423 0.517151
0.618866 0.600128 0.538300
0.641724 0.622772 0.559570
0.381958 0.367523 0.325531
0.398407 0.383728 0.337769
0.415405 0.400635 0.351532
0.431366 0.416870 0.366730
0.446320 0.431915 0.382263
0.460754 0.446259 0.397614
0.475616 0.460419 0.412079
0.491302 0.475616 0.426270
0.508728 0.492310 0.440887
0.527313 0.510315 0.456512
0.547913 0.530548 0.474213
0.569336 0.551666 0.493225
0.591309 0.573181 0.513031
0.613342 0.594727 0.533325
0.635620 0.616608 0.553833
0.657928 0.638580 0.574493
0.679901 0.660248 0.594940
0.428436 0.413971 0.363800
0.442505 0.428314 0.378265
0.456207 0.441650 0.392639
0.469452 0.454742 0.406281
0.483582 0.468262 0.419434
0.498901 0.482819 0.432709
0.515472 0.498871 0.446564
0.533142 0.516174 0.461395
0.551697 0.534241 0.477539
0.570770 0.552887 0.494476
0.590240 0.572327 0.512238
0.611450 0.592834 0.531494
0.632660 0.613831 0.550995
0.653992 0.634705 0.570831
0.675323 0.655731 0.590729
0.696777 0.676697 0.610565
0.717804 0.697449 0.630219
0.467316 0.452606 0.404114
0.480438 0.465149 0.416534
0.494202 0.478455 0.428864
0.509338 0.492950 0.441528
0.525208 0.508514 0.454895
0.542206 0.524994 0.469238
0.559814 0.542175 0.484589
0.577667 0.559814 0.500732
0.596130 0.577942 0.517548
0.614960 0.596436 0.534729
0.634094 0.615112 0.552460
0.653198 0.633911 0.570068
0.673584 0.654114 0.589020
0.693939 0.674072 0.608063
0.714447 0.694275 0.627167
0.734833 0.714111 0.646088
0.755066 0.734192 0.665070
0.506836 0.490479 0.439362
0.521820 0.505035 0.451935
0.537415 0.520355 0.465179
0.553802 0.536316 0.479431
0.570557 0.552673 0.494293
0.587646 0.569427 0.509705
0.605103 0.586578 0.525604
0.622711 0.603912 0.541809
0.640778 0.621674 0.558472
0.658905 0.639526 0.575378
0.677124 0.657349 0.592255
0.695343 0.675323 0.609283
0.713867 0.693604 0.626587
0.733459 0.712738 0.644745
0.752899 0.732056 0.663055
0.772308 0.751068 0.681091
0.791626 0.770264 0.699310
0.551208 0.533966 0.477203
0.567230 0.549591 0.491302
0.583282 0.565338 0.505829
0.599640 0.581360 0.520660
0.616028 0.597656 0.535797
0.633057 0.614044 0.551300
0.649780 0.630737 0.567078
0.666992 0.647522 0.582977
0.684265 0.664520 0.598969
0.701599 0.681488 0.615143
0.719025 0.698669 0.631378
0.736633 0.716125 0.647766
0.754242 0.733368 0.664307
0.771851 0.750610 0.680695
0.790436 0.769073 0.698181
0.809082 0.787231 0.715515
0.827667 0.805664 0.732910
0.597260 0.578888 0.518555
0.613129 0.594482 0.533051
0.628998 0.610107 0.547760
0.645050 0.625885 0.562531
0.661041 0.641663 0.577423
0.677399 0.657623 0.592560
0.693634 0.673767 0.607758
0.710114 0.689880 0.623047
0.726532 0.706177 0.638428
0.743347 0.722626 0.653992
0.760010 0.739075 0.669678
0.776794 0.755493 0.685333
0.793671 0.772003 0.701019
0.810455 0.788666 0.716675
0.827271 0.805267 0.732574
0.845276 0.822784 0.749176
0.863190 0.840546 0.765961
0.642853 0.623779 0.560608
0.658386 0.639038 0.574951
0.673798 0.654175 0.589142
0.689270 0.669434 0.603607
0.704865 0.684814 0.618103
0.720337 0.700195 0.632660
0.736206 0.715698 0.647369
0.752106 0.731232 0.662109
0.767883 0.746704 0.677063
0.783813 0.762421 0.691925
0.799774 0.778137 0.706787
0.815704 0.793854 0.721771
0.831909 0.809814 0.736755
0.848145 0.825836 0.752014
0.864441 0.841766 0.767090
0.880798 0.857880 0.782288
0.898285 0.875092 0.798492
0.687256 0.667328 0.601746
0.702301 0.682159 0.615784
0.717163 0.696960 0.629700
0.732086 0.711670 0.643646
0.747223 0.726471 0.657715
0.762207 0.741241 0.671722
0.777405 0.756104 0.685944
0.792511 0.770996 0.700104
0.807770 0.786041 0.714294
0.823120 0.801056 0.728607
0.838348 0.816162 0.742889
0.853943 0.831543 0.757324
0.869629 0.846893 0.771912
0.885345 0.862274 0.786438
0.901154 0.877808 0.801086
0.917145 0.893616 0.815826
0.933075 0.909393 0.830750
0.009888 0.009094 0.006744
0.039978 0.038940 0.027802
0.058075 0.056061 0.045898
0.078674 0.074493 0.061829
0.100067 0.095398 0.077026
0.125031 0.117889 0.093536
0.149689 0.141815 0.112183
0.174133 0.165649 0.132904
0.196472 0.187744 0.154755
0.218109 0.208649 0.175903
0.240082 0.230225 0.196014
0.265228 0.253662 0.216827
0.291931 0.279572 0.238953
